;FLAVOR:Marlin
;TIME:350
;Filament used: 13.6195m
;Layer height: 1.2
;MINX:421.002
;MINY:421.117
;MINZ:1.2
;MAXX:578.998
;MAXY:578.883
;MAXZ:40.276
;Generated with Cura_SteamEngine 5.2.1
M104 S200
M105
M109 S200
M82 ;absolute extrusion mode

G92 E0
G92 E0
;LAYER_COUNT:33
;LAYER:0
M107
;MESH:Cilinder.stl
G0 F7200 X421.002 Y500.001 Z1.2
;TYPE:WALL-OUTER
G1 X421.465 Y508.539 E3.21681
G1 X422.849 Y516.981 E6.43518
G1 X425.134 Y525.21 E9.64816
G1 X428.303 Y533.169 E12.87104
G1 X432.309 Y540.726 E16.08883
G1 X437.109 Y547.806 E19.30684
G1 X442.648 Y554.326 E22.52539
G1 X448.858 Y560.208 E25.74331
G1 X455.67 Y565.386 E28.96239
G1 X462.997 Y569.795 E32.17947
G1 X470.762 Y573.387 E35.39817
G1 X478.864 Y576.118 E38.61474
G1 X487.22 Y577.957 E41.83359
G1 X495.725 Y578.883 E45.05217
G1 X504.275 Y578.883 E48.26878
G1 X512.78 Y577.957 E51.48736
G1 X521.136 Y576.118 E54.70621
G1 X529.238 Y573.387 E57.92278
G1 X537.003 Y569.795 E61.14148
G1 X544.33 Y565.386 E64.35856
G1 X551.142 Y560.208 E67.57764
G1 X557.352 Y554.326 E70.79556
G1 X562.891 Y547.806 E74.01411
G1 X567.691 Y540.726 E77.23212
G1 X571.697 Y533.169 E80.44991
G1 X574.868 Y525.21 E83.67307
G1 X577.151 Y516.981 E86.88585
G1 X578.535 Y508.539 E90.10422
G1 X578.998 Y499.998 E93.32215
G1 X578.535 Y491.459 E96.53934
G1 X577.151 Y483.017 E99.75771
G1 X574.866 Y474.79 E102.96996
G1 X571.697 Y466.831 E106.19285
G1 X567.689 Y459.272 E109.41165
G1 X562.889 Y452.192 E112.62966
G1 X557.352 Y445.674 E115.84715
G1 X551.14 Y439.79 E119.06613
G1 X544.331 Y434.614 E122.28386
G1 X537.003 Y430.205 E125.50126
G1 X529.238 Y426.613 E128.71996
G1 X521.136 Y423.882 E131.93653
G1 X512.78 Y422.043 E135.15538
G1 X504.275 Y421.118 E138.37392
G1 X495.725 Y421.118 E141.59053
G1 X487.22 Y422.043 E144.80907
G1 X478.864 Y423.882 E148.02793
G1 X470.762 Y426.613 E151.24449
G1 X462.997 Y430.205 E154.46319
G1 X455.67 Y434.614 E157.68027
G1 X448.858 Y439.792 E160.89935
G1 X442.648 Y445.674 E164.11727
G1 X437.109 Y452.194 E167.33582
G1 X432.309 Y459.274 E170.55383
G1 X428.303 Y466.831 E173.77162
G1 X425.132 Y474.79 E176.99478
G1 X422.849 Y483.019 E180.20756
G1 X421.465 Y491.461 E183.42593
G1 X421.002 Y500.001 E186.64349
G0 X421.049 Y500.874
G0 X423.77 Y500.727
G0 X423.731 Y500
G0 X422.905 Y500.002
;TYPE:SKIN
G1 X423.357 Y508.331 E189.78156
G1 X424.708 Y516.572 E192.9233
G1 X426.938 Y524.602 E196.05861
G1 X430.03 Y532.369 E199.20367
G1 X433.939 Y539.744 E202.34387
G1 X438.622 Y546.653 E205.48393
G1 X444.029 Y553.016 E208.62532
G1 X450.09 Y558.756 E211.7658
G1 X456.74 Y563.811 E214.90835
G1 X463.889 Y568.112 E218.04711
G1 X471.469 Y571.619 E221.18921
G1 X479.372 Y574.283 E224.32679
G1 X487.529 Y576.079 E227.46904
G1 X495.83 Y576.983 E230.61044
G1 X504.17 Y576.983 E233.74804
G1 X512.471 Y576.079 E236.88943
G1 X520.628 Y574.283 E240.03169
G1 X528.531 Y571.619 E243.16926
G1 X536.111 Y568.112 E246.31137
G1 X543.259 Y563.811 E249.4498
G1 X549.91 Y558.756 E252.59265
G1 X555.971 Y553.016 E255.73314
G1 X561.378 Y546.653 E258.87452
G1 X566.061 Y539.744 E262.01458
G1 X569.97 Y532.369 E265.15478
G1 X573.07 Y524.588 E268.30585
G1 X575.292 Y516.571 E271.43564
G1 X576.643 Y508.331 E274.57701
G1 X577.095 Y499.997 E277.71696
G1 X576.643 Y491.665 E280.85616
G1 X575.292 Y483.425 E283.99753
G1 X573.066 Y475.412 E287.12627
G1 X569.969 Y467.631 E290.27692
G1 X566.057 Y460.252 E293.41897
G1 X561.375 Y453.345 E296.5582
G1 X555.971 Y446.983 E299.69857
G1 X549.906 Y441.24 E302.84092
G1 X543.261 Y436.189 E305.98107
G1 X536.111 Y431.888 E309.12014
G1 X528.531 Y428.381 E312.26225
G1 X520.628 Y425.717 E315.39982
G1 X512.471 Y423.921 E318.54208
G1 X504.17 Y423.019 E321.68339
G1 X495.83 Y423.018 E324.82099
G1 X487.529 Y423.921 E327.96234
G1 X479.372 Y425.717 E331.1046
G1 X471.469 Y428.381 E334.24217
G1 X463.889 Y431.888 E337.38428
G1 X456.74 Y436.189 E340.52303
G1 X450.09 Y441.244 E343.66559
G1 X444.029 Y446.984 E346.80607
G1 X438.622 Y453.347 E349.94746
G1 X433.939 Y460.256 E353.08752
G1 X430.03 Y467.631 E356.22772
G1 X426.93 Y475.412 E359.37879
G1 X424.708 Y483.429 E362.50857
G1 X423.357 Y491.669 E365.64994
G1 X422.905 Y500.002 E368.78952
G0 X423.731 Y500
G0 X444.243 Y551.723
G1 X446.465 Y553.945 E369.97172
G0 X459.881 Y564.533
G1 X435.263 Y539.915 E383.06955
G1 X434.91 Y539.562
G0 X431.857 Y533.681
G1 X466.302 Y568.125 E401.3955
G1 X466.655 Y568.478
G0 X471.565 Y570.56
G1 X429.606 Y528.601 E423.71949
G1 X429.253 Y528.248
G0 X429.272 Y528.241
G0 X427.799 Y523.966
G1 X475.884 Y572.051 E449.30277
G1 X476.237 Y572.404
G0 X476.25 Y572.364
G0 X480.074 Y573.412
G1 X426.711 Y520.049 E477.69417
G1 X426.358 Y519.696
G0 X426.425 Y519.679
G0 X425.653 Y516.163
G1 X483.702 Y574.211 E508.57847
G0 X487.329 Y575.01
G1 X425.099 Y512.78 E541.68749
G0 X424.544 Y509.397
G1 X490.548 Y575.401 E576.80445
G0 X493.722 Y575.746
G1 X424.246 Y506.27 E613.76866
G0 X424.083 Y503.279
G1 X496.786 Y575.982 E652.44978
G0 X499.614 Y575.982
G1 X423.921 Y500.289 E692.7217
G0 X424.037 Y497.576
G1 X502.443 Y575.982 E734.43705
G0 X505.157 Y575.868
G1 X424.183 Y494.894 E777.51869
G0 X424.329 Y492.211
G1 X507.708 Y575.59 E821.8799
G0 X510.258 Y575.312
G1 X424.686 Y489.74 E867.40787
G0 X425.085 Y487.31
G1 X512.764 Y574.989 E914.05686
G0 X515.082 Y574.479
G1 X425.483 Y484.88 E961.72737
G0 X425.987 Y482.555
G1 X517.399 Y573.968 E1010.36274
G0 X519.717 Y573.457
G1 X426.601 Y480.341 E1059.90444
G0 X427.214 Y478.126
G1 X521.889 Y572.801 E1110.2756
G0 X524.005 Y572.088
G1 X427.828 Y475.911 E1161.44589
G0 X428.618 Y473.873
G1 X526.12 Y571.375 E1213.32114
G0 X528.229 Y570.655
G1 X429.424 Y471.85 E1265.88964
G0 X430.229 Y469.827
G1 X530.163 Y569.761 E1319.05881
G0 X532.096 Y568.865
G1 X431.056 Y467.826 E1372.81616
G0 X432.036 Y465.977
G1 X534.03 Y567.971 E1427.08134
G0 X535.936 Y567.048
G1 X433.015 Y464.128 E1481.83946
G0 X433.995 Y462.28
G1 X537.702 Y565.986 E1537.01576
G0 X539.468 Y564.923
G1 X435.005 Y460.461 E1592.59429
G0 X436.148 Y458.775
G92 E0
G1 X541.233 Y563.861 E55.90999
G0 X542.972 Y562.771
G1 X437.291 Y457.09 E112.13682
G0 X438.433 Y455.404
G1 X544.579 Y561.55 E168.61104
G0 X546.186 Y560.329
G1 X439.598 Y453.74 E225.32069
G0 X440.898 Y452.211
G1 X547.793 Y559.107 E282.19368
G0 X549.387 Y557.872
G1 X442.197 Y450.682 E339.22336
G0 X443.496 Y449.153
G1 X550.839 Y556.496 E396.33444
G0 X552.292 Y555.121
G1 X444.801 Y447.629 E453.52453
G0 X446.254 Y446.254
G1 X553.745 Y553.745 E510.71435
G0 X555.197 Y552.369
G1 X447.706 Y444.878 E567.90417
G0 X449.159 Y443.502
G1 X556.502 Y550.845 E625.01525
G0 X557.801 Y549.316
G1 X450.612 Y442.127 E682.04439
G0 X452.205 Y440.891
G1 X559.101 Y547.787 E738.91765
G0 X560.401 Y546.259
G1 X453.812 Y439.67 E795.62757
G0 X455.419 Y438.448
G1 X561.565 Y544.595 E852.10206
G0 X562.707 Y542.908
G1 X457.026 Y437.227 E908.32888
G0 X458.765 Y436.137
G1 X563.85 Y541.223 E964.23887
G0 X564.993 Y539.537
G1 X460.531 Y435.075 E1019.81714
G0 X462.297 Y434.012
G1 X566.002 Y537.718 E1074.99291
G0 X566.982 Y535.87
G1 X464.063 Y432.95 E1129.7505
G0 X465.969 Y432.028
G1 X567.962 Y534.021 E1184.01515
G0 X568.942 Y532.172
G1 X467.902 Y431.132 E1237.77276
G0 X469.836 Y430.238
G1 X569.768 Y530.17 E1290.94087
G0 X570.575 Y528.148
G1 X471.769 Y429.343 E1343.50963
G0 X473.878 Y428.624
G1 X571.381 Y526.126 E1395.38515
G0 X572.171 Y524.087
G1 X475.994 Y427.911 E1446.55517
G0 X478.109 Y427.197
G1 X572.784 Y521.873 E1496.92659
G0 X573.398 Y519.658
G1 X480.281 Y426.54 E1546.4691
G0 X482.598 Y426.03
G1 X574.012 Y517.443 E1595.105
G0 X574.516 Y515.119
G92 E0
G1 X484.916 Y425.519 E47.67104
G0 X487.234 Y425.009
G1 X574.914 Y512.689 E94.32056
G0 X575.312 Y510.258
G1 X489.74 Y424.686 E139.84854
G0 X492.291 Y424.409
G1 X575.669 Y507.787 E184.20921
G0 X575.815 Y505.104
G1 X494.842 Y424.131 E227.29032
G0 X497.557 Y424.018
G1 X575.961 Y502.422 E269.00461
G0 X576.077 Y499.71
G1 X500.386 Y424.018 E309.27573
G0 X503.214 Y424.018
G1 X575.915 Y496.719 E347.95578
G0 X575.752 Y493.728
G1 X506.278 Y424.254 E384.91893
G0 X509.451 Y424.598
G1 X575.454 Y490.601 E420.03535
G0 X574.899 Y487.218
G1 X512.67 Y424.988 E453.14412
G0 X516.296 Y425.787
G1 X574.346 Y483.836 E484.02894
G1 X574.699 Y484.189
G0 X574.586 Y484.207
G0 X573.288 Y479.95
G1 X519.924 Y426.586 E512.42088
G1 X519.571 Y426.233
G0 X519.551 Y426.321
G0 X524.114 Y427.948
G1 X572.2 Y476.034 E538.00469
G1 X572.553 Y476.387
G0 X572.487 Y476.404
G0 X570.391 Y471.396
G1 X528.433 Y429.438 E560.32814
G1 X528.08 Y429.085
G0 X528.077 Y429.094
G0 X533.696 Y431.873
G1 X568.14 Y466.317 E578.65383
G1 X568.493 Y466.67
G0 X564.731 Y460.079
G1 X540.117 Y435.466 E591.74927
G1 X539.764 Y435.113
G0 X553.533 Y446.052
G1 X555.754 Y448.273 E592.93093
G0 X554.44 Y449.387
;MESH:NONMESH
G0 F600 X554.44 Y449.387 Z2.4
G0 F7200 X431.017 Y500.001
;TIME_ELAPSED:97.018867
;LAYER:1
;TYPE:WALL-INNER
;MESH:Cilinder.stl
G1 X431.421 Y507.457 E595.74008
G1 X432.629 Y514.828 E598.55013
G1 X434.624 Y522.013 E601.35547
G1 X437.393 Y528.965 E604.17071
G1 X440.89 Y535.564 E606.98038
G1 X445.081 Y541.745 E609.78988
G1 X449.918 Y547.438 E612.60032
G1 X455.341 Y552.575 E615.41054
G1 X461.29 Y557.096 E618.22157
G1 X467.688 Y560.947 E621.03096
G1 X474.469 Y564.084 E623.8418
G1 X481.544 Y566.468 E626.65054
G1 X488.84 Y568.075 E629.46117
G1 X496.267 Y568.883 E632.27178
G1 X503.733 Y568.883 E635.08057
G1 X511.16 Y568.075 E637.89118
G1 X518.456 Y566.468 E640.7018
G1 X525.531 Y564.084 E643.51054
G1 X532.312 Y560.947 E646.32139
G1 X538.71 Y557.097 E649.13058
G1 X544.659 Y552.575 E651.94184
G1 X550.082 Y547.438 E654.75206
G1 X554.919 Y541.745 E657.5625
G1 X559.11 Y535.564 E660.372
G1 X562.607 Y528.964 E663.182
G1 X565.378 Y522.013 E665.99718
G1 X567.37 Y514.83 E668.80149
G1 X568.579 Y507.457 E671.61234
G1 X568.983 Y499.998 E674.42261
G1 X568.579 Y492.541 E677.23213
G1 X567.371 Y485.17 E680.04218
G1 X565.376 Y477.988 E682.84643
G1 X562.607 Y471.035 E685.66203
G1 X559.108 Y464.435 E688.47238
G1 X554.917 Y458.252 E691.2825
G1 X550.082 Y452.562 E694.0916
G1 X544.657 Y447.423 E696.90288
G1 X538.711 Y442.904 E699.71256
G1 X532.312 Y439.054 E702.52207
G1 X525.531 Y435.916 E705.33307
G1 X518.456 Y433.532 E708.14181
G1 X511.16 Y431.926 E710.95236
G1 X503.733 Y431.118 E713.76297
G1 X496.267 Y431.118 E716.57176
G1 X488.84 Y431.926 E719.38237
G1 X481.544 Y433.532 E722.19291
G1 X474.469 Y435.916 E725.00165
G1 X467.688 Y439.053 E727.8125
G1 X461.29 Y442.903 E730.62169
G1 X455.341 Y447.425 E733.43295
G1 X449.918 Y452.562 E736.24316
G1 X445.081 Y458.255 E739.05361
G1 X440.89 Y464.436 E741.86311
G1 X437.393 Y471.036 E744.67311
G1 X434.622 Y477.987 E747.48828
G1 X432.629 Y485.17 E750.2927
G1 X431.421 Y492.543 E753.10349
G1 X431.017 Y500.001 E755.91338
G0 X429.014 Y500.001
G1 X429.43 Y507.673 E758.80392
G1 X430.673 Y515.259 E761.69591
G1 X432.726 Y522.652 E764.58249
G1 X435.575 Y529.806 E767.47947
G1 X439.174 Y536.596 E770.3706
G1 X443.487 Y542.958 E773.26222
G1 X448.464 Y548.816 E776.15407
G1 X454.044 Y554.102 E779.04572
G1 X460.166 Y558.754 E781.93839
G1 X466.75 Y562.716 E784.82926
G1 X473.728 Y565.944 E787.72175
G1 X481.008 Y568.398 E790.61198
G1 X488.516 Y570.051 E793.50422
G1 X496.159 Y570.883 E796.39659
G1 X503.841 Y570.883 E799.28664
G1 X511.484 Y570.051 E802.17901
G1 X518.992 Y568.398 E805.07125
G1 X526.272 Y565.944 E807.96149
G1 X533.25 Y562.716 E810.85397
G1 X539.834 Y558.754 E813.74484
G1 X545.956 Y554.102 E816.63751
G1 X551.536 Y548.816 E819.52916
G1 X556.513 Y542.958 E822.42101
G1 X560.826 Y536.596 E825.31263
G1 X564.425 Y529.805 E828.20409
G1 X567.276 Y522.652 E831.101
G1 X569.327 Y515.26 E833.98702
G1 X570.57 Y507.673 E836.87939
G1 X570.986 Y499.998 E839.77104
G1 X570.57 Y492.325 E842.66195
G1 X569.327 Y484.739 E845.55395
G1 X567.274 Y477.348 E848.4398
G1 X564.425 Y470.194 E851.33679
G1 X560.824 Y463.402 E854.22893
G1 X556.511 Y457.04 E857.12055
G1 X551.536 Y451.184 E860.01134
G1 X545.954 Y445.896 E862.90405
G1 X539.835 Y441.246 E865.79537
G1 X533.251 Y437.284 E868.68624
G1 X526.272 Y434.056 E871.57906
G1 X518.992 Y431.602 E874.4693
G1 X511.484 Y429.949 E877.36154
G1 X503.841 Y429.118 E880.25387
G1 X496.159 Y429.118 E883.14392
G1 X488.516 Y429.949 E886.03625
G1 X481.008 Y431.602 E888.92849
G1 X473.728 Y434.056 E891.81872
G1 X466.75 Y437.284 E894.71121
G1 X460.166 Y441.246 E897.60208
G1 X454.044 Y445.898 E900.49475
G1 X448.464 Y451.184 E903.3864
G1 X443.487 Y457.042 E906.27825
G1 X439.174 Y463.404 E909.16987
G1 X435.575 Y470.195 E912.06133
G1 X432.724 Y477.348 E914.95824
G1 X430.673 Y484.74 E917.84426
G1 X429.43 Y492.327 E920.73662
G1 X429.014 Y500.001 E923.62791
G0 X427.011 Y500.001
G1 X427.439 Y507.89 E926.6002
G1 X428.717 Y515.69 E929.57377
G1 X430.828 Y523.292 E932.54195
G1 X433.757 Y530.647 E935.52033
G1 X437.458 Y537.629 E938.49324
G1 X441.892 Y544.17 E941.46615
G1 X447.01 Y550.193 E944.43965
G1 X452.748 Y555.628 E947.413
G1 X459.042 Y560.412 E950.38724
G1 X465.811 Y564.486 E953.35947
G1 X472.986 Y567.805 E956.33359
G1 X480.472 Y570.328 E959.30556
G1 X488.192 Y572.028 E962.27949
G1 X496.05 Y572.883 E965.25321
G1 X503.95 Y572.883 E968.22528
G1 X511.808 Y572.028 E971.19899
G1 X519.528 Y570.328 E974.17293
G1 X527.014 Y567.805 E977.14489
G1 X534.189 Y564.486 E980.11902
G1 X540.958 Y560.412 E983.09125
G1 X547.252 Y555.628 E986.06548
G1 X552.99 Y550.193 E989.03883
G1 X558.108 Y544.17 E992.01234
G1 X562.542 Y537.629 E994.98524
G1 X566.243 Y530.646 E997.95849
G1 X569.174 Y523.291 E1000.93714
G1 X571.283 Y515.69 E1003.90476
G1 X572.561 Y507.89 E1006.87833
G1 X572.989 Y499.998 E1009.85175
G1 X572.561 Y492.108 E1012.82442
G1 X571.283 Y484.309 E1015.79763
G1 X569.172 Y476.709 E1018.76508
G1 X566.243 Y469.353 E1021.7438
G1 X562.541 Y462.37 E1024.71723
G1 X558.106 Y455.828 E1027.69065
G1 X552.99 Y449.807 E1030.6631
G1 X547.25 Y444.37 E1033.63751
G1 X540.959 Y439.588 E1036.6104
G1 X534.189 Y435.514 E1039.58295
G1 X527.014 Y432.195 E1042.55707
G1 X519.528 Y429.672 E1045.52904
G1 X511.808 Y427.972 E1048.50297
G1 X503.95 Y427.118 E1051.47665
G1 X496.05 Y427.118 E1054.44872
G1 X488.192 Y427.972 E1057.42239
G1 X480.472 Y429.672 E1060.39632
G1 X472.986 Y432.195 E1063.36829
G1 X465.811 Y435.514 E1066.34241
G1 X459.042 Y439.588 E1069.31465
G1 X452.748 Y444.372 E1072.28888
G1 X447.01 Y449.807 E1075.26223
G1 X441.892 Y455.83 E1078.23574
G1 X437.458 Y462.371 E1081.20864
G1 X433.757 Y469.354 E1084.18189
G1 X430.826 Y476.708 E1087.16019
G1 X428.717 Y484.31 E1090.12817
G1 X427.439 Y492.11 E1093.10174
G1 X427.011 Y500.001 E1096.07479
G0 X425.008 Y500.001
G1 X425.448 Y508.106 E1099.12847
G1 X426.761 Y516.12 E1102.18362
G1 X428.93 Y523.931 E1105.2334
G1 X431.939 Y531.488 E1108.29351
G1 X435.741 Y538.661 E1111.34771
G1 X440.298 Y545.382 E1114.40263
G1 X445.556 Y551.571 E1117.45784
G1 X451.451 Y557.155 E1120.51262
G1 X457.918 Y562.07 E1123.56849
G1 X464.873 Y566.255 E1126.62221
G1 X472.245 Y569.666 E1129.67813
G1 X479.936 Y572.258 E1132.73147
G1 X487.868 Y574.004 E1135.78702
G1 X495.942 Y574.883 E1138.8425
G1 X504.058 Y574.883 E1141.89582
G1 X512.132 Y574.004 E1144.9513
G1 X520.064 Y572.258 E1148.00685
G1 X527.755 Y569.666 E1151.06019
G1 X535.127 Y566.255 E1154.11611
G1 X542.082 Y562.07 E1157.16983
G1 X548.549 Y557.155 E1160.2257
G1 X554.444 Y551.571 E1163.28048
G1 X559.702 Y545.382 E1166.33569
G1 X564.259 Y538.661 E1169.39061
G1 X568.061 Y531.487 E1172.44514
G1 X571.072 Y523.931 E1175.50518
G1 X573.239 Y516.121 E1178.55439
G1 X574.552 Y508.106 E1181.60992
G1 X574.992 Y499.998 E1184.66473
G1 X574.553 Y491.892 E1187.71876
G1 X573.239 Y483.878 E1190.77398
G1 X571.07 Y476.069 E1193.82303
G1 X568.061 Y468.513 E1196.88279
G1 X564.257 Y461.337 E1199.93834
G1 X559.7 Y454.616 E1202.99326
G1 X554.444 Y448.429 E1206.0474
G1 X548.547 Y442.843 E1209.10325
G1 X542.083 Y437.93 E1212.15777
G1 X535.127 Y433.745 E1215.21181
G1 X527.755 Y430.334 E1218.26773
G1 X520.064 Y427.742 E1221.32107
G1 X512.132 Y425.996 E1224.37662
G1 X504.058 Y425.118 E1227.43205
G1 X495.942 Y425.118 E1230.48538
G1 X487.868 Y425.996 E1233.54082
G1 X479.936 Y427.742 E1236.59636
G1 X472.245 Y430.334 E1239.64971
G1 X464.873 Y433.745 E1242.70563
G1 X457.918 Y437.93 E1245.75934
G1 X451.451 Y442.845 E1248.81522
G1 X445.556 Y448.429 E1251.87
