;FLAVOR:Marlin
;TIME:375
;Filament used: 15.026m
;Layer height: 1.2
;MINX:408.779
;MINY:421
;MINZ:1.2
;MAXX:591.221
;MAXY:579
;MAXZ:40.255
;Generated with Cura_SteamEngine 5.2.1
M104 S200
M105
M109 S200
M82 ;absolute extrusion mode

G92 E0
G92 E0
;LAYER_COUNT:33
;LAYER:0
M107
;MESH:Hexagon 8x20x2.stl
G0 F7200 X408.78 Y500.001 Z1.2
;TYPE:WALL-OUTER
G1 X454.391 Y579 E34.31822
G1 X545.609 Y579 E68.63545
G1 X591.22 Y500.001 E102.95367
G1 X545.609 Y421.001 E137.27221
G1 X454.391 Y421.001 E171.58944
G1 X408.78 Y500.001 E205.90799
G0 X409.217 Y500.758
G0 X411.909 Y500
G0 X410.976 Y500.002
;TYPE:SKIN
G1 X455.489 Y577.099 E239.39998
G1 X544.511 Y577.099 E272.89105
G1 X589.024 Y500.001 E306.38337
G1 X544.511 Y422.902 E339.87601
G1 X455.489 Y422.902 E373.36708
G1 X410.976 Y500.002 E406.86005
G0 X411.909 Y500
G0 X457.304 Y576.098
G1 X454.372 Y573.166 E408.42
G1 X454.019 Y572.813
G0 X460.132 Y576.098
G1 X450.509 Y566.474 E413.54011
G1 X450.156 Y566.121
G0 X446.645 Y559.782
G1 X462.961 Y576.098 E422.22092
G0 X465.789 Y576.098
G1 X442.781 Y553.09 E434.46217
G1 X442.428 Y552.737
G0 X438.918 Y546.398
G1 X468.618 Y576.098 E450.26384
G0 X471.446 Y576.098
G1 X435.053 Y539.705 E469.62648
G1 X434.7 Y539.352
G0 X431.19 Y533.013
G1 X474.274 Y576.098 E492.54928
G0 X477.103 Y576.098
G1 X427.326 Y526.321 E519.03278
G1 X426.973 Y525.968
G0 X423.462 Y519.629
G1 X479.931 Y576.098 E549.07671
G0 X482.76 Y576.098
G1 X419.599 Y512.937 E582.68107
G1 X419.246 Y512.584
G0 X415.735 Y506.245
G1 X485.588 Y576.098 E619.84586
G0 X488.417 Y576.098
G1 X412.2 Y499.881 E660.39657
G0 X413.235 Y498.088
G1 X491.245 Y576.098 E701.90124
G0 X494.073 Y576.098
G1 X414.27 Y496.294 E744.36012
G0 X415.305 Y494.501
G1 X496.902 Y576.098 E787.77322
G0 X499.73 Y576.098
G1 X416.34 Y492.708 E832.14028
G0 X417.376 Y490.915
G1 X502.559 Y576.098 E877.46129
G0 X505.387 Y576.098
G1 X418.411 Y489.122 E923.73625
G0 X419.446 Y487.328
G1 X508.216 Y576.098 E970.9657
G0 X511.044 Y576.098
G1 X420.481 Y485.535 E1019.1491
G0 X421.516 Y483.742
G1 X513.872 Y576.098 E1068.28645
G0 X516.701 Y576.098
G1 X422.552 Y481.949 E1118.37776
G0 X423.587 Y480.155
G1 X519.529 Y576.098 E1169.42328
G0 X522.358 Y576.098
G1 X424.622 Y478.362 E1221.42302
G0 X425.658 Y476.57
G1 X525.186 Y576.098 E1274.37619
G0 X528.015 Y576.098
G1 X426.693 Y474.776 E1328.28384
G0 X427.728 Y472.983
G1 X530.843 Y576.098 E1383.14544
G0 X533.671 Y576.098
G1 X428.764 Y471.19 E1438.96073
G0 X429.799 Y469.397
G1 X536.5 Y576.098 E1495.73023
G0 X539.328 Y576.098
G1 X430.834 Y467.604 E1553.45369
G0 X431.869 Y465.81
G1 X542.157 Y576.098 E1612.13164
G0 X544.318 Y575.431
G92 E0
G1 X432.904 Y464.017 E59.27703
G0 X433.94 Y462.224
G1 X545.353 Y573.638 E118.55379
G0 X546.389 Y571.845
G1 X434.975 Y460.431 E177.83081
G0 X436.01 Y458.637
G1 X547.424 Y570.051 E237.10784
G0 X548.46 Y568.259
G1 X437.045 Y456.844 E296.38539
G0 X438.08 Y455.051
G1 X549.495 Y566.466 E355.66295
G0 X550.53 Y564.672
G1 X439.116 Y453.258 E414.93998
G0 X440.152 Y451.465
G1 X551.565 Y562.879 E474.21674
G0 X552.601 Y561.086
G1 X441.187 Y449.672 E533.49376
G0 X442.222 Y447.879
G1 X553.636 Y559.293 E592.77079
G0 X554.671 Y557.499
G1 X443.257 Y446.086 E652.04755
G0 X444.292 Y444.292
G1 X555.706 Y555.706 E711.32458
G0 X556.741 Y553.913
G1 X445.328 Y442.499 E770.60134
G0 X446.363 Y440.706
G1 X557.777 Y552.12 E829.87836
G0 X558.813 Y550.327
G1 X447.398 Y438.913 E889.15565
G0 X448.433 Y437.119
G1 X559.848 Y548.534 E948.43321
G0 X560.883 Y546.741
G1 X449.468 Y435.326 E1007.71077
G0 X450.504 Y433.533
G1 X561.918 Y544.948 E1066.98806
G0 X562.953 Y543.154
G1 X451.539 Y431.74 E1126.26509
G0 X452.574 Y429.947
G1 X563.989 Y541.361 E1185.54238
G0 X565.024 Y539.568
G1 X453.609 Y428.153 E1244.81994
G0 X454.645 Y426.361
G1 X566.06 Y537.775 E1304.09723
G0 X567.095 Y535.982
G1 X455.68 Y424.568 E1363.37452
G0 X457.843 Y423.902
G1 X568.13 Y534.189 E1422.05193
G0 X569.165 Y532.396
G1 X460.671 Y423.902 E1479.77539
G0 X463.5 Y423.902
G1 X570.201 Y530.603 E1536.5449
G0 X571.236 Y528.809
G1 X466.328 Y423.902 E1592.36019
G0 X469.156 Y423.902
G92 E0
G1 X572.271 Y527.016 E54.86134
G0 X573.306 Y525.223
G1 X471.985 Y423.902 E108.76845
G0 X474.813 Y423.902
G1 X574.341 Y523.43 E161.72162
G0 X575.377 Y521.637
G1 X477.642 Y423.902 E213.72083
G0 X480.47 Y423.902
G1 X576.412 Y519.844 E264.76609
G0 X577.448 Y518.051
G1 X483.298 Y423.902 E314.85766
G0 X486.127 Y423.902
G1 X578.483 Y516.257 E363.99474
G0 X579.518 Y514.464
G1 X488.955 Y423.902 E412.17788
G0 X491.784 Y423.902
G1 X580.553 Y512.671 E459.40679
G0 X581.588 Y510.878
G1 X494.612 Y423.902 E505.68175
G0 X497.441 Y423.902
G1 X582.624 Y509.085 E551.00276
G0 X583.659 Y507.291
G1 X500.269 Y423.902 E595.36955
G0 X503.097 Y423.902
G1 X584.695 Y505.499 E638.78292
G0 X585.73 Y503.706
G1 X505.926 Y423.902 E681.24207
G0 X508.754 Y423.902
G1 X586.765 Y501.912 E722.747
G0 X587.8 Y500.119
G1 X511.583 Y423.902 E763.29772
G0 X514.411 Y423.902
G1 X584.26 Y493.75 E800.46011
G1 X584.613 Y494.103
G0 X580.396 Y487.058
G1 X517.24 Y423.902 E834.06181
G0 X520.068 Y423.902
G1 X576.533 Y480.366 E864.10335
G1 X576.886 Y480.719
G0 X572.669 Y473.674
G1 X522.896 Y423.902 E890.58445
G0 X525.725 Y423.902
G1 X568.805 Y466.982 E913.50486
G1 X569.158 Y467.335
G0 X564.942 Y460.29
G1 X528.553 Y423.902 E932.8651
G0 X531.382 Y423.902
G1 X561.078 Y453.598 E948.66465
G1 X561.431 Y453.951
G0 X557.214 Y446.906
G1 X534.21 Y423.902 E960.90376
G0 X537.039 Y423.902
G1 X553.351 Y440.214 E969.58245
G1 X553.704 Y440.567
G0 X549.487 Y433.522
G1 X539.867 Y423.902 E974.7007
G0 X542.695 Y423.902
G1 X545.624 Y426.83 E976.25879
G1 X545.977 Y427.183
G0 X544.374 Y428.107
;MESH:NONMESH
G0 F600 X544.374 Y428.107 Z2.4
G0 F7200 X420.327 Y500.001
;TIME_ELAPSED:106.859545
;LAYER:1
;TYPE:WALL-INNER
;MESH:Hexagon 8x20x2.stl
G1 X440.246 Y534.5 E991.24573
G1 X460.164 Y569 E1006.2328
G1 X539.836 Y569 E1036.2063
G1 X579.673 Y500.001 E1066.18031
G1 X539.836 Y431.001 E1096.15465
G1 X460.164 Y431.001 E1126.12814
G1 X420.327 Y500.001 E1156.10248
G0 X418.018 Y500.001
G1 X438.514 Y535.5 E1171.52377
G1 X459.01 Y571 E1186.94538
G1 X540.99 Y571 E1217.78717
G1 X581.982 Y500.001 E1248.63006
G1 X540.99 Y429.001 E1279.47328
G1 X459.01 Y429.001 E1310.31507
G1 X418.018 Y500.001 E1341.15829
G0 X415.709 Y500.001
G1 X436.782 Y536.5 E1357.01392
G1 X457.855 Y573 E1372.86987
G1 X542.145 Y573 E1404.58071
G1 X584.291 Y500.001 E1436.29229
G1 X542.145 Y427.001 E1468.0042
G1 X457.855 Y427.001 E1499.71504
G1 X415.709 Y500.001 E1531.42695
G0 X413.399 Y500.001
G1 X435.05 Y537.5 E1547.71711
G1 X456.7 Y575 E1564.00741
G1 X543.3 Y575 E1596.5873
G92 E0
G1 X586.601 Y500.001 E32.58046
G1 X543.3 Y425.001 E65.16125
G1 X456.7 Y425.001 E97.74114
G1 X413.399 Y500.001 E130.32192
G0 X411.909 Y500
G0 X411.09 Y500.001
G1 X433.318 Y538.5 E147.04643
G1 X455.546 Y577 E163.77127
G1 X544.454 Y577 E197.21945
G1 X588.91 Y500.001 E230.66879
G1 X544.454 Y423.001 E264.11845
G1 X455.546 Y423.001 E297.56663
G1 X411.09 Y500.001 E331.0163
G0 X411.909 Y500
G0 X408.78 Y500.001
;TYPE:WALL-OUTER
G1 X431.586 Y539.5 E348.17534
G1 X454.391 Y579 E365.33452
G1 X545.609 Y579 E399.65175
G1 X591.22 Y500.001 E433.96997
G1 X545.609 Y421.001 E468.28852
G1 X454.391 Y421.001 E502.60574
G1 X408.78 Y500.001 E536.92429
G0 X409.217 Y500.758
G0 X411.909 Y500
G0 X422.523 Y500.001
;TYPE:SKIN
G1 X461.263 Y567.1 E566.07292
G1 X538.737 Y567.1 E595.2195
G1 X577.477 Y500.002 E624.3678
G1 X538.737 Y432.902 E653.51675
G1 X461.263 Y432.902 E682.66333
G1 X422.523 Y500.001 E711.81196
G0 X462.709 Y433.901
G1 X460.651 Y435.959 E712.9069
G0 X465.537 Y433.901
G1 X456.788 Y442.651 E717.56201
G1 X456.435 Y443.004
G0 X452.924 Y449.343
G1 X468.366 Y433.901 E725.77782
G0 X471.194 Y433.901
G1 X449.06 Y456.035 E737.55406
G1 X448.707 Y456.388
G0 X445.197 Y462.727
G1 X474.023 Y433.901 E752.89072
G0 X476.851 Y433.901
G1 X441.333 Y469.419 E771.78782
G1 X440.98 Y469.772
G0 X437.469 Y476.111
G1 X479.68 Y433.901 E794.24562
G0 X482.508 Y433.901
G1 X433.606 Y482.804 E820.26385
G1 X433.253 Y483.157
G0 X429.742 Y489.496
G1 X485.336 Y433.901 E849.8425
G0 X488.165 Y433.901
G1 X425.878 Y496.188 E882.98186
G1 X425.525 Y496.541
G0 X424.124 Y500.771
G1 X490.993 Y433.901 E918.5593
G0 X493.822 Y433.901
G1 X425.159 Y502.564 E955.09096
G0 X426.194 Y504.358
G1 X496.65 Y433.901 E992.57684
G0 X499.479 Y433.901
G1 X427.229 Y506.151 E1031.01694
G0 X428.264 Y507.944
G1 X502.307 Y433.901 E1070.41099
G0 X505.135 Y433.901
G1 X429.3 Y509.737 E1110.75873
G0 X430.335 Y511.53
G1 X507.964 Y433.901 E1152.06069
G0 X510.792 Y433.901
G1 X431.371 Y513.323 E1194.31633
G0 X432.406 Y515.116
G1 X513.621 Y433.901 E1237.52619
G0 X516.449 Y433.901
G1 X433.441 Y516.909 E1281.69001
G0 X434.476 Y518.703
G1 X519.278 Y433.901 E1326.80831
G0 X522.106 Y433.901
G1 X435.512 Y520.496 E1372.8803
G0 X436.547 Y522.289
G1 X524.934 Y433.901 E1419.90624
G0 X527.763 Y433.901
G1 X437.582 Y524.082 E1467.8864
G0 X438.617 Y525.876
G1 X530.591 Y433.901 E1516.82077
G0 X533.42 Y433.901
G1 X439.652 Y527.669 E1566.70937
G0 X440.688 Y529.461
G1 X536.248 Y433.901 E1617.55139
G0 X538.495 Y434.483
G92 E0
G1 X441.723 Y531.254 E51.48659
G0 X442.759 Y533.048
G1 X539.53 Y436.277 E102.97291
G0 X540.565 Y438.07
G1 X443.794 Y534.841 E154.45923
G0 X444.829 Y536.634
G1 X541.6 Y439.863 E205.94555
G0 X542.635 Y441.656
G1 X445.864 Y538.427 E257.43188
G0 X446.899 Y540.221
G1 X543.671 Y443.449 E308.91873
G0 X544.706 Y445.243
G1 X447.935 Y542.014 E360.40505
G0 X448.97 Y543.807
G1 X545.741 Y447.036 E411.89137
G0 X546.776 Y448.829
G1 X450.006 Y545.6 E463.37743
G0 X451.041 Y547.393
G1 X547.811 Y450.622 E514.86348
G0 X548.847 Y452.416
G1 X452.076 Y549.186 E566.34954
G0 X453.111 Y550.979
G1 X549.882 Y454.209 E617.8356
G0 X550.918 Y456.001
G1 X454.147 Y552.772 E669.32192
G0 X455.182 Y554.566
G1 X551.953 Y457.795 E720.80824
G0 X552.988 Y459.588
G1 X456.217 Y556.359 E772.29456
G0 X457.252 Y558.152
G1 X554.023 Y461.381 E823.78088
G0 X555.059 Y463.174
G1 X458.287 Y559.945 E875.26747
G0 X459.323 Y561.738
G1 X556.094 Y464.967 E926.75379
G0 X557.129 Y466.761
G1 X460.359 Y563.531 E978.23958
G0 X461.394 Y565.324
G1 X558.164 Y468.554 E1029.72537
G0 X559.199 Y470.347
G1 X463.448 Y566.099 E1080.66928
G0 X466.276 Y566.099
G1 X560.235 Y472.14 E1130.65949
G0 X561.27 Y473.934
G1 X469.105 Y566.099 E1179.69523
G0 X471.933 Y566.099
G1 X562.305 Y475.727 E1227.77701
G0 X563.341 Y477.519
G1 X474.762 Y566.099 E1274.9051
G0 X477.59 Y566.099
G1 X564.376 Y479.313 E1321.07897
G0 X565.411 Y481.106
G1 X480.418 Y566.099 E1366.29889
G0 X483.247 Y566.099
G1 X566.446 Y482.899 E1410.56459
G0 X567.482 Y484.692
G1 X486.075 Y566.099 E1453.87661
G0 X488.904 Y566.099
G1 X568.517 Y486.485 E1496.23441
G0 X569.552 Y488.279
G1 X491.732 Y566.099 E1537.63798
G0 X494.561 Y566.099
G1 X570.587 Y490.072 E1578.08734
G0 X571.623 Y491.865
G92 E0
G1 X497.389 Y566.099 E39.49567
G0 X500.217 Y566.099
G1 X572.658 Y493.658 E78.03739
G0 X573.693 Y495.452
G1 X503.046 Y566.099 E115.62462
G0 X505.874 Y566.099
G1 X574.728 Y497.245 E152.2579
G0 X575.764 Y499.037
G1 X508.703 Y566.099 E187.9375
G0 X511.531 Y566.099
G1 X574.533 Y503.097 E221.45726
G1 X574.886 Y502.744
G0 X570.669 Y509.789
G1 X514.36 Y566.099 E251.41633
G0 X517.188 Y566.099
G1 X566.806 Y516.481 E277.81524
G1 X567.159 Y516.128
G0 X562.942 Y523.173
G1 X520.016 Y566.099 E300.65371
G0 X522.845 Y566.099
G1 X559.078 Y529.865 E319.93148
G1 X559.431 Y529.512
G0 X555.215 Y536.557
G1 X525.673 Y566.099 E335.6491
G0 X528.502 Y566.099
G1 X551.351 Y543.249 E347.80601
G1 X551.704 Y542.896
G0 X547.488 Y549.941
G1 X531.33 Y566.099 E356.40276
G0 X534.159 Y566.099
G1 X543.624 Y556.633 E361.43881
G1 X543.977 Y556.28
G0 X539.76 Y563.325
G1 X536.987 Y566.099 E362.91443
;MESH:NONMESH
G0 F600 X536.987 Y566.099 Z3.6
G0 F7200 X411.909 Y500
G0 X408.779 Y500
;TIME_ELAPSED:208.294355
;LAYER:2
;TYPE:WALL-OUTER
;MESH:Hexagon 8x20x2.stl
G1 X454.389 Y421 E397.23279
G1 X545.611 Y421 E431.55152
G1 X591.221 Y500 E465.86988
G1 X545.611 Y579 E500.18824
G1 X454.389 Y579 E534.50697
G1 X408.779 Y500 E568.82533
G1 X454.389 Y421 Z3.8 E603.14377
G1 X545.611 Y421 Z4 E637.46258
G1 X591.221 Y500 Z4.2 E671.78102
G1 X545.611 Y579 Z4.4 E706.09946
G1 X454.389 Y579 Z4.6 E740.41828
G1 X408.779 Y500 Z4.8 E774.73672
;TIME_ELAPSED:217.675036
;LAYER:3
;TYPE:WALL-OUTER
;MESH:Hexagon 8x20x2.stl
G1 F6567.9 X454.389 Y421 Z5 E809.05516
G1 X545.611 Y421 Z5.2 E843.37397
G1 X591.221 Y500 Z5.4 E877.69241
G1 X545.611 Y579 Z5.6 E912.01085
G1 X454.389 Y579 Z5.8 E946.32967
G1 X408.779 Y500 Z6 E980.64811
;TIME_ELAPSED:222.793751
;LAYER:4
;TYPE:WALL-OUTER
;MESH:Hexagon 8x20x2.stl
G1 X454.389 Y421 Z6.2 E1014.96655
G1 X545.611 Y421 Z6.4 E1049.28536
G1 X591.221 Y500 Z6.6 E1083.6038
G1 X545.611 Y579 Z6.8 E1117.92225
G1 X454.389 Y579 Z7 E1152.24106
G1 X408.779 Y500 Z7.2 E1186.5595
;TIME_ELAPSED:227.912467
;LAYER:5
;TYPE:WALL-OUTER
;MESH:Hexagon 8x20x2.stl
G1 X454.389 Y421 Z7.4 E1220.87794
G1 X545.611 Y421 Z7.6 E1255.19675
G1 X591.221 Y500 Z7.8 E1289.5152
G1 X545.611 Y579 Z8 E1323.83364
G1 X454.389 Y579 Z8.2 E1358.15245
G1 X408.779 Y500 Z8.4 E1392.47089
;TIME_ELAPSED:233.031183
;LAYER:6
;TYPE:WALL-OUTER
;MESH:Hexagon 8x20x2.stl
G1 X454.389 Y421 Z8.6 E1426.78933
G1 X545.611 Y421 Z8.8 E1461.10815
G1 X591.221 Y500 Z9 E1495.42659
G1 X545.611 Y579 Z9.2 E1529.74503
G1 X454.389 Y579 Z9.4 E1564.06384
G1 X408.779 Y500 Z9.6 E1598.38228
;TIME_ELAPSED:238.149899
;LAYER:7
;TYPE:WALL-OUTER
;MESH:Hexagon 8x20x2.stl
G92 E0
G1 X454.389 Y421 Z9.8 E34.31844
G1 X545.611 Y421 Z10 E68.63725
G1 X591.221 Y500 Z10.2 E102.9557
G1 X545.611 Y579 Z10.4 E137.27414
G1 X454.389 Y579 Z10.6 E171.59295
G1 X408.779 Y500 Z10.8 E205.91139
;TIME_ELAPSED:243.261211
;LAYER:8
;TYPE:WALL-OUTER
;MESH:Hexagon 8x20x2.stl
G1 X454.389 Y421 Z11 E240.22983
G1 X545.611 Y421 Z11.2 E274.54865
G1 X591.221 Y500 Z11.4 E308.86709
G1 X545.611 Y579 Z11.6 E343.18553
G1 X454.389 Y579 Z11.8 E377.50434
G1 X408.779 Y500 Z12 E411.82278
;TIME_ELAPSED:248.379927
;LAYER:9
;TYPE:WALL-OUTER
;MESH:Hexagon 8x20x2.stl
G1 X454.389 Y421 Z12.2 E446.14122
G1 X545.611 Y421 Z12.4 E480.46004
G1 X591.221 Y500 Z12.6 E514.77848
G1 X545.611 Y579 Z12.8 E549.09692
G1 X454.389 Y579 Z13 E583.41573
G1 X408.779 Y500 Z13.2 E617.73417
;TIME_ELAPSED:253.498643
;LAYER:10
;TYPE:WALL-OUTER
;MESH:Hexagon 8x20x2.stl
G1 X454.389 Y421 Z13.4 E652.05261
G1 X545.611 Y421 Z13.6 E686.37143
G1 X591.221 Y500 Z13.8 E720.68987
G1 X545.611 Y579 Z14 E755.00831
G1 X454.389 Y579 Z14.2 E789.32712
G1 X408.779 Y500 Z14.4 E823.64556
;TIME_ELAPSED:258.617359
;LAYER:11
;TYPE:WALL-OUTER
;MESH:Hexagon 8x20x2.stl
G1 X454.389 Y421 Z14.6 E857.964
G1 X545.611 Y421 Z14.8 E892.28282
G1 X591.221 Y500 Z15 E926.60126
G1 X545.611 Y579 Z15.2 E960.9197
G1 X454.389 Y579 Z15.4 E995.23851
G1 X408.779 Y500 Z15.6 E1029.55695
;TIME_ELAPSED:263.736074
;LAYER:12
;TYPE:WALL-OUTER
;MESH:Hexagon 8x20x2.stl
G1 X454.389 Y421 Z15.8 E1063.8754
G1 X545.611 Y421 Z16 E1098.19421
G1 X591.221 Y500 Z16.2 E1132.51265
G1 X545.611 Y579 Z16.4 E1166.83109
G1 X454.389 Y579 Z16.6 E1201.1499
G1 X408.779 Y500 Z16.8 E1235.46835
;TIME_ELAPSED:268.854790
;LAYER:13
;TYPE:WALL-OUTER
;MESH:Hexagon 8x20x2.stl
G1 X454.389 Y421 Z17 E1269.78679
G1 X545.611 Y421 Z17.2 E1304.1056
G1 X591.221 Y500 Z17.4 E1338.42404
G1 X545.611 Y579 Z17.6 E1372.74248
G1 X454.389 Y579 Z17.8 E1407.0613
G1 X408.779 Y500 Z18 E1441.37974
;TIME_ELAPSED:273.973506
;LAYER:14
;TYPE:WALL-OUTER
;MESH:Hexagon 8x20x2.stl
G1 X454.389 Y421 Z18.2 E1475.69818
G1 X545.611 Y421 Z18.4 E1510.01699
G1 X591.221 Y500 Z18.6 E1544.33543
G1 X545.611 Y579 Z18.8 E1578.65387
G92 E0
G1 X454.389 Y579 Z19 E34.31881
G1 X408.779 Y500 Z19.2 E68.63725
;TIME_ELAPSED:279.093773
;LAYER:15
;TYPE:WALL-OUTER
;MESH:Hexagon 8x20x2.stl
G1 X454.389 Y421 Z19.4 E102.9557
G1 X545.611 Y421 Z19.6 E137.27451
G1 X591.221 Y500 Z19.8 E171.59295
G1 X545.611 Y579 Z20 E205.91139
G1 X454.389 Y579 Z20.2 E240.23021
G1 X408.779 Y500 Z20.4 E274.54865
;TIME_ELAPSED:284.212488
;LAYER:16
;TYPE:WALL-OUTER
;MESH:Hexagon 8x20x2.stl
G1 X454.389 Y421 Z20.6 E308.86709
G1 X545.611 Y421 Z20.8 E343.1859
G1 X591.221 Y500 Z21 E377.50434
G1 X545.611 Y579 Z21.2 E411.82278
G1 X454.389 Y579 Z21.4 E446.1416
G1 X408.779 Y500 Z21.6 E480.46004
