/JOB
//NAME output
//POS
///NPOS 1745,0,0,0,0,0
///TOOL 10
///POSTYPE PULSE
///PULSE
///TOOL 10
///POSTYPE BASE
///RECTAN
///RCONF 0,0,0,0,0,0,0,0
C00000=500.000,500.000,500.000,-180.00,0.00,0.00
C00001=421.002,500.001,1.200,-180.00,0.00,0.00
C00002=421.465,508.539,1.200,-180.00,0.00,0.00
C00003=422.849,516.981,1.200,-180.00,0.00,0.00
C00004=425.134,525.210,1.200,-180.00,0.00,0.00
C00005=428.303,533.169,1.200,-180.00,0.00,0.00
C00006=432.309,540.726,1.200,-180.00,0.00,0.00
C00007=437.109,547.806,1.200,-180.00,0.00,0.00
C00008=442.648,554.326,1.200,-180.00,0.00,0.00
C00009=448.858,560.208,1.200,-180.00,0.00,0.00
C00010=455.670,565.386,1.200,-180.00,0.00,0.00
C00011=462.997,569.795,1.200,-180.00,0.00,0.00
C00012=470.762,573.387,1.200,-180.00,0.00,0.00
C00013=478.864,576.118,1.200,-180.00,0.00,0.00
C00014=487.220,577.957,1.200,-180.00,0.00,0.00
C00015=495.725,578.883,1.200,-180.00,0.00,0.00
C00016=504.275,578.883,1.200,-180.00,0.00,0.00
C00017=512.780,577.957,1.200,-180.00,0.00,0.00
C00018=521.136,576.118,1.200,-180.00,0.00,0.00
C00019=529.238,573.387,1.200,-180.00,0.00,0.00
C00020=537.003,569.795,1.200,-180.00,0.00,0.00
C00021=544.330,565.386,1.200,-180.00,0.00,0.00
C00022=551.142,560.208,1.200,-180.00,0.00,0.00
C00023=557.352,554.326,1.200,-180.00,0.00,0.00
C00024=562.891,547.806,1.200,-180.00,0.00,0.00
C00025=567.691,540.726,1.200,-180.00,0.00,0.00
C00026=571.697,533.169,1.200,-180.00,0.00,0.00
C00027=574.868,525.210,1.200,-180.00,0.00,0.00
C00028=577.151,516.981,1.200,-180.00,0.00,0.00
C00029=578.535,508.539,1.200,-180.00,0.00,0.00
C00030=578.998,499.998,1.200,-180.00,0.00,0.00
C00031=578.535,491.459,1.200,-180.00,0.00,0.00
C00032=577.151,483.017,1.200,-180.00,0.00,0.00
C00033=574.866,474.790,1.200,-180.00,0.00,0.00
C00034=571.697,466.831,1.200,-180.00,0.00,0.00
C00035=567.689,459.272,1.200,-180.00,0.00,0.00
C00036=562.889,452.192,1.200,-180.00,0.00,0.00
C00037=557.352,445.674,1.200,-180.00,0.00,0.00
C00038=551.140,439.790,1.200,-180.00,0.00,0.00
C00039=544.331,434.614,1.200,-180.00,0.00,0.00
C00040=537.003,430.205,1.200,-180.00,0.00,0.00
C00041=529.238,426.613,1.200,-180.00,0.00,0.00
C00042=521.136,423.882,1.200,-180.00,0.00,0.00
C00043=512.780,422.043,1.200,-180.00,0.00,0.00
C00044=504.275,421.118,1.200,-180.00,0.00,0.00
C00045=495.725,421.118,1.200,-180.00,0.00,0.00
C00046=487.220,422.043,1.200,-180.00,0.00,0.00
C00047=478.864,423.882,1.200,-180.00,0.00,0.00
C00048=470.762,426.613,1.200,-180.00,0.00,0.00
C00049=462.997,430.205,1.200,-180.00,0.00,0.00
C00050=455.670,434.614,1.200,-180.00,0.00,0.00
C00051=448.858,439.792,1.200,-180.00,0.00,0.00
C00052=442.648,445.674,1.200,-180.00,0.00,0.00
C00053=437.109,452.194,1.200,-180.00,0.00,0.00
C00054=432.309,459.274,1.200,-180.00,0.00,0.00
C00055=428.303,466.831,1.200,-180.00,0.00,0.00
C00056=425.132,474.790,1.200,-180.00,0.00,0.00
C00057=422.849,483.019,1.200,-180.00,0.00,0.00
C00058=421.465,491.461,1.200,-180.00,0.00,0.00
C00059=421.002,500.001,1.200,-180.00,0.00,0.00
C00060=421.049,500.874,1.200,-180.00,0.00,0.00
C00061=423.770,500.727,1.200,-180.00,0.00,0.00
C00062=423.731,500.000,1.200,-180.00,0.00,0.00
C00063=422.905,500.002,1.200,-180.00,0.00,0.00
C00064=423.357,508.331,1.200,-180.00,0.00,0.00
C00065=424.708,516.572,1.200,-180.00,0.00,0.00
C00066=426.938,524.602,1.200,-180.00,0.00,0.00
C00067=430.030,532.369,1.200,-180.00,0.00,0.00
C00068=433.939,539.744,1.200,-180.00,0.00,0.00
C00069=438.622,546.653,1.200,-180.00,0.00,0.00
C00070=444.029,553.016,1.200,-180.00,0.00,0.00
C00071=450.090,558.756,1.200,-180.00,0.00,0.00
C00072=456.740,563.811,1.200,-180.00,0.00,0.00
C00073=463.889,568.112,1.200,-180.00,0.00,0.00
C00074=471.469,571.619,1.200,-180.00,0.00,0.00
C00075=479.372,574.283,1.200,-180.00,0.00,0.00
C00076=487.529,576.079,1.200,-180.00,0.00,0.00
C00077=495.830,576.983,1.200,-180.00,0.00,0.00
C00078=504.170,576.983,1.200,-180.00,0.00,0.00
C00079=512.471,576.079,1.200,-180.00,0.00,0.00
C00080=520.628,574.283,1.200,-180.00,0.00,0.00
C00081=528.531,571.619,1.200,-180.00,0.00,0.00
C00082=536.111,568.112,1.200,-180.00,0.00,0.00
C00083=543.259,563.811,1.200,-180.00,0.00,0.00
C00084=549.910,558.756,1.200,-180.00,0.00,0.00
C00085=555.971,553.016,1.200,-180.00,0.00,0.00
C00086=561.378,546.653,1.200,-180.00,0.00,0.00
C00087=566.061,539.744,1.200,-180.00,0.00,0.00
C00088=569.970,532.369,1.200,-180.00,0.00,0.00
C00089=573.070,524.588,1.200,-180.00,0.00,0.00
C00090=575.292,516.571,1.200,-180.00,0.00,0.00
C00091=576.643,508.331,1.200,-180.00,0.00,0.00
C00092=577.095,499.997,1.200,-180.00,0.00,0.00
C00093=576.643,491.665,1.200,-180.00,0.00,0.00
C00094=575.292,483.425,1.200,-180.00,0.00,0.00
C00095=573.066,475.412,1.200,-180.00,0.00,0.00
C00096=569.969,467.631,1.200,-180.00,0.00,0.00
C00097=566.057,460.252,1.200,-180.00,0.00,0.00
C00098=561.375,453.345,1.200,-180.00,0.00,0.00
C00099=555.971,446.983,1.200,-180.00,0.00,0.00
C00100=549.906,441.240,1.200,-180.00,0.00,0.00
C00101=543.261,436.189,1.200,-180.00,0.00,0.00
C00102=536.111,431.888,1.200,-180.00,0.00,0.00
C00103=528.531,428.381,1.200,-180.00,0.00,0.00
C00104=520.628,425.717,1.200,-180.00,0.00,0.00
C00105=512.471,423.921,1.200,-180.00,0.00,0.00
C00106=504.170,423.019,1.200,-180.00,0.00,0.00
C00107=495.830,423.018,1.200,-180.00,0.00,0.00
C00108=487.529,423.921,1.200,-180.00,0.00,0.00
C00109=479.372,425.717,1.200,-180.00,0.00,0.00
C00110=471.469,428.381,1.200,-180.00,0.00,0.00
C00111=463.889,431.888,1.200,-180.00,0.00,0.00
C00112=456.740,436.189,1.200,-180.00,0.00,0.00
C00113=450.090,441.244,1.200,-180.00,0.00,0.00
C00114=444.029,446.984,1.200,-180.00,0.00,0.00
C00115=438.622,453.347,1.200,-180.00,0.00,0.00
C00116=433.939,460.256,1.200,-180.00,0.00,0.00
C00117=430.030,467.631,1.200,-180.00,0.00,0.00
C00118=426.930,475.412,1.200,-180.00,0.00,0.00
C00119=424.708,483.429,1.200,-180.00,0.00,0.00
C00120=423.357,491.669,1.200,-180.00,0.00,0.00
C00121=422.905,500.002,1.200,-180.00,0.00,0.00
C00122=423.731,500.000,1.200,-180.00,0.00,0.00
C00123=444.243,551.723,1.200,-180.00,0.00,0.00
C00124=446.465,553.945,1.200,-180.00,0.00,0.00
C00125=459.881,564.533,1.200,-180.00,0.00,0.00
C00126=435.263,539.915,1.200,-180.00,0.00,0.00
C00127=434.910,539.562,1.200,-180.00,0.00,0.00
C00128=431.857,533.681,1.200,-180.00,0.00,0.00
C00129=466.302,568.125,1.200,-180.00,0.00,0.00
C00130=466.655,568.478,1.200,-180.00,0.00,0.00
C00131=471.565,570.560,1.200,-180.00,0.00,0.00
C00132=429.606,528.601,1.200,-180.00,0.00,0.00
C00133=429.253,528.248,1.200,-180.00,0.00,0.00
C00134=429.272,528.241,1.200,-180.00,0.00,0.00
C00135=427.799,523.966,1.200,-180.00,0.00,0.00
C00136=475.884,572.051,1.200,-180.00,0.00,0.00
C00137=476.237,572.404,1.200,-180.00,0.00,0.00
C00138=476.250,572.364,1.200,-180.00,0.00,0.00
C00139=480.074,573.412,1.200,-180.00,0.00,0.00
C00140=426.711,520.049,1.200,-180.00,0.00,0.00
C00141=426.358,519.696,1.200,-180.00,0.00,0.00
C00142=426.425,519.679,1.200,-180.00,0.00,0.00
C00143=425.653,516.163,1.200,-180.00,0.00,0.00
C00144=483.702,574.211,1.200,-180.00,0.00,0.00
C00145=487.329,575.010,1.200,-180.00,0.00,0.00
C00146=425.099,512.780,1.200,-180.00,0.00,0.00
C00147=424.544,509.397,1.200,-180.00,0.00,0.00
C00148=490.548,575.401,1.200,-180.00,0.00,0.00
C00149=493.722,575.746,1.200,-180.00,0.00,0.00
C00150=424.246,506.270,1.200,-180.00,0.00,0.00
C00151=424.083,503.279,1.200,-180.00,0.00,0.00
C00152=496.786,575.982,1.200,-180.00,0.00,0.00
C00153=499.614,575.982,1.200,-180.00,0.00,0.00
C00154=423.921,500.289,1.200,-180.00,0.00,0.00
C00155=424.037,497.576,1.200,-180.00,0.00,0.00
C00156=502.443,575.982,1.200,-180.00,0.00,0.00
C00157=505.157,575.868,1.200,-180.00,0.00,0.00
C00158=424.183,494.894,1.200,-180.00,0.00,0.00
C00159=424.329,492.211,1.200,-180.00,0.00,0.00
C00160=507.708,575.590,1.200,-180.00,0.00,0.00
C00161=510.258,575.312,1.200,-180.00,0.00,0.00
C00162=424.686,489.740,1.200,-180.00,0.00,0.00
C00163=425.085,487.310,1.200,-180.00,0.00,0.00
C00164=512.764,574.989,1.200,-180.00,0.00,0.00
C00165=515.082,574.479,1.200,-180.00,0.00,0.00
C00166=425.483,484.880,1.200,-180.00,0.00,0.00
C00167=425.987,482.555,1.200,-180.00,0.00,0.00
C00168=517.399,573.968,1.200,-180.00,0.00,0.00
C00169=519.717,573.457,1.200,-180.00,0.00,0.00
C00170=426.601,480.341,1.200,-180.00,0.00,0.00
C00171=427.214,478.126,1.200,-180.00,0.00,0.00
C00172=521.889,572.801,1.200,-180.00,0.00,0.00
C00173=524.005,572.088,1.200,-180.00,0.00,0.00
C00174=427.828,475.911,1.200,-180.00,0.00,0.00
C00175=428.618,473.873,1.200,-180.00,0.00,0.00
C00176=526.120,571.375,1.200,-180.00,0.00,0.00
C00177=528.229,570.655,1.200,-180.00,0.00,0.00
C00178=429.424,471.850,1.200,-180.00,0.00,0.00
C00179=430.229,469.827,1.200,-180.00,0.00,0.00
C00180=530.163,569.761,1.200,-180.00,0.00,0.00
C00181=532.096,568.865,1.200,-180.00,0.00,0.00
C00182=431.056,467.826,1.200,-180.00,0.00,0.00
C00183=432.036,465.977,1.200,-180.00,0.00,0.00
C00184=534.030,567.971,1.200,-180.00,0.00,0.00
C00185=535.936,567.048,1.200,-180.00,0.00,0.00
C00186=433.015,464.128,1.200,-180.00,0.00,0.00
C00187=433.995,462.280,1.200,-180.00,0.00,0.00
C00188=537.702,565.986,1.200,-180.00,0.00,0.00
C00189=539.468,564.923,1.200,-180.00,0.00,0.00
C00190=435.005,460.461,1.200,-180.00,0.00,0.00
C00191=436.148,458.775,1.200,-180.00,0.00,0.00
C00192=541.233,563.861,1.200,-180.00,0.00,0.00
C00193=542.972,562.771,1.200,-180.00,0.00,0.00
C00194=437.291,457.090,1.200,-180.00,0.00,0.00
C00195=438.433,455.404,1.200,-180.00,0.00,0.00
C00196=544.579,561.550,1.200,-180.00,0.00,0.00
C00197=546.186,560.329,1.200,-180.00,0.00,0.00
C00198=439.598,453.740,1.200,-180.00,0.00,0.00
C00199=440.898,452.211,1.200,-180.00,0.00,0.00
C00200=547.793,559.107,1.200,-180.00,0.00,0.00
C00201=549.387,557.872,1.200,-180.00,0.00,0.00
C00202=442.197,450.682,1.200,-180.00,0.00,0.00
C00203=443.496,449.153,1.200,-180.00,0.00,0.00
C00204=550.839,556.496,1.200,-180.00,0.00,0.00
C00205=552.292,555.121,1.200,-180.00,0.00,0.00
C00206=444.801,447.629,1.200,-180.00,0.00,0.00
C00207=446.254,446.254,1.200,-180.00,0.00,0.00
C00208=553.745,553.745,1.200,-180.00,0.00,0.00
C00209=555.197,552.369,1.200,-180.00,0.00,0.00
C00210=447.706,444.878,1.200,-180.00,0.00,0.00
C00211=449.159,443.502,1.200,-180.00,0.00,0.00
C00212=556.502,550.845,1.200,-180.00,0.00,0.00
C00213=557.801,549.316,1.200,-180.00,0.00,0.00
C00214=450.612,442.127,1.200,-180.00,0.00,0.00
C00215=452.205,440.891,1.200,-180.00,0.00,0.00
C00216=559.101,547.787,1.200,-180.00,0.00,0.00
C00217=560.401,546.259,1.200,-180.00,0.00,0.00
C00218=453.812,439.670,1.200,-180.00,0.00,0.00
C00219=455.419,438.448,1.200,-180.00,0.00,0.00
C00220=561.565,544.595,1.200,-180.00,0.00,0.00
C00221=562.707,542.908,1.200,-180.00,0.00,0.00
C00222=457.026,437.227,1.200,-180.00,0.00,0.00
C00223=458.765,436.137,1.200,-180.00,0.00,0.00
C00224=563.850,541.223,1.200,-180.00,0.00,0.00
C00225=564.993,539.537,1.200,-180.00,0.00,0.00
C00226=460.531,435.075,1.200,-180.00,0.00,0.00
C00227=462.297,434.012,1.200,-180.00,0.00,0.00
C00228=566.002,537.718,1.200,-180.00,0.00,0.00
C00229=566.982,535.870,1.200,-180.00,0.00,0.00
C00230=464.063,432.950,1.200,-180.00,0.00,0.00
C00231=465.969,432.028,1.200,-180.00,0.00,0.00
C00232=567.962,534.021,1.200,-180.00,0.00,0.00
C00233=568.942,532.172,1.200,-180.00,0.00,0.00
C00234=467.902,431.132,1.200,-180.00,0.00,0.00
C00235=469.836,430.238,1.200,-180.00,0.00,0.00
C00236=569.768,530.170,1.200,-180.00,0.00,0.00
C00237=570.575,528.148,1.200,-180.00,0.00,0.00
C00238=471.769,429.343,1.200,-180.00,0.00,0.00
C00239=473.878,428.624,1.200,-180.00,0.00,0.00
C00240=571.381,526.126,1.200,-180.00,0.00,0.00
C00241=572.171,524.087,1.200,-180.00,0.00,0.00
C00242=475.994,427.911,1.200,-180.00,0.00,0.00
C00243=478.109,427.197,1.200,-180.00,0.00,0.00
C00244=572.784,521.873,1.200,-180.00,0.00,0.00
C00245=573.398,519.658,1.200,-180.00,0.00,0.00
C00246=480.281,426.540,1.200,-180.00,0.00,0.00
C00247=482.598,426.030,1.200,-180.00,0.00,0.00
C00248=574.012,517.443,1.200,-180.00,0.00,0.00
C00249=574.516,515.119,1.200,-180.00,0.00,0.00
C00250=484.916,425.519,1.200,-180.00,0.00,0.00
C00251=487.234,425.009,1.200,-180.00,0.00,0.00
C00252=574.914,512.689,1.200,-180.00,0.00,0.00
C00253=575.312,510.258,1.200,-180.00,0.00,0.00
C00254=489.740,424.686,1.200,-180.00,0.00,0.00
C00255=492.291,424.409,1.200,-180.00,0.00,0.00
C00256=575.669,507.787,1.200,-180.00,0.00,0.00
C00257=575.815,505.104,1.200,-180.00,0.00,0.00
C00258=494.842,424.131,1.200,-180.00,0.00,0.00
C00259=497.557,424.018,1.200,-180.00,0.00,0.00
C00260=575.961,502.422,1.200,-180.00,0.00,0.00
C00261=576.077,499.710,1.200,-180.00,0.00,0.00
C00262=500.386,424.018,1.200,-180.00,0.00,0.00
C00263=503.214,424.018,1.200,-180.00,0.00,0.00
C00264=575.915,496.719,1.200,-180.00,0.00,0.00
C00265=575.752,493.728,1.200,-180.00,0.00,0.00
C00266=506.278,424.254,1.200,-180.00,0.00,0.00
C00267=509.451,424.598,1.200,-180.00,0.00,0.00
C00268=575.454,490.601,1.200,-180.00,0.00,0.00
C00269=574.899,487.218,1.200,-180.00,0.00,0.00
C00270=512.670,424.988,1.200,-180.00,0.00,0.00
C00271=516.296,425.787,1.200,-180.00,0.00,0.00
C00272=574.346,483.836,1.200,-180.00,0.00,0.00
C00273=574.699,484.189,1.200,-180.00,0.00,0.00
C00274=574.586,484.207,1.200,-180.00,0.00,0.00
C00275=573.288,479.950,1.200,-180.00,0.00,0.00
C00276=519.924,426.586,1.200,-180.00,0.00,0.00
C00277=519.571,426.233,1.200,-180.00,0.00,0.00
C00278=519.551,426.321,1.200,-180.00,0.00,0.00
C00279=524.114,427.948,1.200,-180.00,0.00,0.00
C00280=572.200,476.034,1.200,-180.00,0.00,0.00
C00281=572.553,476.387,1.200,-180.00,0.00,0.00
C00282=572.487,476.404,1.200,-180.00,0.00,0.00
C00283=570.391,471.396,1.200,-180.00,0.00,0.00
C00284=528.433,429.438,1.200,-180.00,0.00,0.00
C00285=528.080,429.085,1.200,-180.00,0.00,0.00
C00286=528.077,429.094,1.200,-180.00,0.00,0.00
C00287=533.696,431.873,1.200,-180.00,0.00,0.00
C00288=568.140,466.317,1.200,-180.00,0.00,0.00
C00289=568.493,466.670,1.200,-180.00,0.00,0.00
C00290=564.731,460.079,1.200,-180.00,0.00,0.00
C00291=540.117,435.466,1.200,-180.00,0.00,0.00
C00292=539.764,435.113,1.200,-180.00,0.00,0.00
C00293=553.533,446.052,1.200,-180.00,0.00,0.00
C00294=555.754,448.273,1.200,-180.00,0.00,0.00
C00295=554.440,449.387,1.200,-180.00,0.00,0.00
C00296=554.440,449.387,2.400,-180.00,0.00,0.00
C00297=431.017,500.001,2.400,-180.00,0.00,0.00
C00298=431.421,507.457,2.400,-180.00,0.00,0.00
C00299=432.629,514.828,2.400,-180.00,0.00,0.00
C00300=434.624,522.013,2.400,-180.00,0.00,0.00
C00301=437.393,528.965,2.400,-180.00,0.00,0.00
C00302=440.890,535.564,2.400,-180.00,0.00,0.00
C00303=445.081,541.745,2.400,-180.00,0.00,0.00
C00304=449.918,547.438,2.400,-180.00,0.00,0.00
C00305=455.341,552.575,2.400,-180.00,0.00,0.00
C00306=461.290,557.096,2.400,-180.00,0.00,0.00
C00307=467.688,560.947,2.400,-180.00,0.00,0.00
C00308=474.469,564.084,2.400,-180.00,0.00,0.00
C00309=481.544,566.468,2.400,-180.00,0.00,0.00
C00310=488.840,568.075,2.400,-180.00,0.00,0.00
C00311=496.267,568.883,2.400,-180.00,0.00,0.00
C00312=503.733,568.883,2.400,-180.00,0.00,0.00
C00313=511.160,568.075,2.400,-180.00,0.00,0.00
C00314=518.456,566.468,2.400,-180.00,0.00,0.00
C00315=525.531,564.084,2.400,-180.00,0.00,0.00
C00316=532.312,560.947,2.400,-180.00,0.00,0.00
C00317=538.710,557.097,2.400,-180.00,0.00,0.00
C00318=544.659,552.575,2.400,-180.00,0.00,0.00
C00319=550.082,547.438,2.400,-180.00,0.00,0.00
C00320=554.919,541.745,2.400,-180.00,0.00,0.00
C00321=559.110,535.564,2.400,-180.00,0.00,0.00
C00322=562.607,528.964,2.400,-180.00,0.00,0.00
C00323=565.378,522.013,2.400,-180.00,0.00,0.00
C00324=567.370,514.830,2.400,-180.00,0.00,0.00
C00325=568.579,507.457,2.400,-180.00,0.00,0.00
C00326=568.983,499.998,2.400,-180.00,0.00,0.00
C00327=568.579,492.541,2.400,-180.00,0.00,0.00
C00328=567.371,485.170,2.400,-180.00,0.00,0.00
C00329=565.376,477.988,2.400,-180.00,0.00,0.00
C00330=562.607,471.035,2.400,-180.00,0.00,0.00
C00331=559.108,464.435,2.400,-180.00,0.00,0.00
C00332=554.917,458.252,2.400,-180.00,0.00,0.00
C00333=550.082,452.562,2.400,-180.00,0.00,0.00
C00334=544.657,447.423,2.400,-180.00,0.00,0.00
C00335=538.711,442.904,2.400,-180.00,0.00,0.00
C00336=532.312,439.054,2.400,-180.00,0.00,0.00
C00337=525.531,435.916,2.400,-180.00,0.00,0.00
C00338=518.456,433.532,2.400,-180.00,0.00,0.00
C00339=511.160,431.926,2.400,-180.00,0.00,0.00
C00340=503.733,431.118,2.400,-180.00,0.00,0.00
C00341=496.267,431.118,2.400,-180.00,0.00,0.00
C00342=488.840,431.926,2.400,-180.00,0.00,0.00
C00343=481.544,433.532,2.400,-180.00,0.00,0.00
C00344=474.469,435.916,2.400,-180.00,0.00,0.00
C00345=467.688,439.053,2.400,-180.00,0.00,0.00
C00346=461.290,442.903,2.400,-180.00,0.00,0.00
C00347=455.341,447.425,2.400,-180.00,0.00,0.00
C00348=449.918,452.562,2.400,-180.00,0.00,0.00
C00349=445.081,458.255,2.400,-180.00,0.00,0.00
C00350=440.890,464.436,2.400,-180.00,0.00,0.00
C00351=437.393,471.036,2.400,-180.00,0.00,0.00
C00352=434.622,477.987,2.400,-180.00,0.00,0.00
C00353=432.629,485.170,2.400,-180.00,0.00,0.00
C00354=431.421,492.543,2.400,-180.00,0.00,0.00
C00355=431.017,500.001,2.400,-180.00,0.00,0.00
C00356=429.014,500.001,2.400,-180.00,0.00,0.00
C00357=429.430,507.673,2.400,-180.00,0.00,0.00
C00358=430.673,515.259,2.400,-180.00,0.00,0.00
C00359=432.726,522.652,2.400,-180.00,0.00,0.00
C00360=435.575,529.806,2.400,-180.00,0.00,0.00
C00361=439.174,536.596,2.400,-180.00,0.00,0.00
C00362=443.487,542.958,2.400,-180.00,0.00,0.00
C00363=448.464,548.816,2.400,-180.00,0.00,0.00
C00364=454.044,554.102,2.400,-180.00,0.00,0.00
C00365=460.166,558.754,2.400,-180.00,0.00,0.00
C00366=466.750,562.716,2.400,-180.00,0.00,0.00
C00367=473.728,565.944,2.400,-180.00,0.00,0.00
C00368=481.008,568.398,2.400,-180.00,0.00,0.00
C00369=488.516,570.051,2.400,-180.00,0.00,0.00
C00370=496.159,570.883,2.400,-180.00,0.00,0.00
C00371=503.841,570.883,2.400,-180.00,0.00,0.00
C00372=511.484,570.051,2.400,-180.00,0.00,0.00
C00373=518.992,568.398,2.400,-180.00,0.00,0.00
C00374=526.272,565.944,2.400,-180.00,0.00,0.00
C00375=533.250,562.716,2.400,-180.00,0.00,0.00
C00376=539.834,558.754,2.400,-180.00,0.00,0.00
C00377=545.956,554.102,2.400,-180.00,0.00,0.00
C00378=551.536,548.816,2.400,-180.00,0.00,0.00
C00379=556.513,542.958,2.400,-180.00,0.00,0.00
C00380=560.826,536.596,2.400,-180.00,0.00,0.00
C00381=564.425,529.805,2.400,-180.00,0.00,0.00
C00382=567.276,522.652,2.400,-180.00,0.00,0.00
C00383=569.327,515.260,2.400,-180.00,0.00,0.00
C00384=570.570,507.673,2.400,-180.00,0.00,0.00
C00385=570.986,499.998,2.400,-180.00,0.00,0.00
C00386=570.570,492.325,2.400,-180.00,0.00,0.00
C00387=569.327,484.739,2.400,-180.00,0.00,0.00
C00388=567.274,477.348,2.400,-180.00,0.00,0.00
C00389=564.425,470.194,2.400,-180.00,0.00,0.00
C00390=560.824,463.402,2.400,-180.00,0.00,0.00
C00391=556.511,457.040,2.400,-180.00,0.00,0.00
C00392=551.536,451.184,2.400,-180.00,0.00,0.00
C00393=545.954,445.896,2.400,-180.00,0.00,0.00
C00394=539.835,441.246,2.400,-180.00,0.00,0.00
C00395=533.251,437.284,2.400,-180.00,0.00,0.00
C00396=526.272,434.056,2.400,-180.00,0.00,0.00
C00397=518.992,431.602,2.400,-180.00,0.00,0.00
C00398=511.484,429.949,2.400,-180.00,0.00,0.00
C00399=503.841,429.118,2.400,-180.00,0.00,0.00
C00400=496.159,429.118,2.400,-180.00,0.00,0.00
C00401=488.516,429.949,2.400,-180.00,0.00,0.00
C00402=481.008,431.602,2.400,-180.00,0.00,0.00
C00403=473.728,434.056,2.400,-180.00,0.00,0.00
C00404=466.750,437.284,2.400,-180.00,0.00,0.00
C00405=460.166,441.246,2.400,-180.00,0.00,0.00
C00406=454.044,445.898,2.400,-180.00,0.00,0.00
C00407=448.464,451.184,2.400,-180.00,0.00,0.00
C00408=443.487,457.042,2.400,-180.00,0.00,0.00
C00409=439.174,463.404,2.400,-180.00,0.00,0.00
C00410=435.575,470.195,2.400,-180.00,0.00,0.00
C00411=432.724,477.348,2.400,-180.00,0.00,0.00
C00412=430.673,484.740,2.400,-180.00,0.00,0.00
C00413=429.430,492.327,2.400,-180.00,0.00,0.00
C00414=429.014,500.001,2.400,-180.00,0.00,0.00
C00415=427.011,500.001,2.400,-180.00,0.00,0.00
C00416=427.439,507.890,2.400,-180.00,0.00,0.00
C00417=428.717,515.690,2.400,-180.00,0.00,0.00
C00418=430.828,523.292,2.400,-180.00,0.00,0.00
C00419=433.757,530.647,2.400,-180.00,0.00,0.00
C00420=437.458,537.629,2.400,-180.00,0.00,0.00
C00421=441.892,544.170,2.400,-180.00,0.00,0.00
C00422=447.010,550.193,2.400,-180.00,0.00,0.00
C00423=452.748,555.628,2.400,-180.00,0.00,0.00
C00424=459.042,560.412,2.400,-180.00,0.00,0.00
C00425=465.811,564.486,2.400,-180.00,0.00,0.00
C00426=472.986,567.805,2.400,-180.00,0.00,0.00
C00427=480.472,570.328,2.400,-180.00,0.00,0.00
C00428=488.192,572.028,2.400,-180.00,0.00,0.00
C00429=496.050,572.883,2.400,-180.00,0.00,0.00
C00430=503.950,572.883,2.400,-180.00,0.00,0.00
C00431=511.808,572.028,2.400,-180.00,0.00,0.00
C00432=519.528,570.328,2.400,-180.00,0.00,0.00
C00433=527.014,567.805,2.400,-180.00,0.00,0.00
C00434=534.189,564.486,2.400,-180.00,0.00,0.00
C00435=540.958,560.412,2.400,-180.00,0.00,0.00
C00436=547.252,555.628,2.400,-180.00,0.00,0.00
C00437=552.990,550.193,2.400,-180.00,0.00,0.00
C00438=558.108,544.170,2.400,-180.00,0.00,0.00
C00439=562.542,537.629,2.400,-180.00,0.00,0.00
C00440=566.243,530.646,2.400,-180.00,0.00,0.00
C00441=569.174,523.291,2.400,-180.00,0.00,0.00
C00442=571.283,515.690,2.400,-180.00,0.00,0.00
C00443=572.561,507.890,2.400,-180.00,0.00,0.00
C00444=572.989,499.998,2.400,-180.00,0.00,0.00
C00445=572.561,492.108,2.400,-180.00,0.00,0.00
C00446=571.283,484.309,2.400,-180.00,0.00,0.00
C00447=569.172,476.709,2.400,-180.00,0.00,0.00
C00448=566.243,469.353,2.400,-180.00,0.00,0.00
C00449=562.541,462.370,2.400,-180.00,0.00,0.00
C00450=558.106,455.828,2.400,-180.00,0.00,0.00
C00451=552.990,449.807,2.400,-180.00,0.00,0.00
C00452=547.250,444.370,2.400,-180.00,0.00,0.00
C00453=540.959,439.588,2.400,-180.00,0.00,0.00
C00454=534.189,435.514,2.400,-180.00,0.00,0.00
C00455=527.014,432.195,2.400,-180.00,0.00,0.00
C00456=519.528,429.672,2.400,-180.00,0.00,0.00
C00457=511.808,427.972,2.400,-180.00,0.00,0.00
C00458=503.950,427.118,2.400,-180.00,0.00,0.00
C00459=496.050,427.118,2.400,-180.00,0.00,0.00
C00460=488.192,427.972,2.400,-180.00,0.00,0.00
C00461=480.472,429.672,2.400,-180.00,0.00,0.00
C00462=472.986,432.195,2.400,-180.00,0.00,0.00
C00463=465.811,435.514,2.400,-180.00,0.00,0.00
C00464=459.042,439.588,2.400,-180.00,0.00,0.00
C00465=452.748,444.372,2.400,-180.00,0.00,0.00
C00466=447.010,449.807,2.400,-180.00,0.00,0.00
C00467=441.892,455.830,2.400,-180.00,0.00,0.00
C00468=437.458,462.371,2.400,-180.00,0.00,0.00
C00469=433.757,469.354,2.400,-180.00,0.00,0.00
C00470=430.826,476.708,2.400,-180.00,0.00,0.00
C00471=428.717,484.310,2.400,-180.00,0.00,0.00
C00472=427.439,492.110,2.400,-180.00,0.00,0.00
C00473=427.011,500.001,2.400,-180.00,0.00,0.00
C00474=425.008,500.001,2.400,-180.00,0.00,0.00
C00475=425.448,508.106,2.400,-180.00,0.00,0.00
C00476=426.761,516.120,2.400,-180.00,0.00,0.00
C00477=428.930,523.931,2.400,-180.00,0.00,0.00
C00478=431.939,531.488,2.400,-180.00,0.00,0.00
C00479=435.741,538.661,2.400,-180.00,0.00,0.00
C00480=440.298,545.382,2.400,-180.00,0.00,0.00
C00481=445.556,551.571,2.400,-180.00,0.00,0.00
C00482=451.451,557.155,2.400,-180.00,0.00,0.00
C00483=457.918,562.070,2.400,-180.00,0.00,0.00
C00484=464.873,566.255,2.400,-180.00,0.00,0.00
C00485=472.245,569.666,2.400,-180.00,0.00,0.00
C00486=479.936,572.258,2.400,-180.00,0.00,0.00
C00487=487.868,574.004,2.400,-180.00,0.00,0.00
C00488=495.942,574.883,2.400,-180.00,0.00,0.00
C00489=504.058,574.883,2.400,-180.00,0.00,0.00
C00490=512.132,574.004,2.400,-180.00,0.00,0.00
C00491=520.064,572.258,2.400,-180.00,0.00,0.00
C00492=527.755,569.666,2.400,-180.00,0.00,0.00
C00493=535.127,566.255,2.400,-180.00,0.00,0.00
C00494=542.082,562.070,2.400,-180.00,0.00,0.00
C00495=548.549,557.155,2.400,-180.00,0.00,0.00
C00496=554.444,551.571,2.400,-180.00,0.00,0.00
C00497=559.702,545.382,2.400,-180.00,0.00,0.00
C00498=564.259,538.661,2.400,-180.00,0.00,0.00
C00499=568.061,531.487,2.400,-180.00,0.00,0.00
C00500=571.072,523.931,2.400,-180.00,0.00,0.00
C00501=573.239,516.121,2.400,-180.00,0.00,0.00
C00502=574.552,508.106,2.400,-180.00,0.00,0.00
C00503=574.992,499.998,2.400,-180.00,0.00,0.00
C00504=574.553,491.892,2.400,-180.00,0.00,0.00
C00505=573.239,483.878,2.400,-180.00,0.00,0.00
C00506=571.070,476.069,2.400,-180.00,0.00,0.00
C00507=568.061,468.513,2.400,-180.00,0.00,0.00
C00508=564.257,461.337,2.400,-180.00,0.00,0.00
C00509=559.700,454.616,2.400,-180.00,0.00,0.00
C00510=554.444,448.429,2.400,-180.00,0.00,0.00
C00511=548.547,442.843,2.400,-180.00,0.00,0.00
C00512=542.083,437.930,2.400,-180.00,0.00,0.00
C00513=535.127,433.745,2.400,-180.00,0.00,0.00
C00514=527.755,430.334,2.400,-180.00,0.00,0.00
C00515=520.064,427.742,2.400,-180.00,0.00,0.00
C00516=512.132,425.996,2.400,-180.00,0.00,0.00
C00517=504.058,425.118,2.400,-180.00,0.00,0.00
C00518=495.942,425.118,2.400,-180.00,0.00,0.00
C00519=487.868,425.996,2.400,-180.00,0.00,0.00
C00520=479.936,427.742,2.400,-180.00,0.00,0.00
C00521=472.245,430.334,2.400,-180.00,0.00,0.00
C00522=464.873,433.745,2.400,-180.00,0.00,0.00
C00523=457.918,437.930,2.400,-180.00,0.00,0.00
C00524=451.451,442.845,2.400,-180.00,0.00,0.00
C00525=445.556,448.429,2.400,-180.00,0.00,0.00
C00526=440.298,454.618,2.400,-180.00,0.00,0.00
C00527=435.741,461.339,2.400,-180.00,0.00,0.00
C00528=431.939,468.513,2.400,-180.00,0.00,0.00
C00529=428.928,476.069,2.400,-180.00,0.00,0.00
C00530=426.761,483.879,2.400,-180.00,0.00,0.00
C00531=425.448,491.894,2.400,-180.00,0.00,0.00
C00532=425.008,500.001,2.400,-180.00,0.00,0.00
C00533=423.731,500.000,2.400,-180.00,0.00,0.00
C00534=423.005,500.001,2.400,-180.00,0.00,0.00
C00535=423.456,508.323,2.400,-180.00,0.00,0.00
C00536=424.805,516.551,2.400,-180.00,0.00,0.00
C00537=427.032,524.570,2.400,-180.00,0.00,0.00
C00538=430.121,532.328,2.400,-180.00,0.00,0.00
C00539=43.000,532.328,2.400,-180.00,0.00,0.00
C00540=438.703,546.594,2.400,-180.00,0.00,0.00
C00541=444.102,552.948,2.400,-180.00,0.00,0.00
C00542=450.154,558.682,2.400,-180.00,0.00,0.00
C00543=456.794,563.728,2.400,-180.00,0.00,0.00
C00544=463.935,568.025,2.400,-180.00,0.00,0.00
C00545=471.504,571.526,2.400,-180.00,0.00,0.00
C00546=479.400,574.188,2.400,-180.00,0.00,0.00
C00547=487.544,575.981,2.400,-180.00,0.00,0.00
C00548=495.833,576.883,2.400,-180.00,0.00,0.00
C00549=504.167,576.883,2.400,-180.00,0.00,0.00
C00550=512.456,575.981,2.400,-180.00,0.00,0.00
C00551=520.600,574.188,2.400,-180.00,0.00,0.00
C00552=528.496,571.526,2.400,-180.00,0.00,0.00
C00553=536.065,568.025,2.400,-180.00,0.00,0.00
C00554=543.206,563.728,2.400,-180.00,0.00,0.00
C00555=549.846,558.682,2.400,-180.00,0.00,0.00
C00556=555.898,552.948,2.400,-180.00,0.00,0.00
C00557=561.297,546.594,2.400,-180.00,0.00,0.00
C00558=565.975,539.694,2.400,-180.00,0.00,0.00
C00559=569.879,532.328,2.400,-180.00,0.00,0.00
C00560=572.970,524.570,2.400,-180.00,0.00,0.00
C00561=575.195,516.551,2.400,-180.00,0.00,0.00
C00562=576.544,508.323,2.400,-180.00,0.00,0.00
C00563=576.995,499.998,2.400,-180.00,0.00,0.00
C00564=576.544,491.675,2.400,-180.00,0.00,0.00
C00565=575.195,483.447,2.400,-180.00,0.00,0.00
C00566=572.968,475.430,2.400,-180.00,0.00,0.00
C00567=569.879,467.672,2.400,-180.00,0.00,0.00
C00568=565.973,460.304,2.400,-180.00,0.00,0.00
C00569=561.295,453.404,2.400,-180.00,0.00,0.00
C00570=555.898,447.052,2.400,-180.00,0.00,0.00
C00571=549.844,441.316,2.400,-180.00,0.00,0.00
C00572=543.207,436.272,2.400,-180.00,0.00,0.00
C00573=536.065,431.975,2.400,-180.00,0.00,0.00
C00574=528.496,428.474,2.400,-180.00,0.00,0.00
C00575=520.600,425.812,2.400,-180.00,0.00,0.00
C00576=512.456,424.019,2.400,-180.00,0.00,0.00
C00577=504.167,423.118,2.400,-180.00,0.00,0.00
C00578=495.833,423.118,2.400,-180.00,0.00,0.00
C00579=487.544,424.019,2.400,-180.00,0.00,0.00
C00580=479.400,425.812,2.400,-180.00,0.00,0.00
C00581=471.504,428.474,2.400,-180.00,0.00,0.00
C00582=463.935,431.975,2.400,-180.00,0.00,0.00
C00583=456.794,436.272,2.400,-180.00,0.00,0.00
C00584=450.154,441.318,2.400,-180.00,0.00,0.00
C00585=444.102,447.052,2.400,-180.00,0.00,0.00
C00586=438.703,453.406,2.400,-180.00,0.00,0.00
C00587=434.025,460.306,2.400,-180.00,0.00,0.00
C00588=430.121,467.672,2.400,-180.00,0.00,0.00
C00589=427.030,475.430,2.400,-180.00,0.00,0.00
C00590=424.805,483.449,2.400,-180.00,0.00,0.00
C00591=423.456,491.677,2.400,-180.00,0.00,0.00
C00592=423.005,500.001,2.400,-180.00,0.00,0.00
C00593=423.731,500.000,2.400,-180.00,0.00,0.00
C00594=421.002,500.001,2.400,-180.00,0.00,0.00
C00595=421.465,508.539,2.400,-180.00,0.00,0.00
C00596=422.849,516.981,2.400,-180.00,0.00,0.00
C00597=425.134,525.210,2.400,-180.00,0.00,0.00
C00598=428.303,533.169,2.400,-180.00,0.00,0.00
C00599=432.309,540.726,2.400,-180.00,0.00,0.00
C00600=437.109,547.806,2.400,-180.00,0.00,0.00
C00601=442.648,554.326,2.400,-180.00,0.00,0.00
C00602=448.858,560.208,2.400,-180.00,0.00,0.00
C00603=455.670,565.386,2.400,-180.00,0.00,0.00
C00604=462.997,569.795,2.400,-180.00,0.00,0.00
C00605=470.762,573.387,2.400,-180.00,0.00,0.00
C00606=478.864,576.118,2.400,-180.00,0.00,0.00
C00607=487.220,577.957,2.400,-180.00,0.00,0.00
C00608=495.725,578.883,2.400,-180.00,0.00,0.00
C00609=504.275,578.883,2.400,-180.00,0.00,0.00
C00610=512.780,577.957,2.400,-180.00,0.00,0.00
C00611=521.136,576.118,2.400,-180.00,0.00,0.00
C00612=529.238,573.387,2.400,-180.00,0.00,0.00
C00613=537.003,569.795,2.400,-180.00,0.00,0.00
C00614=544.330,565.386,2.400,-180.00,0.00,0.00
C00615=551.142,560.208,2.400,-180.00,0.00,0.00
C00616=557.352,554.326,2.400,-180.00,0.00,0.00
C00617=562.891,547.806,2.400,-180.00,0.00,0.00
C00618=567.691,540.726,2.400,-180.00,0.00,0.00
C00619=571.697,533.169,2.400,-180.00,0.00,0.00
C00620=574.868,525.210,2.400,-180.00,0.00,0.00
C00621=577.151,516.981,2.400,-180.00,0.00,0.00
C00622=578.535,508.539,2.400,-180.00,0.00,0.00
C00623=578.998,499.998,2.400,-180.00,0.00,0.00
C00624=578.535,491.459,2.400,-180.00,0.00,0.00
C00625=577.151,483.017,2.400,-180.00,0.00,0.00
C00626=574.866,474.790,2.400,-180.00,0.00,0.00
C00627=571.697,466.831,2.400,-180.00,0.00,0.00
C00628=567.689,459.272,2.400,-180.00,0.00,0.00
C00629=562.889,452.192,2.400,-180.00,0.00,0.00
C00630=557.352,445.674,2.400,-180.00,0.00,0.00
C00631=551.140,439.790,2.400,-180.00,0.00,0.00
C00632=544.331,434.614,2.400,-180.00,0.00,0.00
C00633=537.003,430.205,2.400,-180.00,0.00,0.00
C00634=529.238,426.613,2.400,-180.00,0.00,0.00
C00635=521.136,423.882,2.400,-180.00,0.00,0.00
C00636=512.780,422.043,2.400,-180.00,0.00,0.00
C00637=504.275,421.118,2.400,-180.00,0.00,0.00
C00638=495.725,421.118,2.400,-180.00,0.00,0.00
C00639=487.220,422.043,2.400,-180.00,0.00,0.00
C00640=478.864,423.882,2.400,-180.00,0.00,0.00
C00641=470.762,426.613,2.400,-180.00,0.00,0.00
C00642=462.997,430.205,2.400,-180.00,0.00,0.00
C00643=455.670,434.614,2.400,-180.00,0.00,0.00
C00644=448.858,439.792,2.400,-180.00,0.00,0.00
C00645=442.648,445.674,2.400,-180.00,0.00,0.00
C00646=437.109,452.194,2.400,-180.00,0.00,0.00
C00647=432.309,459.274,2.400,-180.00,0.00,0.00
C00648=428.303,466.831,2.400,-180.00,0.00,0.00
C00649=425.132,474.790,2.400,-180.00,0.00,0.00
C00650=422.849,483.019,2.400,-180.00,0.00,0.00
C00651=421.465,491.461,2.400,-180.00,0.00,0.00
C00652=421.002,500.001,2.400,-180.00,0.00,0.00
C00653=421.049,500.874,2.400,-180.00,0.00,0.00
C00654=423.770,500.727,2.400,-180.00,0.00,0.00
C00655=432.920,500.002,2.400,-180.00,0.00,0.00
C00656=433.313,507.248,2.400,-180.00,0.00,0.00
C00657=434.488,514.419,2.400,-180.00,0.00,0.00
C00658=436.428,521.405,2.400,-180.00,0.00,0.00
C00659=439.120,528.165,2.400,-180.00,0.00,0.00
C00660=442.521,534.582,2.400,-180.00,0.00,0.00
C00661=446.595,540.592,2.400,-180.00,0.00,0.00
C00662=451.299,546.128,2.400,-180.00,0.00,0.00
C00663=456.573,551.123,2.400,-180.00,0.00,0.00
C00664=462.360,555.522,2.400,-180.00,0.00,0.00
C00665=468.580,559.264,2.400,-180.00,0.00,0.00
C00666=475.176,562.315,2.400,-180.00,0.00,0.00
C00667=482.052,564.633,2.400,-180.00,0.00,0.00
C00668=489.149,566.196,2.400,-180.00,0.00,0.00
C00669=496.372,566.983,2.400,-180.00,0.00,0.00
C00670=503.628,566.983,2.400,-180.00,0.00,0.00
C00671=510.851,566.196,2.400,-180.00,0.00,0.00
C00672=517.948,564.633,2.400,-180.00,0.00,0.00
C00673=524.824,562.315,2.400,-180.00,0.00,0.00
C00674=531.420,559.264,2.400,-180.00,0.00,0.00
C00675=537.640,555.522,2.400,-180.00,0.00,0.00
C00676=543.427,551.123,2.400,-180.00,0.00,0.00
C00677=548.701,546.128,2.400,-180.00,0.00,0.00
C00678=553.406,540.592,2.400,-180.00,0.00,0.00
C00679=557.480,534.582,2.400,-180.00,0.00,0.00
C00680=560.880,528.164,2.400,-180.00,0.00,0.00
C00681=563.579,521.391,2.400,-180.00,0.00,0.00
C00682=565.511,514.420,2.400,-180.00,0.00,0.00
C00683=566.687,507.249,2.400,-180.00,0.00,0.00
C00684=567.080,499.997,2.400,-180.00,0.00,0.00
C00685=566.687,492.748,2.400,-180.00,0.00,0.00
C00686=565.512,485.578,2.400,-180.00,0.00,0.00
C00687=563.572,478.595,2.400,-180.00,0.00,0.00
C00688=560.880,471.836,2.400,-180.00,0.00,0.00
C00689=557.476,465.415,2.400,-180.00,0.00,0.00
C00690=553.402,459.406,2.400,-180.00,0.00,0.00
C00691=548.700,453.871,2.400,-180.00,0.00,0.00
C00692=543.423,448.873,2.400,-180.00,0.00,0.00
C00693=537.641,444.479,2.400,-180.00,0.00,0.00
C00694=531.420,440.736,2.400,-180.00,0.00,0.00
C00695=524.824,437.685,2.400,-180.00,0.00,0.00
C00696=517.948,435.367,2.400,-180.00,0.00,0.00
C00697=510.851,433.804,2.400,-180.00,0.00,0.00
C00698=503.628,433.019,2.400,-180.00,0.00,0.00
C00699=496.372,433.018,2.400,-180.00,0.00,0.00
C00700=489.149,433.804,2.400,-180.00,0.00,0.00
C00701=482.052,435.367,2.400,-180.00,0.00,0.00
C00702=475.176,437.685,2.400,-180.00,0.00,0.00
C00703=468.580,440.736,2.400,-180.00,0.00,0.00
C00704=462.360,444.478,2.400,-180.00,0.00,0.00
C00705=456.573,448.877,2.400,-180.00,0.00,0.00
C00706=451.299,453.872,2.400,-180.00,0.00,0.00
C00707=446.597,459.406,2.400,-180.00,0.00,0.00
C00708=442.522,465.416,2.400,-180.00,0.00,0.00
C00709=439.119,471.836,2.400,-180.00,0.00,0.00
C00710=436.420,478.609,2.400,-180.00,0.00,0.00
C00711=434.488,485.579,2.400,-180.00,0.00,0.00
C00712=433.313,492.752,2.400,-180.00,0.00,0.00
C00713=432.920,500.002,2.400,-180.00,0.00,0.00
C00714=446.298,461.626,2.400,-180.00,0.00,0.00
C00715=461.659,446.265,2.400,-180.00,0.00,0.00
C00716=462.012,445.912,2.400,-180.00,0.00,0.00
C00717=469.206,441.547,2.400,-180.00,0.00,0.00
C00718=441.753,468.999,2.400,-180.00,0.00,0.00
C00719=441.400,469.352,2.400,-180.00,0.00,0.00
C00720=439.168,474.413,2.400,-180.00,0.00,0.00
C00721=474.467,439.114,2.400,-180.00,0.00,0.00
C00722=474.820,438.761,2.400,-180.00,0.00,0.00
C00723=478.938,437.471,2.400,-180.00,0.00,0.00
C00724=437.325,479.084,2.400,-180.00,0.00,0.00
C00725=436.972,479.437,2.400,-180.00,0.00,0.00
C00726=436.241,482.997,2.400,-180.00,0.00,0.00
C00727=483.072,436.166,2.400,-180.00,0.00,0.00
C00728=486.700,435.367,2.400,-180.00,0.00,0.00
C00729=435.308,486.758,2.400,-180.00,0.00,0.00
C00730=434.754,490.140,2.400,-180.00,0.00,0.00
C00731=490.200,434.695,2.400,-180.00,0.00,0.00
C00732=493.374,434.349,2.400,-180.00,0.00,0.00
C00733=434.277,493.446,2.400,-180.00,0.00,0.00
C00734=434.114,496.437,2.400,-180.00,0.00,0.00
C00735=496.534,434.017,2.400,-180.00,0.00,0.00
C00736=499.363,434.017,2.400,-180.00,0.00,0.00
C00737=433.952,499.428,2.400,-180.00,0.00,0.00
C00738=434.039,502.170,2.400,-180.00,0.00,0.00
C00739=502.190,434.018,2.400,-180.00,0.00,0.00
C00740=504.877,434.160,2.400,-180.00,0.00,0.00
C00741=434.184,504.853,2.400,-180.00,0.00,0.00
C00742=434.367,507.498,2.400,-180.00,0.00,0.00
C00743=507.428,434.437,2.400,-180.00,0.00,0.00
C00744=509.979,434.715,2.400,-180.00,0.00,0.00
C00745=434.766,509.928,2.400,-180.00,0.00,0.00
C00746=435.164,512.358,2.400,-180.00,0.00,0.00
C00747=512.362,435.160,2.400,-180.00,0.00,0.00
C00748=514.680,435.671,2.400,-180.00,0.00,0.00
C00749=435.614,514.736,2.400,-180.00,0.00,0.00
C00750=436.229,516.950,2.400,-180.00,0.00,0.00
C00751=516.998,436.181,2.400,-180.00,0.00,0.00
C00752=519.173,436.835,2.400,-180.00,0.00,0.00
C00753=436.844,519.164,2.400,-180.00,0.00,0.00
C00754=437.484,521.352,2.400,-180.00,0.00,0.00
C00755=521.288,437.548,2.400,-180.00,0.00,0.00
C00756=523.403,438.261,2.400,-180.00,0.00,0.00
C00757=438.289,523.375,2.400,-180.00,0.00,0.00
C00758=439.095,525.398,2.400,-180.00,0.00,0.00
C00759=525.427,439.065,2.400,-180.00,0.00,0.00
C00760=527.361,439.960,2.400,-180.00,0.00,0.00
C00761=439.901,527.421,2.400,-180.00,0.00,0.00
C00762=440.852,529.297,2.400,-180.00,0.00,0.00
C00763=529.295,440.854,2.400,-180.00,0.00,0.00
C00764=531.204,441.774,2.400,-180.00,0.00,0.00
C00765=441.832,531.146,2.400,-180.00,0.00,0.00
C00766=442.812,532.995,2.400,-180.00,0.00,0.00
C00767=532.971,442.836,2.400,-180.00,0.00,0.00
C00768=534.736,443.899,2.400,-180.00,0.00,0.00
C00769=443.860,534.774,2.400,-180.00,0.00,0.00
C00770=445.003,536.460,2.400,-180.00,0.00,0.00
C00771=536.502,444.961,2.400,-180.00,0.00,0.00
C00772=538.162,446.130,2.400,-180.00,0.00,0.00
C00773=446.146,538.146,2.400,-180.00,0.00,0.00
C00774=447.288,539.832,2.400,-180.00,0.00,0.00
C00775=539.769,447.351,2.400,-180.00,0.00,0.00
C00776=541.376,448.572,2.400,-180.00,0.00,0.00
C00777=448.574,541.375,2.400,-180.00,0.00,0.00
C00778=449.874,542.903,2.400,-180.00,0.00,0.00
C00779=542.963,449.813,2.400,-180.00,0.00,0.00
C00780=544.415,451.190,2.400,-180.00,0.00,0.00
C00781=451.173,544.433,2.400,-180.00,0.00,0.00
C00782=452.524,545.910,2.400,-180.00,0.00,0.00
C00783=545.868,452.566,2.400,-180.00,0.00,0.00
C00784=547.320,453.942,2.400,-180.00,0.00,0.00
C00785=453.976,547.286,2.400,-180.00,0.00,0.00
C00786=455.429,548.662,2.400,-180.00,0.00,0.00
C00787=548.687,455.403,2.400,-180.00,0.00,0.00
C00788=549.987,456.932,2.400,-180.00,0.00,0.00
C00789=456.881,550.038,2.400,-180.00,0.00,0.00
C00790=458.452,551.295,2.400,-180.00,0.00,0.00
C00791=551.286,458.461,2.400,-180.00,0.00,0.00
C00792=552.586,459.990,2.400,-180.00,0.00,0.00
C00793=460.059,552.516,2.400,-180.00,0.00,0.00
C00794=461.666,553.738,2.400,-180.00,0.00,0.00
C00795=553.731,461.674,2.400,-180.00,0.00,0.00
C00796=554.873,463.360,2.400,-180.00,0.00,0.00
C00797=463.308,554.925,2.400,-180.00,0.00,0.00
C00798=465.074,555.987,2.400,-180.00,0.00,0.00
C00799=556.016,465.045,2.400,-180.00,0.00,0.00
C00800=557.082,466.808,2.400,-180.00,0.00,0.00
C00801=466.840,557.050,2.400,-180.00,0.00,0.00
C00802=468.606,558.112,2.400,-180.00,0.00,0.00
C00803=558.062,468.656,2.400,-180.00,0.00,0.00
C00804=559.041,470.506,2.400,-180.00,0.00,0.00
C00805=470.498,559.049,2.400,-180.00,0.00,0.00
C00806=472.432,559.943,2.400,-180.00,0.00,0.00
C00807=560.012,472.363,2.400,-180.00,0.00,0.00
C00808=560.817,474.386,2.400,-180.00,0.00,0.00
C00809=474.366,560.838,2.400,-180.00,0.00,0.00
C00810=476.370,561.661,2.400,-180.00,0.00,0.00
C00811=561.623,476.408,2.400,-180.00,0.00,0.00
C00812=562.429,478.431,2.400,-180.00,0.00,0.00
C00813=478.485,562.375,2.400,-180.00,0.00,0.00
C00814=480.601,563.088,2.400,-180.00,0.00,0.00
C00815=563.089,480.599,2.400,-180.00,0.00,0.00
C00816=563.704,482.813,2.400,-180.00,0.00,0.00
C00817=482.754,563.763,2.400,-180.00,0.00,0.00
C00818=485.072,564.274,2.400,-180.00,0.00,0.00
C00819=564.320,485.026,2.400,-180.00,0.00,0.00
C00820=564.793,487.381,2.400,-180.00,0.00,0.00
C00821=487.390,564.784,2.400,-180.00,0.00,0.00
C00822=489.747,565.255,2.400,-180.00,0.00,0.00
C00823=565.191,489.812,2.400,-180.00,0.00,0.00
C00824=565.589,492.242,2.400,-180.00,0.00,0.00
C00825=492.298,565.533,2.400,-180.00,0.00,0.00
C00826=494.848,565.811,2.400,-180.00,0.00,0.00
C00827=565.799,494.860,2.400,-180.00,0.00,0.00
C00828=565.944,497.543,2.400,-180.00,0.00,0.00
C00829=497.506,565.982,2.400,-180.00,0.00,0.00
C00830=500.334,565.982,2.400,-180.00,0.00,0.00
C00831=566.064,500.252,2.400,-180.00,0.00,0.00
C00832=565.901,503.243,2.400,-180.00,0.00,0.00
C00833=503.163,565.982,2.400,-180.00,0.00,0.00
C00834=506.286,565.687,2.400,-180.00,0.00,0.00
C00835=565.739,506.234,2.400,-180.00,0.00,0.00
C00836=565.303,509.498,2.400,-180.00,0.00,0.00
C00837=509.460,565.341,2.400,-180.00,0.00,0.00
C00838=512.912,564.718,2.400,-180.00,0.00,0.00
C00839=564.748,512.882,2.400,-180.00,0.00,0.00
C00840=563.871,516.587,2.400,-180.00,0.00,0.00
C00841=516.540,563.918,2.400,-180.00,0.00,0.00
C00842=516.187,564.271,2.400,-180.00,0.00,0.00
C00843=520.606,562.680,2.400,-180.00,0.00,0.00
C00844=562.786,520.500,2.400,-180.00,0.00,0.00
C00845=563.139,520.147,2.400,-180.00,0.00,0.00
C00846=561.028,525.087,2.400,-180.00,0.00,0.00
C00847=524.971,561.144,2.400,-180.00,0.00,0.00
C00848=524.618,561.497,2.400,-180.00,0.00,0.00
C00849=530.234,558.709,2.400,-180.00,0.00,0.00
C00850=558.583,530.361,2.400,-180.00,0.00,0.00
C00851=558.936,530.008,2.400,-180.00,0.00,0.00
C00852=554.336,537.436,2.400,-180.00,0.00,0.00
C00853=537.089,554.683,2.400,-180.00,0.00,0.00
C00854=536.736,555.036,2.400,-180.00,0.00,0.00
C00855=536.736,555.036,3.600,-180.00,0.00,0.00
C00856=439.278,453.848,3.600,-180.00,0.00,0.00
C00857=437.113,452.188,3.600,-180.00,0.00,0.00
C00858=442.643,445.677,3.600,-180.00,0.00,0.00
C00859=448.860,439.788,3.600,-180.00,0.00,0.00
C00860=455.663,434.617,3.600,-180.00,0.00,0.00
C00861=462.996,430.205,3.600,-180.00,0.00,0.00
C00862=470.762,426.612,3.600,-180.00,0.00,0.00
C00863=478.865,423.882,3.600,-180.00,0.00,0.00
C00864=487.224,422.042,3.600,-180.00,0.00,0.00
C00865=495.722,421.117,3.600,-180.00,0.00,0.00
C00866=504.278,421.117,3.600,-180.00,0.00,0.00
C00867=512.776,422.042,3.600,-180.00,0.00,0.00
C00868=521.135,423.882,3.600,-180.00,0.00,0.00
C00869=529.238,426.612,3.600,-180.00,0.00,0.00
C00870=537.004,430.205,3.600,-180.00,0.00,0.00
C00871=544.337,434.617,3.600,-180.00,0.00,0.00
C00872=551.140,439.788,3.600,-180.00,0.00,0.00
C00873=557.357,445.677,3.600,-180.00,0.00,0.00
C00874=562.887,452.188,3.600,-180.00,0.00,0.00
C00875=567.690,459.272,3.600,-180.00,0.00,0.00
C00876=571.698,466.832,3.600,-180.00,0.00,0.00
C00877=574.861,474.771,3.600,-180.00,0.00,0.00
C00878=577.152,483.021,3.600,-180.00,0.00,0.00
C00879=578.535,491.456,3.600,-180.00,0.00,0.00
C00880=578.998,500.000,3.600,-180.00,0.00,0.00
C00881=578.535,508.544,3.600,-180.00,0.00,0.00
C00882=577.152,516.979,3.600,-180.00,0.00,0.00
C00883=574.861,525.229,3.600,-180.00,0.00,0.00
C00884=571.698,533.168,3.600,-180.00,0.00,0.00
C00885=567.690,540.728,3.600,-180.00,0.00,0.00
C00886=562.887,547.812,3.600,-180.00,0.00,0.00
C00887=557.357,554.323,3.600,-180.00,0.00,0.00
C00888=551.140,560.212,3.600,-180.00,0.00,0.00
C00889=544.337,565.383,3.600,-180.00,0.00,0.00
C00890=537.004,569.795,3.600,-180.00,0.00,0.00
C00891=529.238,573.388,3.600,-180.00,0.00,0.00
C00892=521.135,576.118,3.600,-180.00,0.00,0.00
C00893=512.776,577.958,3.600,-180.00,0.00,0.00
C00894=504.278,578.883,3.600,-180.00,0.00,0.00
C00895=495.722,578.883,3.600,-180.00,0.00,0.00
C00896=487.224,577.958,3.600,-180.00,0.00,0.00
C00897=478.865,576.118,3.600,-180.00,0.00,0.00
C00898=470.762,573.388,3.600,-180.00,0.00,0.00
C00899=462.996,569.795,3.600,-180.00,0.00,0.00
C00900=455.663,565.383,3.600,-180.00,0.00,0.00
C00901=448.860,560.212,3.600,-180.00,0.00,0.00
C00902=442.643,554.323,3.600,-180.00,0.00,0.00
C00903=437.113,547.812,3.600,-180.00,0.00,0.00
C00904=432.310,540.728,3.600,-180.00,0.00,0.00
C00905=428.302,533.168,3.600,-180.00,0.00,0.00
C00906=425.139,525.229,3.600,-180.00,0.00,0.00
C00907=422.848,516.979,3.600,-180.00,0.00,0.00
C00908=421.465,508.544,3.600,-180.00,0.00,0.00
C00909=421.002,500.000,3.600,-180.00,0.00,0.00
C00910=421.465,491.456,3.600,-180.00,0.00,0.00
C00911=422.848,483.021,3.600,-180.00,0.00,0.00
C00912=425.139,474.771,3.600,-180.00,0.00,0.00
C00913=428.302,466.832,3.600,-180.00,0.00,0.00
C00914=432.310,459.272,3.600,-180.00,0.00,0.00
C00915=437.113,452.188,3.600,-180.00,0.00,0.00
C00916=442.643,445.677,3.621,-180.00,0.00,0.00
C00917=448.860,439.788,3.641,-180.00,0.00,0.00
C00918=455.663,434.617,3.662,-180.00,0.00,0.00
C00919=462.996,430.205,3.683,-180.00,0.00,0.00
C00920=470.762,426.612,3.703,-180.00,0.00,0.00
C00921=478.865,423.882,3.724,-180.00,0.00,0.00
C00922=487.224,422.042,3.745,-180.00,0.00,0.00
C00923=495.722,421.117,3.766,-180.00,0.00,0.00
C00924=504.278,421.117,3.786,-180.00,0.00,0.00
C00925=512.776,422.042,3.807,-180.00,0.00,0.00
C00926=521.135,423.882,3.828,-180.00,0.00,0.00
C00927=529.238,426.612,3.848,-180.00,0.00,0.00
C00928=537.004,430.205,3.869,-180.00,0.00,0.00
C00929=544.337,434.617,3.890,-180.00,0.00,0.00
C00930=551.140,439.788,3.910,-180.00,0.00,0.00
C00931=557.357,445.677,3.931,-180.00,0.00,0.00
C00932=562.887,452.188,3.952,-180.00,0.00,0.00
C00933=567.690,459.272,3.972,-180.00,0.00,0.00
C00934=571.698,466.832,3.993,-180.00,0.00,0.00
C00935=574.861,474.771,4.014,-180.00,0.00,0.00
C00936=577.152,483.021,4.034,-180.00,0.00,0.00
C00937=578.535,491.456,4.055,-180.00,0.00,0.00
C00938=578.998,500.000,4.076,-180.00,0.00,0.00
C00939=578.535,508.544,4.097,-180.00,0.00,0.00
C00940=577.152,516.979,4.117,-180.00,0.00,0.00
C00941=574.861,525.229,4.138,-180.00,0.00,0.00
C00942=571.698,533.168,4.159,-180.00,0.00,0.00
C00943=567.690,540.728,4.179,-180.00,0.00,0.00
C00944=562.887,547.812,4.200,-180.00,0.00,0.00
C00945=557.357,554.323,4.221,-180.00,0.00,0.00
C00946=551.140,560.212,4.241,-180.00,0.00,0.00
C00947=544.337,565.383,4.262,-180.00,0.00,0.00
C00948=537.004,569.795,4.283,-180.00,0.00,0.00
C00949=529.238,573.388,4.303,-180.00,0.00,0.00
C00950=521.135,576.118,4.324,-180.00,0.00,0.00
C00951=512.776,577.958,4.345,-180.00,0.00,0.00
C00952=504.278,578.883,4.366,-180.00,0.00,0.00
C00953=495.722,578.883,4.386,-180.00,0.00,0.00
C00954=487.224,577.958,4.407,-180.00,0.00,0.00
C00955=478.865,576.118,4.428,-180.00,0.00,0.00
C00956=470.762,573.388,4.448,-180.00,0.00,0.00
C00957=462.996,569.795,4.469,-180.00,0.00,0.00
C00958=455.663,565.383,4.490,-180.00,0.00,0.00
C00959=448.860,560.212,4.510,-180.00,0.00,0.00
C00960=442.643,554.323,4.531,-180.00,0.00,0.00
C00961=437.113,547.812,4.552,-180.00,0.00,0.00
C00962=432.310,540.728,4.572,-180.00,0.00,0.00
C00963=428.302,533.168,4.593,-180.00,0.00,0.00
C00964=425.139,525.229,4.614,-180.00,0.00,0.00
C00965=422.848,516.979,4.634,-180.00,0.00,0.00
C00966=421.465,508.544,4.655,-180.00,0.00,0.00
C00967=421.002,500.000,4.676,-180.00,0.00,0.00
C00968=421.465,491.456,4.697,-180.00,0.00,0.00
C00969=422.848,483.021,4.717,-180.00,0.00,0.00
C00970=425.139,474.771,4.738,-180.00,0.00,0.00
C00971=428.302,466.832,4.759,-180.00,0.00,0.00
C00972=432.310,459.272,4.779,-180.00,0.00,0.00
C00973=437.113,452.188,4.800,-180.00,0.00,0.00
C00974=442.643,445.677,4.821,-180.00,0.00,0.00
C00975=448.860,439.788,4.841,-180.00,0.00,0.00
C00976=455.663,434.617,4.862,-180.00,0.00,0.00
C00977=462.996,430.205,4.883,-180.00,0.00,0.00
C00978=470.762,426.612,4.903,-180.00,0.00,0.00
C00979=478.865,423.882,4.924,-180.00,0.00,0.00
C00980=487.224,422.042,4.945,-180.00,0.00,0.00
C00981=495.722,421.117,4.966,-180.00,0.00,0.00
C00982=504.278,421.117,4.986,-180.00,0.00,0.00
C00983=512.776,422.042,5.007,-180.00,0.00,0.00
C00984=521.135,423.882,5.028,-180.00,0.00,0.00
C00985=529.238,426.612,5.048,-180.00,0.00,0.00
C00986=537.004,430.205,5.069,-180.00,0.00,0.00
C00987=544.337,434.617,5.090,-180.00,0.00,0.00
C00988=551.140,439.788,5.110,-180.00,0.00,0.00
C00989=557.357,445.677,5.131,-180.00,0.00,0.00
C00990=562.887,452.188,5.152,-180.00,0.00,0.00
C00991=567.690,459.272,5.172,-180.00,0.00,0.00
C00992=571.698,466.832,5.193,-180.00,0.00,0.00
C00993=574.861,474.771,5.214,-180.00,0.00,0.00
C00994=577.152,483.021,5.234,-180.00,0.00,0.00
C00995=578.535,491.456,5.255,-180.00,0.00,0.00
C00996=578.998,500.000,5.276,-180.00,0.00,0.00
C00997=578.535,508.544,5.297,-180.00,0.00,0.00
C00998=577.152,516.979,5.317,-180.00,0.00,0.00
C00999=574.861,525.229,5.338,-180.00,0.00,0.00
C01000=571.698,533.168,5.359,-180.00,0.00,0.00
C01001=567.690,540.728,5.379,-180.00,0.00,0.00
C01002=562.887,547.812,5.400,-180.00,0.00,0.00
C01003=557.357,554.323,5.421,-180.00,0.00,0.00
C01004=551.140,560.212,5.441,-180.00,0.00,0.00
C01005=544.337,565.383,5.462,-180.00,0.00,0.00
C01006=537.004,569.795,5.483,-180.00,0.00,0.00
C01007=529.238,573.388,5.503,-180.00,0.00,0.00
C01008=521.135,576.118,5.524,-180.00,0.00,0.00
C01009=512.776,577.958,5.545,-180.00,0.00,0.00
C01010=504.278,578.883,5.566,-180.00,0.00,0.00
C01011=495.722,578.883,5.586,-180.00,0.00,0.00
C01012=487.224,577.958,5.607,-180.00,0.00,0.00
C01013=478.865,576.118,5.628,-180.00,0.00,0.00
C01014=470.762,573.388,5.648,-180.00,0.00,0.00
C01015=462.996,569.795,5.669,-180.00,0.00,0.00
C01016=455.663,565.383,5.690,-180.00,0.00,0.00
C01017=448.860,560.212,5.710,-180.00,0.00,0.00
C01018=442.643,554.323,5.731,-180.00,0.00,0.00
C01019=437.113,547.812,5.752,-180.00,0.00,0.00
C01020=432.310,540.728,5.772,-180.00,0.00,0.00
C01021=428.302,533.168,5.793,-180.00,0.00,0.00
C01022=425.139,525.229,5.814,-180.00,0.00,0.00
C01023=422.848,516.979,5.834,-180.00,0.00,0.00
C01024=421.465,508.544,5.855,-180.00,0.00,0.00
C01025=421.002,500.000,5.876,-180.00,0.00,0.00
C01026=421.465,491.456,5.897,-180.00,0.00,0.00
C01027=422.848,483.021,5.917,-180.00,0.00,0.00
C01028=425.139,474.771,5.938,-180.00,0.00,0.00
C01029=428.302,466.832,5.959,-180.00,0.00,0.00
C01030=432.310,459.272,5.979,-180.00,0.00,0.00
C01031=437.113,452.188,6.000,-180.00,0.00,0.00
C01032=442.643,445.677,6.021,-180.00,0.00,0.00
C01033=448.860,439.788,6.041,-180.00,0.00,0.00
C01034=455.663,434.617,6.062,-180.00,0.00,0.00
C01035=462.996,430.205,6.083,-180.00,0.00,0.00
C01036=470.762,426.612,6.103,-180.00,0.00,0.00
C01037=478.865,423.882,6.124,-180.00,0.00,0.00
C01038=487.224,422.042,6.145,-180.00,0.00,0.00
C01039=495.722,421.117,6.166,-180.00,0.00,0.00
C01040=504.278,421.117,6.186,-180.00,0.00,0.00
C01041=512.776,422.042,6.207,-180.00,0.00,0.00
C01042=521.135,423.882,6.228,-180.00,0.00,0.00
C01043=529.238,426.612,6.248,-180.00,0.00,0.00
C01044=537.000,426.612,6.248,-180.00,0.00,0.00
C01045=544.337,434.617,6.290,-180.00,0.00,0.00
C01046=551.140,439.788,6.310,-180.00,0.00,0.00
C01047=557.357,445.677,6.331,-180.00,0.00,0.00
C01048=562.887,452.188,6.352,-180.00,0.00,0.00
C01049=567.690,459.272,6.372,-180.00,0.00,0.00
C01050=571.698,466.832,6.393,-180.00,0.00,0.00
C01051=574.861,474.771,6.414,-180.00,0.00,0.00
C01052=577.152,483.021,6.434,-180.00,0.00,0.00
C01053=578.535,491.456,6.455,-180.00,0.00,0.00
C01054=578.998,500.000,6.476,-180.00,0.00,0.00
C01055=578.535,508.544,6.497,-180.00,0.00,0.00
C01056=577.152,516.979,6.517,-180.00,0.00,0.00
C01057=574.861,525.229,6.538,-180.00,0.00,0.00
C01058=571.698,533.168,6.559,-180.00,0.00,0.00
C01059=567.690,540.728,6.579,-180.00,0.00,0.00
C01060=562.887,547.812,6.600,-180.00,0.00,0.00
C01061=557.357,554.323,6.621,-180.00,0.00,0.00
C01062=551.140,560.212,6.641,-180.00,0.00,0.00
C01063=544.337,565.383,6.662,-180.00,0.00,0.00
C01064=537.004,569.795,6.683,-180.00,0.00,0.00
C01065=529.238,573.388,6.703,-180.00,0.00,0.00
C01066=521.135,576.118,6.724,-180.00,0.00,0.00
C01067=512.776,577.958,6.745,-180.00,0.00,0.00
C01068=504.278,578.883,6.766,-180.00,0.00,0.00
C01069=495.722,578.883,6.786,-180.00,0.00,0.00
C01070=487.224,577.958,6.807,-180.00,0.00,0.00
C01071=478.865,576.118,6.828,-180.00,0.00,0.00
C01072=470.762,573.388,6.848,-180.00,0.00,0.00
C01073=462.996,569.795,6.869,-180.00,0.00,0.00
C01074=455.663,565.383,6.890,-180.00,0.00,0.00
C01075=448.860,560.212,6.910,-180.00,0.00,0.00
C01076=442.643,554.323,6.931,-180.00,0.00,0.00
C01077=437.113,547.812,6.952,-180.00,0.00,0.00
C01078=432.310,540.728,6.972,-180.00,0.00,0.00
C01079=428.302,533.168,6.993,-180.00,0.00,0.00
C01080=425.139,525.229,7.014,-180.00,0.00,0.00
C01081=422.848,516.979,7.034,-180.00,0.00,0.00
C01082=421.465,508.544,7.055,-180.00,0.00,0.00
C01083=421.002,500.000,7.076,-180.00,0.00,0.00
C01084=421.465,491.456,7.097,-180.00,0.00,0.00
C01085=422.848,483.021,7.117,-180.00,0.00,0.00
C01086=425.139,474.771,7.138,-180.00,0.00,0.00
C01087=428.302,466.832,7.159,-180.00,0.00,0.00
C01088=432.310,459.272,7.179,-180.00,0.00,0.00
C01089=437.113,452.188,7.200,-180.00,0.00,0.00
C01090=442.643,445.677,7.221,-180.00,0.00,0.00
C01091=448.860,439.788,7.241,-180.00,0.00,0.00
C01092=455.663,434.617,7.262,-180.00,0.00,0.00
C01093=462.996,430.205,7.283,-180.00,0.00,0.00
C01094=470.762,426.612,7.303,-180.00,0.00,0.00
C01095=478.865,423.882,7.324,-180.00,0.00,0.00
C01096=487.224,422.042,7.345,-180.00,0.00,0.00
C01097=495.722,421.117,7.366,-180.00,0.00,0.00
C01098=504.278,421.117,7.386,-180.00,0.00,0.00
C01099=512.776,422.042,7.407,-180.00,0.00,0.00
C01100=521.135,423.882,7.428,-180.00,0.00,0.00
C01101=529.238,426.612,7.448,-180.00,0.00,0.00
C01102=537.004,430.205,7.469,-180.00,0.00,0.00
C01103=544.337,434.617,7.490,-180.00,0.00,0.00
C01104=551.140,439.788,7.510,-180.00,0.00,0.00
C01105=557.357,445.677,7.531,-180.00,0.00,0.00
C01106=562.887,452.188,7.552,-180.00,0.00,0.00
C01107=567.690,459.272,7.572,-180.00,0.00,0.00
C01108=571.698,466.832,7.593,-180.00,0.00,0.00
C01109=574.861,474.771,7.614,-180.00,0.00,0.00
C01110=577.152,483.021,7.634,-180.00,0.00,0.00
C01111=578.535,491.456,7.655,-180.00,0.00,0.00
C01112=578.998,500.000,7.676,-180.00,0.00,0.00
C01113=578.535,508.544,7.697,-180.00,0.00,0.00
C01114=577.152,516.979,7.717,-180.00,0.00,0.00
C01115=574.861,525.229,7.738,-180.00,0.00,0.00
C01116=571.698,533.168,7.759,-180.00,0.00,0.00
C01117=567.690,540.728,7.779,-180.00,0.00,0.00
C01118=562.887,547.812,7.800,-180.00,0.00,0.00
C01119=557.357,554.323,7.821,-180.00,0.00,0.00
C01120=551.140,560.212,7.841,-180.00,0.00,0.00
C01121=544.337,565.383,7.862,-180.00,0.00,0.00
C01122=537.004,569.795,7.883,-180.00,0.00,0.00
C01123=529.238,573.388,7.903,-180.00,0.00,0.00
C01124=521.135,576.118,7.924,-180.00,0.00,0.00
C01125=512.776,577.958,7.945,-180.00,0.00,0.00
C01126=504.278,578.883,7.966,-180.00,0.00,0.00
C01127=495.722,578.883,7.986,-180.00,0.00,0.00
C01128=487.224,577.958,8.007,-180.00,0.00,0.00
C01129=478.865,576.118,8.028,-180.00,0.00,0.00
C01130=470.762,573.388,8.048,-180.00,0.00,0.00
C01131=462.996,569.795,8.069,-180.00,0.00,0.00
C01132=455.663,565.383,8.090,-180.00,0.00,0.00
C01133=448.860,560.212,8.110,-180.00,0.00,0.00
C01134=442.643,554.323,8.131,-180.00,0.00,0.00
C01135=437.113,547.812,8.152,-180.00,0.00,0.00
C01136=432.310,540.728,8.172,-180.00,0.00,0.00
C01137=428.302,533.168,8.193,-180.00,0.00,0.00
C01138=425.139,525.229,8.214,-180.00,0.00,0.00
C01139=422.848,516.979,8.234,-180.00,0.00,0.00
C01140=421.465,508.544,8.255,-180.00,0.00,0.00
C01141=421.002,500.000,8.276,-180.00,0.00,0.00
C01142=421.465,491.456,8.297,-180.00,0.00,0.00
C01143=422.848,483.021,8.317,-180.00,0.00,0.00
C01144=425.139,474.771,8.338,-180.00,0.00,0.00
C01145=428.302,466.832,8.359,-180.00,0.00,0.00
C01146=432.310,459.272,8.379,-180.00,0.00,0.00
C01147=437.113,452.188,8.400,-180.00,0.00,0.00
C01148=442.643,445.677,8.421,-180.00,0.00,0.00
C01149=448.860,439.788,8.441,-180.00,0.00,0.00
C01150=455.663,434.617,8.462,-180.00,0.00,0.00
C01151=462.996,430.205,8.483,-180.00,0.00,0.00
C01152=470.762,426.612,8.503,-180.00,0.00,0.00
C01153=478.865,423.882,8.524,-180.00,0.00,0.00
C01154=487.224,422.042,8.545,-180.00,0.00,0.00
C01155=495.722,421.117,8.566,-180.00,0.00,0.00
C01156=504.278,421.117,8.586,-180.00,0.00,0.00
C01157=512.776,422.042,8.607,-180.00,0.00,0.00
C01158=521.135,423.882,8.628,-180.00,0.00,0.00
C01159=529.238,426.612,8.648,-180.00,0.00,0.00
C01160=537.004,430.205,8.669,-180.00,0.00,0.00
C01161=544.337,434.617,8.690,-180.00,0.00,0.00
C01162=551.140,439.788,8.710,-180.00,0.00,0.00
C01163=557.357,445.677,8.731,-180.00,0.00,0.00
C01164=562.887,452.188,8.752,-180.00,0.00,0.00
C01165=567.690,459.272,8.772,-180.00,0.00,0.00
C01166=571.698,466.832,8.793,-180.00,0.00,0.00
C01167=574.861,474.771,8.814,-180.00,0.00,0.00
C01168=577.152,483.021,8.834,-180.00,0.00,0.00
C01169=578.535,491.456,8.855,-180.00,0.00,0.00
C01170=578.998,500.000,8.876,-180.00,0.00,0.00
C01171=578.535,508.544,8.897,-180.00,0.00,0.00
C01172=577.152,516.979,8.917,-180.00,0.00,0.00
C01173=574.861,525.229,8.938,-180.00,0.00,0.00
C01174=571.698,533.168,8.959,-180.00,0.00,0.00
C01175=567.690,540.728,8.979,-180.00,0.00,0.00
C01176=562.887,547.812,9.000,-180.00,0.00,0.00
C01177=557.357,554.323,9.021,-180.00,0.00,0.00
C01178=551.140,560.212,9.041,-180.00,0.00,0.00
C01179=544.337,565.383,9.062,-180.00,0.00,0.00
C01180=537.004,569.795,9.083,-180.00,0.00,0.00
C01181=529.238,573.388,9.103,-180.00,0.00,0.00
C01182=521.135,576.118,9.124,-180.00,0.00,0.00
C01183=512.776,577.958,9.145,-180.00,0.00,0.00
C01184=504.278,578.883,9.166,-180.00,0.00,0.00
C01185=495.722,578.883,9.186,-180.00,0.00,0.00
C01186=487.224,577.958,9.207,-180.00,0.00,0.00
C01187=478.865,576.118,9.228,-180.00,0.00,0.00
C01188=470.762,573.388,9.248,-180.00,0.00,0.00
C01189=462.996,569.795,9.269,-180.00,0.00,0.00
C01190=455.663,565.383,9.290,-180.00,0.00,0.00
C01191=448.860,560.212,9.310,-180.00,0.00,0.00
C01192=442.643,554.323,9.331,-180.00,0.00,0.00
C01193=437.113,547.812,9.352,-180.00,0.00,0.00
C01194=432.310,540.728,9.372,-180.00,0.00,0.00
C01195=428.302,533.168,9.393,-180.00,0.00,0.00
C01196=425.139,525.229,9.414,-180.00,0.00,0.00
C01197=422.848,516.979,9.434,-180.00,0.00,0.00
C01198=421.465,508.544,9.455,-180.00,0.00,0.00
C01199=421.002,500.000,9.476,-180.00,0.00,0.00
C01200=421.465,491.456,9.497,-180.00,0.00,0.00
C01201=422.848,483.021,9.517,-180.00,0.00,0.00
C01202=425.139,474.771,9.538,-180.00,0.00,0.00
C01203=428.302,466.832,9.559,-180.00,0.00,0.00
C01204=432.310,459.272,9.579,-180.00,0.00,0.00
C01205=437.113,452.188,9.600,-180.00,0.00,0.00
C01206=442.643,445.677,9.621,-180.00,0.00,0.00
C01207=448.860,439.788,9.641,-180.00,0.00,0.00
C01208=455.663,434.617,9.662,-180.00,0.00,0.00
C01209=462.996,430.205,9.683,-180.00,0.00,0.00
C01210=470.762,426.612,9.703,-180.00,0.00,0.00
C01211=478.865,423.882,9.724,-180.00,0.00,0.00
C01212=487.224,422.042,9.745,-180.00,0.00,0.00
C01213=495.722,421.117,9.766,-180.00,0.00,0.00
C01214=504.278,421.117,9.786,-180.00,0.00,0.00
C01215=512.776,422.042,9.807,-180.00,0.00,0.00
C01216=521.135,423.882,9.828,-180.00,0.00,0.00
C01217=529.238,426.612,9.848,-180.00,0.00,0.00
C01218=537.004,430.205,9.869,-180.00,0.00,0.00
C01219=544.337,434.617,9.890,-180.00,0.00,0.00
C01220=551.140,439.788,9.910,-180.00,0.00,0.00
C01221=557.357,445.677,9.931,-180.00,0.00,0.00
C01222=562.887,452.188,9.952,-180.00,0.00,0.00
C01223=567.690,459.272,9.972,-180.00,0.00,0.00
C01224=571.698,466.832,9.993,-180.00,0.00,0.00
C01225=574.861,474.771,10.014,-180.00,0.00,0.00
C01226=577.152,483.021,10.034,-180.00,0.00,0.00
C01227=578.535,491.456,10.055,-180.00,0.00,0.00
C01228=578.998,500.000,10.076,-180.00,0.00,0.00
C01229=578.535,508.544,10.097,-180.00,0.00,0.00
C01230=577.152,516.979,10.117,-180.00,0.00,0.00
C01231=574.861,525.229,10.138,-180.00,0.00,0.00
C01232=571.698,533.168,10.159,-180.00,0.00,0.00
C01233=567.690,540.728,10.179,-180.00,0.00,0.00
C01234=562.887,547.812,10.200,-180.00,0.00,0.00
C01235=557.357,554.323,10.221,-180.00,0.00,0.00
C01236=551.140,560.212,10.241,-180.00,0.00,0.00
C01237=544.337,565.383,10.262,-180.00,0.00,0.00
C01238=537.004,569.795,10.283,-180.00,0.00,0.00
C01239=529.238,573.388,10.303,-180.00,0.00,0.00
C01240=521.135,576.118,10.324,-180.00,0.00,0.00
C01241=512.776,577.958,10.345,-180.00,0.00,0.00
C01242=504.278,578.883,10.366,-180.00,0.00,0.00
C01243=495.722,578.883,10.386,-180.00,0.00,0.00
C01244=487.224,577.958,10.407,-180.00,0.00,0.00
C01245=478.865,576.118,10.428,-180.00,0.00,0.00
C01246=470.762,573.388,10.448,-180.00,0.00,0.00
C01247=462.996,569.795,10.469,-180.00,0.00,0.00
C01248=455.663,565.383,10.490,-180.00,0.00,0.00
C01249=448.860,560.212,10.510,-180.00,0.00,0.00
C01250=442.643,554.323,10.531,-180.00,0.00,0.00
C01251=437.113,547.812,10.552,-180.00,0.00,0.00
C01252=432.310,540.728,10.572,-180.00,0.00,0.00
C01253=428.302,533.168,10.593,-180.00,0.00,0.00
C01254=425.139,525.229,10.614,-180.00,0.00,0.00
C01255=422.848,516.979,10.634,-180.00,0.00,0.00
C01256=421.465,508.544,10.655,-180.00,0.00,0.00
C01257=421.002,500.000,10.676,-180.00,0.00,0.00
C01258=421.465,491.456,10.697,-180.00,0.00,0.00
C01259=422.848,483.021,10.717,-180.00,0.00,0.00
C01260=425.139,474.771,10.738,-180.00,0.00,0.00
C01261=428.302,466.832,10.759,-180.00,0.00,0.00
C01262=432.310,459.272,10.779,-180.00,0.00,0.00
C01263=437.113,452.188,10.800,-180.00,0.00,0.00
C01264=442.643,445.677,10.821,-180.00,0.00,0.00
C01265=448.860,439.788,10.841,-180.00,0.00,0.00
C01266=455.663,434.617,10.862,-180.00,0.00,0.00
C01267=462.996,430.205,10.883,-180.00,0.00,0.00
C01268=470.762,426.612,10.903,-180.00,0.00,0.00
C01269=478.865,423.882,10.924,-180.00,0.00,0.00
C01270=487.224,422.042,10.945,-180.00,0.00,0.00
C01271=495.722,421.117,10.966,-180.00,0.00,0.00
C01272=504.278,421.117,10.986,-180.00,0.00,0.00
C01273=512.776,422.042,11.007,-180.00,0.00,0.00
C01274=521.135,423.882,11.028,-180.00,0.00,0.00
C01275=529.238,426.612,11.048,-180.00,0.00,0.00
C01276=537.004,430.205,11.069,-180.00,0.00,0.00
C01277=544.337,434.617,11.090,-180.00,0.00,0.00
C01278=551.140,439.788,11.110,-180.00,0.00,0.00
C01279=557.357,445.677,11.131,-180.00,0.00,0.00
C01280=562.887,452.188,11.152,-180.00,0.00,0.00
C01281=567.690,459.272,11.172,-180.00,0.00,0.00
C01282=571.698,466.832,11.193,-180.00,0.00,0.00
C01283=574.861,474.771,11.214,-180.00,0.00,0.00
C01284=577.152,483.021,11.234,-180.00,0.00,0.00
C01285=578.535,491.456,11.255,-180.00,0.00,0.00
C01286=578.998,500.000,11.276,-180.00,0.00,0.00
C01287=578.535,508.544,11.297,-180.00,0.00,0.00
C01288=577.152,516.979,11.317,-180.00,0.00,0.00
C01289=574.861,525.229,11.338,-180.00,0.00,0.00
C01290=571.698,533.168,11.359,-180.00,0.00,0.00
C01291=567.690,540.728,11.379,-180.00,0.00,0.00
C01292=562.887,547.812,11.400,-180.00,0.00,0.00
C01293=557.357,554.323,11.421,-180.00,0.00,0.00
C01294=551.140,560.212,11.441,-180.00,0.00,0.00
C01295=544.337,565.383,11.462,-180.00,0.00,0.00
C01296=537.004,569.795,11.483,-180.00,0.00,0.00
C01297=529.238,573.388,11.503,-180.00,0.00,0.00
C01298=521.135,576.118,11.524,-180.00,0.00,0.00
C01299=512.776,577.958,11.545,-180.00,0.00,0.00
C01300=504.278,578.883,11.566,-180.00,0.00,0.00
C01301=495.722,578.883,11.586,-180.00,0.00,0.00
C01302=487.224,577.958,11.607,-180.00,0.00,0.00
C01303=478.865,576.118,11.628,-180.00,0.00,0.00
C01304=470.762,573.388,11.648,-180.00,0.00,0.00
C01305=462.996,569.795,11.669,-180.00,0.00,0.00
C01306=455.663,565.383,11.690,-180.00,0.00,0.00
C01307=448.860,560.212,11.710,-180.00,0.00,0.00
C01308=442.643,554.323,11.731,-180.00,0.00,0.00
C01309=437.113,547.812,11.752,-180.00,0.00,0.00
C01310=432.310,540.728,11.772,-180.00,0.00,0.00
C01311=428.302,533.168,11.793,-180.00,0.00,0.00
C01312=425.139,525.229,11.814,-180.00,0.00,0.00
C01313=422.848,516.979,11.834,-180.00,0.00,0.00
C01314=421.465,508.544,11.855,-180.00,0.00,0.00
C01315=421.002,500.000,11.876,-180.00,0.00,0.00
C01316=421.465,491.456,11.897,-180.00,0.00,0.00
C01317=422.848,483.021,11.917,-180.00,0.00,0.00
C01318=425.139,474.771,11.938,-180.00,0.00,0.00
C01319=428.302,466.832,11.959,-180.00,0.00,0.00
C01320=432.310,459.272,11.979,-180.00,0.00,0.00
C01321=437.113,452.188,12.000,-180.00,0.00,0.00
C01322=442.643,445.677,12.021,-180.00,0.00,0.00
C01323=448.860,439.788,12.041,-180.00,0.00,0.00
C01324=455.663,434.617,12.062,-180.00,0.00,0.00
C01325=462.996,430.205,12.083,-180.00,0.00,0.00
C01326=470.762,426.612,12.103,-180.00,0.00,0.00
C01327=478.865,423.882,12.124,-180.00,0.00,0.00
C01328=487.224,422.042,12.145,-180.00,0.00,0.00
C01329=495.722,421.117,12.166,-180.00,0.00,0.00
C01330=504.278,421.117,12.186,-180.00,0.00,0.00
C01331=512.776,422.042,12.207,-180.00,0.00,0.00
C01332=521.135,423.882,12.228,-180.00,0.00,0.00
C01333=529.238,426.612,12.248,-180.00,0.00,0.00
C01334=537.004,430.205,12.269,-180.00,0.00,0.00
C01335=544.337,434.617,12.290,-180.00,0.00,0.00
C01336=551.140,439.788,12.310,-180.00,0.00,0.00
C01337=557.357,445.677,12.331,-180.00,0.00,0.00
C01338=562.887,452.188,12.352,-180.00,0.00,0.00
C01339=567.690,459.272,12.372,-180.00,0.00,0.00
C01340=571.698,466.832,12.393,-180.00,0.00,0.00
C01341=574.861,474.771,12.414,-180.00,0.00,0.00
C01342=577.152,483.021,12.434,-180.00,0.00,0.00
C01343=578.535,491.456,12.455,-180.00,0.00,0.00
C01344=578.998,500.000,12.476,-180.00,0.00,0.00
C01345=578.535,508.544,12.497,-180.00,0.00,0.00
C01346=577.152,516.979,12.517,-180.00,0.00,0.00
C01347=574.861,525.229,12.538,-180.00,0.00,0.00
C01348=571.698,533.168,12.559,-180.00,0.00,0.00
C01349=567.690,540.728,12.579,-180.00,0.00,0.00
C01350=562.887,547.812,12.600,-180.00,0.00,0.00
C01351=557.357,554.323,12.621,-180.00,0.00,0.00
C01352=551.140,560.212,12.641,-180.00,0.00,0.00
C01353=544.337,565.383,12.662,-180.00,0.00,0.00
C01354=537.004,569.795,12.683,-180.00,0.00,0.00
C01355=529.238,573.388,12.703,-180.00,0.00,0.00
C01356=521.135,576.118,12.724,-180.00,0.00,0.00
C01357=512.776,577.958,12.745,-180.00,0.00,0.00
C01358=504.278,578.883,12.766,-180.00,0.00,0.00
C01359=495.722,578.883,12.786,-180.00,0.00,0.00
C01360=487.224,577.958,12.807,-180.00,0.00,0.00
C01361=478.865,576.118,12.828,-180.00,0.00,0.00
C01362=470.762,573.388,12.848,-180.00,0.00,0.00
C01363=462.996,569.795,12.869,-180.00,0.00,0.00
C01364=455.663,565.383,12.890,-180.00,0.00,0.00
C01365=448.860,560.212,12.910,-180.00,0.00,0.00
C01366=442.643,554.323,12.931,-180.00,0.00,0.00
C01367=437.113,547.812,12.952,-180.00,0.00,0.00
C01368=432.310,540.728,12.972,-180.00,0.00,0.00
C01369=428.302,533.168,12.993,-180.00,0.00,0.00
C01370=425.139,525.229,13.014,-180.00,0.00,0.00
C01371=422.848,516.979,13.034,-180.00,0.00,0.00
C01372=421.465,508.544,13.055,-180.00,0.00,0.00
C01373=421.002,500.000,13.076,-180.00,0.00,0.00
C01374=421.465,491.456,13.097,-180.00,0.00,0.00
C01375=422.848,483.021,13.117,-180.00,0.00,0.00
C01376=425.139,474.771,13.138,-180.00,0.00,0.00
C01377=428.302,466.832,13.159,-180.00,0.00,0.00
C01378=432.310,459.272,13.179,-180.00,0.00,0.00
C01379=437.113,452.188,13.200,-180.00,0.00,0.00
C01380=442.643,445.677,13.221,-180.00,0.00,0.00
C01381=448.860,439.788,13.241,-180.00,0.00,0.00
C01382=455.663,434.617,13.262,-180.00,0.00,0.00
C01383=462.996,430.205,13.283,-180.00,0.00,0.00
C01384=470.762,426.612,13.303,-180.00,0.00,0.00
C01385=478.865,423.882,13.324,-180.00,0.00,0.00
C01386=487.224,422.042,13.345,-180.00,0.00,0.00
C01387=495.722,421.117,13.366,-180.00,0.00,0.00
C01388=504.278,421.117,13.386,-180.00,0.00,0.00
C01389=512.776,422.042,13.407,-180.00,0.00,0.00
C01390=521.135,423.882,13.428,-180.00,0.00,0.00
C01391=529.238,426.612,13.448,-180.00,0.00,0.00
C01392=537.004,430.205,13.469,-180.00,0.00,0.00
C01393=544.337,434.617,13.490,-180.00,0.00,0.00
C01394=551.140,439.788,13.510,-180.00,0.00,0.00
C01395=557.357,445.677,13.531,-180.00,0.00,0.00
C01396=562.887,452.188,13.552,-180.00,0.00,0.00
C01397=567.690,459.272,13.572,-180.00,0.00,0.00
C01398=571.698,466.832,13.593,-180.00,0.00,0.00
C01399=574.861,474.771,13.614,-180.00,0.00,0.00
C01400=577.152,483.021,13.634,-180.00,0.00,0.00
C01401=578.535,491.456,13.655,-180.00,0.00,0.00
C01402=578.998,500.000,13.676,-180.00,0.00,0.00
C01403=578.535,508.544,13.697,-180.00,0.00,0.00
C01404=577.152,516.979,13.717,-180.00,0.00,0.00
C01405=574.861,525.229,13.738,-180.00,0.00,0.00
C01406=571.698,533.168,13.759,-180.00,0.00,0.00
C01407=567.690,540.728,13.779,-180.00,0.00,0.00
C01408=562.887,547.812,13.800,-180.00,0.00,0.00
C01409=557.357,554.323,13.821,-180.00,0.00,0.00
C01410=551.140,560.212,13.841,-180.00,0.00,0.00
C01411=544.337,565.383,13.862,-180.00,0.00,0.00
C01412=537.004,569.795,13.883,-180.00,0.00,0.00
C01413=529.238,573.388,13.903,-180.00,0.00,0.00
C01414=521.135,576.118,13.924,-180.00,0.00,0.00
C01415=512.776,577.958,13.945,-180.00,0.00,0.00
C01416=504.278,578.883,13.966,-180.00,0.00,0.00
C01417=495.722,578.883,13.986,-180.00,0.00,0.00
C01418=487.224,577.958,14.007,-180.00,0.00,0.00
C01419=478.865,576.118,14.028,-180.00,0.00,0.00
C01420=470.762,573.388,14.048,-180.00,0.00,0.00
C01421=462.996,569.795,14.069,-180.00,0.00,0.00
C01422=455.663,565.383,14.090,-180.00,0.00,0.00
C01423=448.860,560.212,14.110,-180.00,0.00,0.00
C01424=442.643,554.323,14.131,-180.00,0.00,0.00
C01425=437.113,547.812,14.152,-180.00,0.00,0.00
C01426=432.310,540.728,14.172,-180.00,0.00,0.00
C01427=428.302,533.168,14.193,-180.00,0.00,0.00
C01428=425.139,525.229,14.214,-180.00,0.00,0.00
C01429=422.848,516.979,14.234,-180.00,0.00,0.00
C01430=421.465,508.544,14.255,-180.00,0.00,0.00
C01431=421.002,500.000,14.276,-180.00,0.00,0.00
C01432=421.465,491.456,14.297,-180.00,0.00,0.00
C01433=422.848,483.021,14.317,-180.00,0.00,0.00
C01434=425.139,474.771,14.338,-180.00,0.00,0.00
C01435=428.302,466.832,14.359,-180.00,0.00,0.00
C01436=432.310,459.272,14.379,-180.00,0.00,0.00
C01437=437.113,452.188,14.400,-180.00,0.00,0.00
C01438=442.643,445.677,14.421,-180.00,0.00,0.00
C01439=448.860,439.788,14.441,-180.00,0.00,0.00
C01440=455.663,434.617,14.462,-180.00,0.00,0.00
C01441=462.996,430.205,14.483,-180.00,0.00,0.00
C01442=470.762,426.612,14.503,-180.00,0.00,0.00
C01443=478.865,423.882,14.524,-180.00,0.00,0.00
C01444=487.224,422.042,14.545,-180.00,0.00,0.00
C01445=495.722,421.117,14.566,-180.00,0.00,0.00
C01446=504.278,421.117,14.586,-180.00,0.00,0.00
C01447=51.000,421.117,14.586,-180.00,0.00,0.00
C01448=521.135,423.882,14.628,-180.00,0.00,0.00
C01449=529.238,426.612,14.648,-180.00,0.00,0.00
C01450=537.004,430.205,14.669,-180.00,0.00,0.00
C01451=544.337,434.617,14.690,-180.00,0.00,0.00
C01452=551.140,439.788,14.710,-180.00,0.00,0.00
C01453=557.357,445.677,14.731,-180.00,0.00,0.00
C01454=562.887,452.188,14.752,-180.00,0.00,0.00
C01455=567.690,459.272,14.772,-180.00,0.00,0.00
C01456=571.698,466.832,14.793,-180.00,0.00,0.00
C01457=574.861,474.771,14.814,-180.00,0.00,0.00
C01458=577.152,483.021,14.834,-180.00,0.00,0.00
C01459=578.535,491.456,14.855,-180.00,0.00,0.00
C01460=578.998,500.000,14.876,-180.00,0.00,0.00
C01461=578.535,508.544,14.897,-180.00,0.00,0.00
C01462=577.152,516.979,14.917,-180.00,0.00,0.00
C01463=574.861,525.229,14.938,-180.00,0.00,0.00
C01464=571.698,533.168,14.959,-180.00,0.00,0.00
C01465=567.690,540.728,14.979,-180.00,0.00,0.00
C01466=562.887,547.812,15.000,-180.00,0.00,0.00
C01467=557.357,554.323,15.021,-180.00,0.00,0.00
C01468=551.140,560.212,15.041,-180.00,0.00,0.00
C01469=544.337,565.383,15.062,-180.00,0.00,0.00
C01470=537.004,569.795,15.083,-180.00,0.00,0.00
C01471=529.238,573.388,15.103,-180.00,0.00,0.00
C01472=521.135,576.118,15.124,-180.00,0.00,0.00
C01473=512.776,577.958,15.145,-180.00,0.00,0.00
C01474=504.278,578.883,15.166,-180.00,0.00,0.00
C01475=495.722,578.883,15.186,-180.00,0.00,0.00
C01476=487.224,577.958,15.207,-180.00,0.00,0.00
C01477=478.865,576.118,15.228,-180.00,0.00,0.00
C01478=470.762,573.388,15.248,-180.00,0.00,0.00
C01479=462.996,569.795,15.269,-180.00,0.00,0.00
C01480=455.663,565.383,15.290,-180.00,0.00,0.00
C01481=448.860,560.212,15.310,-180.00,0.00,0.00
C01482=442.643,554.323,15.331,-180.00,0.00,0.00
C01483=437.113,547.812,15.352,-180.00,0.00,0.00
C01484=432.310,540.728,15.372,-180.00,0.00,0.00
C01485=428.302,533.168,15.393,-180.00,0.00,0.00
C01486=425.139,525.229,15.414,-180.00,0.00,0.00
C01487=422.848,516.979,15.434,-180.00,0.00,0.00
C01488=421.465,508.544,15.455,-180.00,0.00,0.00
C01489=421.002,500.000,15.476,-180.00,0.00,0.00
C01490=421.465,491.456,15.497,-180.00,0.00,0.00
C01491=422.848,483.021,15.517,-180.00,0.00,0.00
C01492=425.139,474.771,15.538,-180.00,0.00,0.00
C01493=428.302,466.832,15.559,-180.00,0.00,0.00
C01494=432.310,459.272,15.579,-180.00,0.00,0.00
C01495=437.113,452.188,15.600,-180.00,0.00,0.00
C01496=442.643,445.677,15.621,-180.00,0.00,0.00
C01497=448.860,439.788,15.641,-180.00,0.00,0.00
C01498=455.663,434.617,15.662,-180.00,0.00,0.00
C01499=462.996,430.205,15.683,-180.00,0.00,0.00
C01500=470.762,426.612,15.703,-180.00,0.00,0.00
C01501=478.865,423.882,15.724,-180.00,0.00,0.00
C01502=487.224,422.042,15.745,-180.00,0.00,0.00
C01503=495.722,421.117,15.766,-180.00,0.00,0.00
C01504=504.278,421.117,15.786,-180.00,0.00,0.00
C01505=512.776,422.042,15.807,-180.00,0.00,0.00
C01506=521.135,423.882,15.828,-180.00,0.00,0.00
C01507=529.238,426.612,15.848,-180.00,0.00,0.00
C01508=537.004,430.205,15.869,-180.00,0.00,0.00
C01509=544.337,434.617,15.890,-180.00,0.00,0.00
C01510=551.140,439.788,15.910,-180.00,0.00,0.00
C01511=557.357,445.677,15.931,-180.00,0.00,0.00
C01512=562.887,452.188,15.952,-180.00,0.00,0.00
C01513=567.690,459.272,15.972,-180.00,0.00,0.00
C01514=571.698,466.832,15.993,-180.00,0.00,0.00
C01515=574.861,474.771,16.014,-180.00,0.00,0.00
C01516=577.152,483.021,16.034,-180.00,0.00,0.00
C01517=578.535,491.456,16.055,-180.00,0.00,0.00
C01518=578.998,500.000,16.076,-180.00,0.00,0.00
C01519=578.535,508.544,16.097,-180.00,0.00,0.00
C01520=577.152,516.979,16.117,-180.00,0.00,0.00
C01521=574.861,525.229,16.138,-180.00,0.00,0.00
C01522=571.698,533.168,16.159,-180.00,0.00,0.00
C01523=567.690,540.728,16.179,-180.00,0.00,0.00
C01524=562.887,547.812,16.200,-180.00,0.00,0.00
C01525=557.357,554.323,16.221,-180.00,0.00,0.00
C01526=551.140,560.212,16.241,-180.00,0.00,0.00
C01527=544.337,565.383,16.262,-180.00,0.00,0.00
C01528=537.004,569.795,16.283,-180.00,0.00,0.00
C01529=529.238,573.388,16.303,-180.00,0.00,0.00
C01530=521.135,576.118,16.324,-180.00,0.00,0.00
C01531=512.776,577.958,16.345,-180.00,0.00,0.00
C01532=504.278,578.883,16.366,-180.00,0.00,0.00
C01533=495.722,578.883,16.386,-180.00,0.00,0.00
C01534=487.224,577.958,16.407,-180.00,0.00,0.00
C01535=478.865,576.118,16.428,-180.00,0.00,0.00
C01536=470.762,573.388,16.448,-180.00,0.00,0.00
C01537=462.996,569.795,16.469,-180.00,0.00,0.00
C01538=455.663,565.383,16.490,-180.00,0.00,0.00
C01539=448.860,560.212,16.510,-180.00,0.00,0.00
C01540=442.643,554.323,16.531,-180.00,0.00,0.00
C01541=437.113,547.812,16.552,-180.00,0.00,0.00
C01542=432.310,540.728,16.572,-180.00,0.00,0.00
C01543=428.302,533.168,16.593,-180.00,0.00,0.00
C01544=425.139,525.229,16.614,-180.00,0.00,0.00
C01545=422.848,516.979,16.634,-180.00,0.00,0.00
C01546=421.465,508.544,16.655,-180.00,0.00,0.00
C01547=421.002,500.000,16.676,-180.00,0.00,0.00
C01548=421.465,491.456,16.697,-180.00,0.00,0.00
C01549=422.848,483.021,16.717,-180.00,0.00,0.00
C01550=425.139,474.771,16.738,-180.00,0.00,0.00
C01551=428.302,466.832,16.759,-180.00,0.00,0.00
C01552=432.310,459.272,16.779,-180.00,0.00,0.00
C01553=437.113,452.188,16.800,-180.00,0.00,0.00
C01554=442.643,445.677,16.821,-180.00,0.00,0.00
C01555=448.860,439.788,16.841,-180.00,0.00,0.00
C01556=455.663,434.617,16.862,-180.00,0.00,0.00
C01557=462.996,430.205,16.883,-180.00,0.00,0.00
C01558=470.762,426.612,16.903,-180.00,0.00,0.00
C01559=478.865,423.882,16.924,-180.00,0.00,0.00
C01560=487.224,422.042,16.945,-180.00,0.00,0.00
C01561=495.722,421.117,16.966,-180.00,0.00,0.00
C01562=504.278,421.117,16.986,-180.00,0.00,0.00
C01563=512.776,422.042,17.007,-180.00,0.00,0.00
C01564=521.135,423.882,17.028,-180.00,0.00,0.00
C01565=529.238,426.612,17.048,-180.00,0.00,0.00
C01566=537.004,430.205,17.069,-180.00,0.00,0.00
C01567=544.337,434.617,17.090,-180.00,0.00,0.00
C01568=551.140,439.788,17.110,-180.00,0.00,0.00
C01569=557.357,445.677,17.131,-180.00,0.00,0.00
C01570=562.887,452.188,17.152,-180.00,0.00,0.00
C01571=567.690,459.272,17.172,-180.00,0.00,0.00
C01572=571.698,466.832,17.193,-180.00,0.00,0.00
C01573=574.861,474.771,17.214,-180.00,0.00,0.00
C01574=577.152,483.021,17.234,-180.00,0.00,0.00
C01575=578.535,491.456,17.255,-180.00,0.00,0.00
C01576=578.998,500.000,17.276,-180.00,0.00,0.00
C01577=578.535,508.544,17.297,-180.00,0.00,0.00
C01578=577.152,516.979,17.317,-180.00,0.00,0.00
C01579=574.861,525.229,17.338,-180.00,0.00,0.00
C01580=571.698,533.168,17.359,-180.00,0.00,0.00
C01581=567.690,540.728,17.379,-180.00,0.00,0.00
C01582=562.887,547.812,17.400,-180.00,0.00,0.00
C01583=557.357,554.323,17.421,-180.00,0.00,0.00
C01584=551.140,560.212,17.441,-180.00,0.00,0.00
C01585=544.337,565.383,17.462,-180.00,0.00,0.00
C01586=537.004,569.795,17.483,-180.00,0.00,0.00
C01587=529.238,573.388,17.503,-180.00,0.00,0.00
C01588=521.135,576.118,17.524,-180.00,0.00,0.00
C01589=512.776,577.958,17.545,-180.00,0.00,0.00
C01590=504.278,578.883,17.566,-180.00,0.00,0.00
C01591=495.722,578.883,17.586,-180.00,0.00,0.00
C01592=487.224,577.958,17.607,-180.00,0.00,0.00
C01593=478.865,576.118,17.628,-180.00,0.00,0.00
C01594=470.762,573.388,17.648,-180.00,0.00,0.00
C01595=462.996,569.795,17.669,-180.00,0.00,0.00
C01596=455.663,565.383,17.690,-180.00,0.00,0.00
C01597=448.860,560.212,17.710,-180.00,0.00,0.00
C01598=442.643,554.323,17.731,-180.00,0.00,0.00
C01599=437.113,547.812,17.752,-180.00,0.00,0.00
C01600=432.310,540.728,17.772,-180.00,0.00,0.00
C01601=428.302,533.168,17.793,-180.00,0.00,0.00
C01602=425.139,525.229,17.814,-180.00,0.00,0.00
C01603=422.848,516.979,17.834,-180.00,0.00,0.00
C01604=421.465,508.544,17.855,-180.00,0.00,0.00
C01605=421.002,500.000,17.876,-180.00,0.00,0.00
C01606=421.465,491.456,17.897,-180.00,0.00,0.00
C01607=422.848,483.021,17.917,-180.00,0.00,0.00
C01608=425.139,474.771,17.938,-180.00,0.00,0.00
C01609=428.302,466.832,17.959,-180.00,0.00,0.00
C01610=432.310,459.272,17.979,-180.00,0.00,0.00
C01611=437.113,452.188,18.000,-180.00,0.00,0.00
C01612=442.643,445.677,18.021,-180.00,0.00,0.00
C01613=448.860,439.788,18.041,-180.00,0.00,0.00
C01614=455.663,434.617,18.062,-180.00,0.00,0.00
C01615=462.996,430.205,18.083,-180.00,0.00,0.00
C01616=470.762,426.612,18.103,-180.00,0.00,0.00
C01617=478.865,423.882,18.124,-180.00,0.00,0.00
C01618=487.224,422.042,18.145,-180.00,0.00,0.00
C01619=495.722,421.117,18.166,-180.00,0.00,0.00
C01620=504.278,421.117,18.186,-180.00,0.00,0.00
C01621=512.776,422.042,18.207,-180.00,0.00,0.00
C01622=521.135,423.882,18.228,-180.00,0.00,0.00
C01623=529.238,426.612,18.248,-180.00,0.00,0.00
C01624=537.004,430.205,18.269,-180.00,0.00,0.00
C01625=544.337,434.617,18.290,-180.00,0.00,0.00
C01626=551.140,439.788,18.310,-180.00,0.00,0.00
C01627=557.357,445.677,18.331,-180.00,0.00,0.00
C01628=562.887,452.188,18.352,-180.00,0.00,0.00
C01629=567.690,459.272,18.372,-180.00,0.00,0.00
C01630=571.698,466.832,18.393,-180.00,0.00,0.00
C01631=574.861,474.771,18.414,-180.00,0.00,0.00
C01632=577.152,483.021,18.434,-180.00,0.00,0.00
C01633=578.535,491.456,18.455,-180.00,0.00,0.00
C01634=578.998,500.000,18.476,-180.00,0.00,0.00
C01635=578.535,508.544,18.497,-180.00,0.00,0.00
C01636=577.152,516.979,18.517,-180.00,0.00,0.00
C01637=574.861,525.229,18.538,-180.00,0.00,0.00
C01638=571.698,533.168,18.559,-180.00,0.00,0.00
C01639=567.690,540.728,18.579,-180.00,0.00,0.00
C01640=562.887,547.812,18.600,-180.00,0.00,0.00
C01641=557.357,554.323,18.621,-180.00,0.00,0.00
C01642=551.140,560.212,18.641,-180.00,0.00,0.00
C01643=544.337,565.383,18.662,-180.00,0.00,0.00
C01644=537.004,569.795,18.683,-180.00,0.00,0.00
C01645=529.238,573.388,18.703,-180.00,0.00,0.00
C01646=521.135,576.118,18.724,-180.00,0.00,0.00
C01647=512.776,577.958,18.745,-180.00,0.00,0.00
C01648=504.278,578.883,18.766,-180.00,0.00,0.00
C01649=495.722,578.883,18.786,-180.00,0.00,0.00
C01650=487.224,577.958,18.807,-180.00,0.00,0.00
C01651=478.865,576.118,18.828,-180.00,0.00,0.00
C01652=470.762,573.388,18.848,-180.00,0.00,0.00
C01653=462.996,569.795,18.869,-180.00,0.00,0.00
C01654=455.663,565.383,18.890,-180.00,0.00,0.00
C01655=448.860,560.212,18.910,-180.00,0.00,0.00
C01656=442.643,554.323,18.931,-180.00,0.00,0.00
C01657=437.113,547.812,18.952,-180.00,0.00,0.00
C01658=432.310,540.728,18.972,-180.00,0.00,0.00
C01659=428.302,533.168,18.993,-180.00,0.00,0.00
C01660=425.139,525.229,19.014,-180.00,0.00,0.00
C01661=422.848,516.979,19.034,-180.00,0.00,0.00
C01662=421.465,508.544,19.055,-180.00,0.00,0.00
C01663=421.002,500.000,19.076,-180.00,0.00,0.00
C01664=421.465,491.456,19.097,-180.00,0.00,0.00
C01665=422.848,483.021,19.117,-180.00,0.00,0.00
C01666=425.139,474.771,19.138,-180.00,0.00,0.00
C01667=428.302,466.832,19.159,-180.00,0.00,0.00
C01668=432.310,459.272,19.179,-180.00,0.00,0.00
C01669=437.113,452.188,19.200,-180.00,0.00,0.00
C01670=442.643,445.677,19.221,-180.00,0.00,0.00
C01671=448.860,439.788,19.241,-180.00,0.00,0.00
C01672=455.663,434.617,19.262,-180.00,0.00,0.00
C01673=462.996,430.205,19.283,-180.00,0.00,0.00
C01674=470.762,426.612,19.303,-180.00,0.00,0.00
C01675=478.865,423.882,19.324,-180.00,0.00,0.00
C01676=487.224,422.042,19.345,-180.00,0.00,0.00
C01677=495.722,421.117,19.366,-180.00,0.00,0.00
C01678=504.278,421.117,19.386,-180.00,0.00,0.00
C01679=512.776,422.042,19.407,-180.00,0.00,0.00
C01680=521.135,423.882,19.428,-180.00,0.00,0.00
C01681=529.238,426.612,19.448,-180.00,0.00,0.00
C01682=537.004,430.205,19.469,-180.00,0.00,0.00
C01683=544.337,434.617,19.490,-180.00,0.00,0.00
C01684=551.140,439.788,19.510,-180.00,0.00,0.00
C01685=557.357,445.677,19.531,-180.00,0.00,0.00
C01686=562.887,452.188,19.552,-180.00,0.00,0.00
C01687=567.690,459.272,19.572,-180.00,0.00,0.00
C01688=571.698,466.832,19.593,-180.00,0.00,0.00
C01689=574.861,474.771,19.614,-180.00,0.00,0.00
C01690=577.152,483.021,19.634,-180.00,0.00,0.00
C01691=578.535,491.456,19.655,-180.00,0.00,0.00
C01692=578.998,500.000,19.676,-180.00,0.00,0.00
C01693=578.535,508.544,19.697,-180.00,0.00,0.00
C01694=577.152,516.979,19.717,-180.00,0.00,0.00
C01695=574.861,525.229,19.738,-180.00,0.00,0.00
C01696=571.698,533.168,19.759,-180.00,0.00,0.00
C01697=567.690,540.728,19.779,-180.00,0.00,0.00
C01698=562.887,547.812,19.800,-180.00,0.00,0.00
C01699=557.357,554.323,19.821,-180.00,0.00,0.00
C01700=551.140,560.212,19.841,-180.00,0.00,0.00
C01701=544.337,565.383,19.862,-180.00,0.00,0.00
C01702=537.004,569.795,19.883,-180.00,0.00,0.00
C01703=529.238,573.388,19.903,-180.00,0.00,0.00
C01704=521.135,576.118,19.924,-180.00,0.00,0.00
C01705=512.776,577.958,19.945,-180.00,0.00,0.00
C01706=504.278,578.883,19.966,-180.00,0.00,0.00
C01707=495.722,578.883,19.986,-180.00,0.00,0.00
C01708=487.224,577.958,20.007,-180.00,0.00,0.00
C01709=478.865,576.118,20.028,-180.00,0.00,0.00
C01710=470.762,573.388,20.048,-180.00,0.00,0.00
C01711=462.996,569.795,20.069,-180.00,0.00,0.00
C01712=455.663,565.383,20.090,-180.00,0.00,0.00
C01713=448.860,560.212,20.110,-180.00,0.00,0.00
C01714=442.643,554.323,20.131,-180.00,0.00,0.00
C01715=437.113,547.812,20.152,-180.00,0.00,0.00
C01716=432.310,540.728,20.172,-180.00,0.00,0.00
C01717=428.302,533.168,20.193,-180.00,0.00,0.00
C01718=425.139,525.229,20.214,-180.00,0.00,0.00
C01719=422.848,516.979,20.234,-180.00,0.00,0.00
C01720=421.465,508.544,20.255,-180.00,0.00,0.00
C01721=421.002,500.000,20.276,-180.00,0.00,0.00
C01722=421.465,491.456,20.297,-180.00,0.00,0.00
C01723=422.848,483.021,20.317,-180.00,0.00,0.00
C01724=425.139,474.771,20.338,-180.00,0.00,0.00
C01725=428.302,466.832,20.359,-180.00,0.00,0.00
C01726=432.310,459.272,20.379,-180.00,0.00,0.00
C01727=437.113,452.188,20.400,-180.00,0.00,0.00
C01728=442.643,445.677,20.421,-180.00,0.00,0.00
C01729=448.860,439.788,20.441,-180.00,0.00,0.00
C01730=455.663,434.617,20.462,-180.00,0.00,0.00
C01731=462.996,430.205,20.483,-180.00,0.00,0.00
C01732=470.762,426.612,20.503,-180.00,0.00,0.00
C01733=478.865,423.882,20.524,-180.00,0.00,0.00
C01734=487.224,422.042,20.545,-180.00,0.00,0.00
C01735=495.722,421.117,20.566,-180.00,0.00,0.00
C01736=504.278,421.117,20.586,-180.00,0.00,0.00
C01737=512.776,422.042,20.607,-180.00,0.00,0.00
C01738=521.135,423.882,20.628,-180.00,0.00,0.00
C01739=529.238,426.612,20.648,-180.00,0.00,0.00
C01740=537.004,430.205,20.669,-180.00,0.00,0.00
C01741=544.337,434.617,20.690,-180.00,0.00,0.00
C01742=551.140,439.788,20.710,-180.00,0.00,0.00
C01743=557.357,445.677,20.731,-180.00,0.00,0.00
C01744=562.887,452.188,20.752,-180.00,0.00,0.00
C01745=567.690,459.272,20.772,-180.00,0.00,0.00
C01746=571.698,466.832,20.793,-180.00,0.00,0.00
C01747=574.861,474.771,20.814,-180.00,0.00,0.00
C01748=577.152,483.021,20.834,-180.00,0.00,0.00
C01749=578.535,491.456,20.855,-180.00,0.00,0.00
C01750=578.998,500.000,20.876,-180.00,0.00,0.00
C01751=578.535,508.544,20.897,-180.00,0.00,0.00
C01752=577.152,516.979,20.917,-180.00,0.00,0.00
C01753=574.861,525.229,20.938,-180.00,0.00,0.00
C01754=571.698,533.168,20.959,-180.00,0.00,0.00
C01755=567.690,540.728,20.979,-180.00,0.00,0.00
C01756=562.887,547.812,21.000,-180.00,0.00,0.00
C01757=557.357,554.323,21.021,-180.00,0.00,0.00
C01758=551.140,560.212,21.041,-180.00,0.00,0.00
C01759=544.337,565.383,21.062,-180.00,0.00,0.00
C01760=537.004,569.795,21.083,-180.00,0.00,0.00
C01761=529.238,573.388,21.103,-180.00,0.00,0.00
C01762=521.135,576.118,21.124,-180.00,0.00,0.00
C01763=512.776,577.958,21.145,-180.00,0.00,0.00
C01764=504.278,578.883,21.166,-180.00,0.00,0.00
C01765=495.722,578.883,21.186,-180.00,0.00,0.00
C01766=487.224,577.958,21.207,-180.00,0.00,0.00
C01767=478.865,576.118,21.228,-180.00,0.00,0.00
C01768=470.762,573.388,21.248,-180.00,0.00,0.00
C01769=462.996,569.795,21.269,-180.00,0.00,0.00
C01770=455.663,565.383,21.290,-180.00,0.00,0.00
C01771=448.860,560.212,21.310,-180.00,0.00,0.00
C01772=442.643,554.323,21.331,-180.00,0.00,0.00
C01773=437.113,547.812,21.352,-180.00,0.00,0.00
C01774=432.310,540.728,21.372,-180.00,0.00,0.00
C01775=428.302,533.168,21.393,-180.00,0.00,0.00
C01776=425.139,525.229,21.414,-180.00,0.00,0.00
C01777=422.848,516.979,21.434,-180.00,0.00,0.00
C01778=421.465,508.544,21.455,-180.00,0.00,0.00
C01779=421.002,500.000,21.476,-180.00,0.00,0.00
C01780=421.465,491.456,21.497,-180.00,0.00,0.00
C01781=422.848,483.021,21.517,-180.00,0.00,0.00
C01782=425.139,474.771,21.538,-180.00,0.00,0.00
C01783=428.302,466.832,21.559,-180.00,0.00,0.00
C01784=432.310,459.272,21.579,-180.00,0.00,0.00
C01785=437.113,452.188,21.600,-180.00,0.00,0.00
C01786=442.643,445.677,21.621,-180.00,0.00,0.00
C01787=448.860,439.788,21.641,-180.00,0.00,0.00
C01788=455.663,434.617,21.662,-180.00,0.00,0.00
C01789=462.996,430.205,21.683,-180.00,0.00,0.00
C01790=470.762,426.612,21.703,-180.00,0.00,0.00
C01791=478.865,423.882,21.724,-180.00,0.00,0.00
C01792=487.224,422.042,21.745,-180.00,0.00,0.00
C01793=495.722,421.117,21.766,-180.00,0.00,0.00
C01794=504.278,421.117,21.786,-180.00,0.00,0.00
C01795=512.776,422.042,21.807,-180.00,0.00,0.00
C01796=521.135,423.882,21.828,-180.00,0.00,0.00
C01797=529.238,426.612,21.848,-180.00,0.00,0.00
C01798=537.004,430.205,21.869,-180.00,0.00,0.00
C01799=544.337,434.617,21.890,-180.00,0.00,0.00
C01800=551.140,439.788,21.910,-180.00,0.00,0.00
C01801=557.357,445.677,21.931,-180.00,0.00,0.00
C01802=562.887,452.188,21.952,-180.00,0.00,0.00
C01803=567.690,459.272,21.972,-180.00,0.00,0.00
C01804=571.698,466.832,21.993,-180.00,0.00,0.00
C01805=574.861,474.771,22.014,-180.00,0.00,0.00
C01806=577.152,483.021,22.034,-180.00,0.00,0.00
C01807=578.535,491.456,22.055,-180.00,0.00,0.00
C01808=578.998,500.000,22.076,-180.00,0.00,0.00
C01809=578.535,508.544,22.097,-180.00,0.00,0.00
C01810=577.152,516.979,22.117,-180.00,0.00,0.00
C01811=574.861,525.229,22.138,-180.00,0.00,0.00
C01812=571.698,533.168,22.159,-180.00,0.00,0.00
C01813=567.690,540.728,22.179,-180.00,0.00,0.00
C01814=562.887,547.812,22.200,-180.00,0.00,0.00
C01815=557.357,554.323,22.221,-180.00,0.00,0.00
C01816=551.140,560.212,22.241,-180.00,0.00,0.00
C01817=544.337,565.383,22.262,-180.00,0.00,0.00
C01818=537.004,569.795,22.283,-180.00,0.00,0.00
C01819=529.238,573.388,22.303,-180.00,0.00,0.00
C01820=521.135,576.118,22.324,-180.00,0.00,0.00
C01821=512.776,577.958,22.345,-180.00,0.00,0.00
C01822=504.278,578.883,22.366,-180.00,0.00,0.00
C01823=495.722,578.883,22.386,-180.00,0.00,0.00
C01824=487.224,577.958,22.407,-180.00,0.00,0.00
C01825=478.865,576.118,22.428,-180.00,0.00,0.00
C01826=470.762,573.388,22.448,-180.00,0.00,0.00
C01827=462.996,569.795,22.469,-180.00,0.00,0.00
C01828=455.663,565.383,22.490,-180.00,0.00,0.00
C01829=448.860,560.212,22.510,-180.00,0.00,0.00
C01830=442.643,554.323,22.531,-180.00,0.00,0.00
C01831=437.113,547.812,22.552,-180.00,0.00,0.00
C01832=432.310,540.728,22.572,-180.00,0.00,0.00
C01833=428.302,533.168,22.593,-180.00,0.00,0.00
C01834=425.139,525.229,22.614,-180.00,0.00,0.00
C01835=422.848,516.979,22.634,-180.00,0.00,0.00
C01836=421.465,508.544,22.655,-180.00,0.00,0.00
C01837=421.002,500.000,22.676,-180.00,0.00,0.00
C01838=421.465,491.456,22.697,-180.00,0.00,0.00
C01839=422.848,483.021,22.717,-180.00,0.00,0.00
C01840=425.139,474.771,22.738,-180.00,0.00,0.00
C01841=428.302,466.832,22.759,-180.00,0.00,0.00
C01842=432.310,459.272,22.779,-180.00,0.00,0.00
C01843=437.113,452.188,22.800,-180.00,0.00,0.00
C01844=442.643,445.677,22.821,-180.00,0.00,0.00
C01845=448.860,439.788,22.841,-180.00,0.00,0.00
C01846=455.663,434.617,22.862,-180.00,0.00,0.00
C01847=462.996,430.205,22.883,-180.00,0.00,0.00
C01848=470.762,430.205,22.883,-180.00,0.00,0.00
C01849=478.865,423.882,22.924,-180.00,0.00,0.00
C01850=487.224,422.042,22.945,-180.00,0.00,0.00
C01851=495.722,421.117,22.966,-180.00,0.00,0.00
C01852=504.278,421.117,22.986,-180.00,0.00,0.00
C01853=512.776,422.042,23.007,-180.00,0.00,0.00
C01854=521.135,423.882,23.028,-180.00,0.00,0.00
C01855=529.238,426.612,23.048,-180.00,0.00,0.00
C01856=537.004,430.205,23.069,-180.00,0.00,0.00
C01857=544.337,434.617,23.090,-180.00,0.00,0.00
C01858=551.140,439.788,23.110,-180.00,0.00,0.00
C01859=557.357,445.677,23.131,-180.00,0.00,0.00
C01860=562.887,452.188,23.152,-180.00,0.00,0.00
C01861=567.690,459.272,23.172,-180.00,0.00,0.00
C01862=571.698,466.832,23.193,-180.00,0.00,0.00
C01863=574.861,474.771,23.214,-180.00,0.00,0.00
C01864=577.152,483.021,23.234,-180.00,0.00,0.00
C01865=578.535,491.456,23.255,-180.00,0.00,0.00
C01866=578.998,500.000,23.276,-180.00,0.00,0.00
C01867=578.535,508.544,23.297,-180.00,0.00,0.00
C01868=577.152,516.979,23.317,-180.00,0.00,0.00
C01869=574.861,525.229,23.338,-180.00,0.00,0.00
C01870=571.698,533.168,23.359,-180.00,0.00,0.00
C01871=567.690,540.728,23.379,-180.00,0.00,0.00
C01872=562.887,547.812,23.400,-180.00,0.00,0.00
C01873=557.357,554.323,23.421,-180.00,0.00,0.00
C01874=551.140,560.212,23.441,-180.00,0.00,0.00
C01875=544.337,565.383,23.462,-180.00,0.00,0.00
C01876=537.004,569.795,23.483,-180.00,0.00,0.00
C01877=529.238,573.388,23.503,-180.00,0.00,0.00
C01878=521.135,576.118,23.524,-180.00,0.00,0.00
C01879=512.776,577.958,23.545,-180.00,0.00,0.00
C01880=504.278,578.883,23.566,-180.00,0.00,0.00
C01881=495.722,578.883,23.586,-180.00,0.00,0.00
C01882=487.224,577.958,23.607,-180.00,0.00,0.00
C01883=478.865,576.118,23.628,-180.00,0.00,0.00
C01884=470.762,573.388,23.648,-180.00,0.00,0.00
C01885=462.996,569.795,23.669,-180.00,0.00,0.00
C01886=455.663,565.383,23.690,-180.00,0.00,0.00
C01887=448.860,560.212,23.710,-180.00,0.00,0.00
C01888=442.643,554.323,23.731,-180.00,0.00,0.00
C01889=437.113,547.812,23.752,-180.00,0.00,0.00
C01890=432.310,540.728,23.772,-180.00,0.00,0.00
C01891=428.302,533.168,23.793,-180.00,0.00,0.00
C01892=425.139,525.229,23.814,-180.00,0.00,0.00
C01893=422.848,516.979,23.834,-180.00,0.00,0.00
C01894=421.465,508.544,23.855,-180.00,0.00,0.00
C01895=421.002,500.000,23.876,-180.00,0.00,0.00
C01896=421.465,491.456,23.897,-180.00,0.00,0.00
C01897=422.848,483.021,23.917,-180.00,0.00,0.00
C01898=425.139,474.771,23.938,-180.00,0.00,0.00
C01899=428.302,466.832,23.959,-180.00,0.00,0.00
C01900=432.310,459.272,23.979,-180.00,0.00,0.00
C01901=437.113,452.188,24.000,-180.00,0.00,0.00
C01902=442.643,445.677,24.021,-180.00,0.00,0.00
C01903=448.860,439.788,24.041,-180.00,0.00,0.00
C01904=455.663,434.617,24.062,-180.00,0.00,0.00
C01905=462.996,430.205,24.083,-180.00,0.00,0.00
C01906=470.762,426.612,24.103,-180.00,0.00,0.00
C01907=478.865,423.882,24.124,-180.00,0.00,0.00
C01908=487.224,422.042,24.145,-180.00,0.00,0.00
C01909=495.722,421.117,24.166,-180.00,0.00,0.00
C01910=504.278,421.117,24.186,-180.00,0.00,0.00
C01911=512.776,422.042,24.207,-180.00,0.00,0.00
C01912=521.135,423.882,24.228,-180.00,0.00,0.00
C01913=529.238,426.612,24.248,-180.00,0.00,0.00
C01914=537.004,430.205,24.269,-180.00,0.00,0.00
C01915=544.337,434.617,24.290,-180.00,0.00,0.00
C01916=551.140,439.788,24.310,-180.00,0.00,0.00
C01917=557.357,445.677,24.331,-180.00,0.00,0.00
C01918=562.887,452.188,24.352,-180.00,0.00,0.00
C01919=567.690,459.272,24.372,-180.00,0.00,0.00
C01920=571.698,466.832,24.393,-180.00,0.00,0.00
C01921=574.861,474.771,24.414,-180.00,0.00,0.00
C01922=577.152,483.021,24.434,-180.00,0.00,0.00
C01923=578.535,491.456,24.455,-180.00,0.00,0.00
C01924=578.998,500.000,24.476,-180.00,0.00,0.00
C01925=578.535,508.544,24.497,-180.00,0.00,0.00
C01926=577.152,516.979,24.517,-180.00,0.00,0.00
C01927=574.861,525.229,24.538,-180.00,0.00,0.00
C01928=571.698,533.168,24.559,-180.00,0.00,0.00
C01929=567.690,540.728,24.579,-180.00,0.00,0.00
C01930=562.887,547.812,24.600,-180.00,0.00,0.00
C01931=557.357,554.323,24.621,-180.00,0.00,0.00
C01932=551.140,560.212,24.641,-180.00,0.00,0.00
C01933=544.337,565.383,24.662,-180.00,0.00,0.00
C01934=537.004,569.795,24.683,-180.00,0.00,0.00
C01935=529.238,573.388,24.703,-180.00,0.00,0.00
C01936=521.135,576.118,24.724,-180.00,0.00,0.00
C01937=512.776,577.958,24.745,-180.00,0.00,0.00
C01938=504.278,578.883,24.766,-180.00,0.00,0.00
C01939=495.722,578.883,24.786,-180.00,0.00,0.00
C01940=487.224,577.958,24.807,-180.00,0.00,0.00
C01941=478.865,576.118,24.828,-180.00,0.00,0.00
C01942=470.762,573.388,24.848,-180.00,0.00,0.00
C01943=462.996,569.795,24.869,-180.00,0.00,0.00
C01944=455.663,565.383,24.890,-180.00,0.00,0.00
C01945=448.860,560.212,24.910,-180.00,0.00,0.00
C01946=442.643,554.323,24.931,-180.00,0.00,0.00
C01947=437.113,547.812,24.952,-180.00,0.00,0.00
C01948=432.310,540.728,24.972,-180.00,0.00,0.00
C01949=428.302,533.168,24.993,-180.00,0.00,0.00
C01950=425.139,525.229,25.014,-180.00,0.00,0.00
C01951=422.848,516.979,25.034,-180.00,0.00,0.00
C01952=421.465,508.544,25.055,-180.00,0.00,0.00
C01953=421.002,500.000,25.076,-180.00,0.00,0.00
C01954=421.465,491.456,25.097,-180.00,0.00,0.00
C01955=422.848,483.021,25.117,-180.00,0.00,0.00
C01956=425.139,474.771,25.138,-180.00,0.00,0.00
C01957=428.302,466.832,25.159,-180.00,0.00,0.00
C01958=432.310,459.272,25.179,-180.00,0.00,0.00
C01959=437.113,452.188,25.200,-180.00,0.00,0.00
C01960=442.643,445.677,25.221,-180.00,0.00,0.00
C01961=448.860,439.788,25.241,-180.00,0.00,0.00
C01962=455.663,434.617,25.262,-180.00,0.00,0.00
C01963=462.996,430.205,25.283,-180.00,0.00,0.00
C01964=470.762,426.612,25.303,-180.00,0.00,0.00
C01965=478.865,423.882,25.324,-180.00,0.00,0.00
C01966=487.224,422.042,25.345,-180.00,0.00,0.00
C01967=495.722,421.117,25.366,-180.00,0.00,0.00
C01968=504.278,421.117,25.386,-180.00,0.00,0.00
C01969=512.776,422.042,25.407,-180.00,0.00,0.00
C01970=521.135,423.882,25.428,-180.00,0.00,0.00
C01971=529.238,426.612,25.448,-180.00,0.00,0.00
C01972=537.004,430.205,25.469,-180.00,0.00,0.00
C01973=544.337,434.617,25.490,-180.00,0.00,0.00
C01974=551.140,439.788,25.510,-180.00,0.00,0.00
C01975=557.357,445.677,25.531,-180.00,0.00,0.00
C01976=562.887,452.188,25.552,-180.00,0.00,0.00
C01977=567.690,459.272,25.572,-180.00,0.00,0.00
C01978=571.698,466.832,25.593,-180.00,0.00,0.00
C01979=574.861,474.771,25.614,-180.00,0.00,0.00
C01980=577.152,483.021,25.634,-180.00,0.00,0.00
C01981=578.535,491.456,25.655,-180.00,0.00,0.00
C01982=578.998,500.000,25.676,-180.00,0.00,0.00
C01983=578.535,508.544,25.697,-180.00,0.00,0.00
C01984=577.152,516.979,25.717,-180.00,0.00,0.00
C01985=574.861,525.229,25.738,-180.00,0.00,0.00
C01986=571.698,533.168,25.759,-180.00,0.00,0.00
C01987=567.690,540.728,25.779,-180.00,0.00,0.00
C01988=562.887,547.812,25.800,-180.00,0.00,0.00
C01989=557.357,554.323,25.821,-180.00,0.00,0.00
C01990=551.140,560.212,25.841,-180.00,0.00,0.00
C01991=544.337,565.383,25.862,-180.00,0.00,0.00
C01992=537.004,569.795,25.883,-180.00,0.00,0.00
C01993=529.238,573.388,25.903,-180.00,0.00,0.00
C01994=521.135,576.118,25.924,-180.00,0.00,0.00
C01995=512.776,577.958,25.945,-180.00,0.00,0.00
C01996=504.278,578.883,25.966,-180.00,0.00,0.00
C01997=495.722,578.883,25.986,-180.00,0.00,0.00
C01998=487.224,577.958,26.007,-180.00,0.00,0.00
C01999=478.865,576.118,26.028,-180.00,0.00,0.00
C02000=470.762,573.388,26.048,-180.00,0.00,0.00
C02001=462.996,569.795,26.069,-180.00,0.00,0.00
C02002=455.663,565.383,26.090,-180.00,0.00,0.00
C02003=448.860,560.212,26.110,-180.00,0.00,0.00
C02004=442.643,554.323,26.131,-180.00,0.00,0.00
C02005=437.113,547.812,26.152,-180.00,0.00,0.00
C02006=432.310,540.728,26.172,-180.00,0.00,0.00
C02007=428.302,533.168,26.193,-180.00,0.00,0.00
C02008=425.139,525.229,26.214,-180.00,0.00,0.00
C02009=422.848,516.979,26.234,-180.00,0.00,0.00
C02010=421.465,508.544,26.255,-180.00,0.00,0.00
C02011=421.002,500.000,26.276,-180.00,0.00,0.00
C02012=421.465,491.456,26.297,-180.00,0.00,0.00
C02013=422.848,483.021,26.317,-180.00,0.00,0.00
C02014=425.139,474.771,26.338,-180.00,0.00,0.00
C02015=428.302,466.832,26.359,-180.00,0.00,0.00
C02016=432.310,459.272,26.379,-180.00,0.00,0.00
C02017=437.113,452.188,26.400,-180.00,0.00,0.00
C02018=442.643,445.677,26.421,-180.00,0.00,0.00
C02019=448.860,439.788,26.441,-180.00,0.00,0.00
C02020=455.663,434.617,26.462,-180.00,0.00,0.00
C02021=462.996,430.205,26.483,-180.00,0.00,0.00
C02022=470.762,426.612,26.503,-180.00,0.00,0.00
C02023=478.865,423.882,26.524,-180.00,0.00,0.00
C02024=487.224,422.042,26.545,-180.00,0.00,0.00
C02025=495.722,421.117,26.566,-180.00,0.00,0.00
C02026=504.278,421.117,26.586,-180.00,0.00,0.00
C02027=512.776,422.042,26.607,-180.00,0.00,0.00
C02028=521.135,423.882,26.628,-180.00,0.00,0.00
C02029=529.238,426.612,26.648,-180.00,0.00,0.00
C02030=537.004,430.205,26.669,-180.00,0.00,0.00
C02031=544.337,434.617,26.690,-180.00,0.00,0.00
C02032=551.140,439.788,26.710,-180.00,0.00,0.00
C02033=557.357,445.677,26.731,-180.00,0.00,0.00
C02034=562.887,452.188,26.752,-180.00,0.00,0.00
C02035=567.690,459.272,26.772,-180.00,0.00,0.00
C02036=571.698,466.832,26.793,-180.00,0.00,0.00
C02037=574.861,474.771,26.814,-180.00,0.00,0.00
C02038=577.152,483.021,26.834,-180.00,0.00,0.00
C02039=578.535,491.456,26.855,-180.00,0.00,0.00
C02040=578.998,500.000,26.876,-180.00,0.00,0.00
C02041=578.535,508.544,26.897,-180.00,0.00,0.00
C02042=577.152,516.979,26.917,-180.00,0.00,0.00
C02043=574.861,525.229,26.938,-180.00,0.00,0.00
C02044=571.698,533.168,26.959,-180.00,0.00,0.00
C02045=567.690,540.728,26.979,-180.00,0.00,0.00
C02046=562.887,547.812,27.000,-180.00,0.00,0.00
C02047=557.357,554.323,27.021,-180.00,0.00,0.00
C02048=551.140,560.212,27.041,-180.00,0.00,0.00
C02049=544.337,565.383,27.062,-180.00,0.00,0.00
C02050=537.004,569.795,27.083,-180.00,0.00,0.00
C02051=529.238,573.388,27.103,-180.00,0.00,0.00
C02052=521.135,576.118,27.124,-180.00,0.00,0.00
C02053=512.776,577.958,27.145,-180.00,0.00,0.00
C02054=504.278,578.883,27.166,-180.00,0.00,0.00
C02055=495.722,578.883,27.186,-180.00,0.00,0.00
C02056=487.224,577.958,27.207,-180.00,0.00,0.00
C02057=478.865,576.118,27.228,-180.00,0.00,0.00
C02058=470.762,573.388,27.248,-180.00,0.00,0.00
C02059=462.996,569.795,27.269,-180.00,0.00,0.00
C02060=455.663,565.383,27.290,-180.00,0.00,0.00
C02061=448.860,560.212,27.310,-180.00,0.00,0.00
C02062=442.643,554.323,27.331,-180.00,0.00,0.00
C02063=437.113,547.812,27.352,-180.00,0.00,0.00
C02064=432.310,540.728,27.372,-180.00,0.00,0.00
C02065=428.302,533.168,27.393,-180.00,0.00,0.00
C02066=425.139,525.229,27.414,-180.00,0.00,0.00
C02067=422.848,516.979,27.434,-180.00,0.00,0.00
C02068=421.465,508.544,27.455,-180.00,0.00,0.00
C02069=421.002,500.000,27.476,-180.00,0.00,0.00
C02070=421.465,491.456,27.497,-180.00,0.00,0.00
C02071=422.848,483.021,27.517,-180.00,0.00,0.00
C02072=425.139,474.771,27.538,-180.00,0.00,0.00
C02073=428.302,466.832,27.559,-180.00,0.00,0.00
C02074=432.310,459.272,27.579,-180.00,0.00,0.00
C02075=437.113,452.188,27.600,-180.00,0.00,0.00
C02076=442.643,445.677,27.621,-180.00,0.00,0.00
C02077=448.860,439.788,27.641,-180.00,0.00,0.00
C02078=455.663,434.617,27.662,-180.00,0.00,0.00
C02079=462.996,430.205,27.683,-180.00,0.00,0.00
C02080=470.762,426.612,27.703,-180.00,0.00,0.00
C02081=478.865,423.882,27.724,-180.00,0.00,0.00
C02082=487.224,422.042,27.745,-180.00,0.00,0.00
C02083=495.722,421.117,27.766,-180.00,0.00,0.00
C02084=504.278,421.117,27.786,-180.00,0.00,0.00
C02085=512.776,422.042,27.807,-180.00,0.00,0.00
C02086=521.135,423.882,27.828,-180.00,0.00,0.00
C02087=529.238,426.612,27.848,-180.00,0.00,0.00
C02088=537.004,430.205,27.869,-180.00,0.00,0.00
C02089=544.337,434.617,27.890,-180.00,0.00,0.00
C02090=551.140,439.788,27.910,-180.00,0.00,0.00
C02091=557.357,445.677,27.931,-180.00,0.00,0.00
C02092=562.887,452.188,27.952,-180.00,0.00,0.00
C02093=567.690,459.272,27.972,-180.00,0.00,0.00
C02094=571.698,466.832,27.993,-180.00,0.00,0.00
C02095=574.861,474.771,28.014,-180.00,0.00,0.00
C02096=577.152,483.021,28.034,-180.00,0.00,0.00
C02097=578.535,491.456,28.055,-180.00,0.00,0.00
C02098=578.998,500.000,28.076,-180.00,0.00,0.00
C02099=578.535,508.544,28.097,-180.00,0.00,0.00
C02100=577.152,516.979,28.117,-180.00,0.00,0.00
C02101=574.861,525.229,28.138,-180.00,0.00,0.00
C02102=571.698,533.168,28.159,-180.00,0.00,0.00
C02103=567.690,540.728,28.179,-180.00,0.00,0.00
C02104=562.887,547.812,28.200,-180.00,0.00,0.00
