/JOB
//NAME output
//POS
///NPOS 1745,0,0,0,0,0
///TOOL 10
///POSTYPE PULSE
///PULSE
///TOOL 10
///POSTYPE BASE
///RECTAN
///RCONF 0,0,0,0,0,0,0,0
C00000=500.000,500.000,500.000,-180.00,0.00,0.00
C00001=421.002,500.001,1.200,-180.00,0.00,0.00
C00002=421.465,508.539,1.200,-180.00,0.00,0.00
C00003=422.849,516.981,1.200,-180.00,0.00,0.00
C00004=425.134,525.210,1.200,-180.00,0.00,0.00
C00005=428.303,533.169,1.200,-180.00,0.00,0.00
C00006=432.309,540.726,1.200,-180.00,0.00,0.00
C00007=437.109,547.806,1.200,-180.00,0.00,0.00
C00008=448.858,560.208,1.200,-180.00,0.00,0.00
C00009=462.997,569.795,1.200,-180.00,0.00,0.00
C00010=470.762,573.387,1.200,-180.00,0.00,0.00
C00011=478.864,576.118,1.200,-180.00,0.00,0.00
C00012=487.220,577.957,1.200,-180.00,0.00,0.00
C00013=495.725,578.883,1.200,-180.00,0.00,0.00
C00014=529.238,573.387,1.200,-180.00,0.00,0.00
C00015=557.352,554.326,1.200,-180.00,0.00,0.00
C00016=562.891,547.806,1.200,-180.00,0.00,0.00
C00017=577.151,516.981,1.200,-180.00,0.00,0.00
C00018=574.866,474.790,1.200,-180.00,0.00,0.00
C00019=571.697,466.831,1.200,-180.00,0.00,0.00
C00020=567.689,459.272,1.200,-180.00,0.00,0.00
C00021=562.889,452.192,1.200,-180.00,0.00,0.00
C00022=551.140,439.790,1.200,-180.00,0.00,0.00
C00023=537.003,430.205,1.200,-180.00,0.00,0.00
C00024=529.238,426.613,1.200,-180.00,0.00,0.00
C00025=521.136,423.882,1.200,-180.00,0.00,0.00
C00026=512.780,422.043,1.200,-180.00,0.00,0.00
C00027=504.275,421.118,1.200,-180.00,0.00,0.00
C00028=470.762,426.613,1.200,-180.00,0.00,0.00
C00029=442.648,445.674,1.200,-180.00,0.00,0.00
C00030=437.109,452.194,1.200,-180.00,0.00,0.00
C00031=422.849,483.019,1.200,-180.00,0.00,0.00
C00032=423.731,500.000,1.200,-180.00,0.00,0.00
C00033=422.905,500.002,1.200,-180.00,0.00,0.00
C00034=424.708,516.572,1.200,-180.00,0.00,0.00
C00035=430.030,532.369,1.200,-180.00,0.00,0.00
C00036=433.939,539.744,1.200,-180.00,0.00,0.00
C00037=444.029,553.016,1.200,-180.00,0.00,0.00
C00038=450.090,558.756,1.200,-180.00,0.00,0.00
C00039=456.740,563.811,1.200,-180.00,0.00,0.00
C00040=463.889,568.112,1.200,-180.00,0.00,0.00
C00041=487.529,576.079,1.200,-180.00,0.00,0.00
C00042=512.471,576.079,1.200,-180.00,0.00,0.00
C00043=520.628,574.283,1.200,-180.00,0.00,0.00
C00044=528.531,571.619,1.200,-180.00,0.00,0.00
C00045=536.111,568.112,1.200,-180.00,0.00,0.00
C00046=561.378,546.653,1.200,-180.00,0.00,0.00
C00047=577.095,499.997,1.200,-180.00,0.00,0.00
C00048=569.969,467.631,1.200,-180.00,0.00,0.00
C00049=566.057,460.252,1.200,-180.00,0.00,0.00
C00050=555.971,446.983,1.200,-180.00,0.00,0.00
C00051=549.906,441.240,1.200,-180.00,0.00,0.00
C00052=543.261,436.189,1.200,-180.00,0.00,0.00
C00053=536.111,431.888,1.200,-180.00,0.00,0.00
C00054=512.471,423.921,1.200,-180.00,0.00,0.00
C00055=487.529,423.921,1.200,-180.00,0.00,0.00
C00056=479.372,425.717,1.200,-180.00,0.00,0.00
C00057=471.469,428.381,1.200,-180.00,0.00,0.00
C00058=463.889,431.888,1.200,-180.00,0.00,0.00
C00059=438.622,453.347,1.200,-180.00,0.00,0.00
C00060=422.905,500.002,1.200,-180.00,0.00,0.00
C00061=459.881,564.533,1.200,-180.00,0.00,0.00
C00062=435.263,539.915,1.200,-180.00,0.00,0.00
C00063=434.910,539.562,1.200,-180.00,0.00,0.00
C00064=431.857,533.681,1.200,-180.00,0.00,0.00
C00065=466.302,568.125,1.200,-180.00,0.00,0.00
C00066=466.655,568.478,1.200,-180.00,0.00,0.00
C00067=471.565,570.560,1.200,-180.00,0.00,0.00
C00068=429.606,528.601,1.200,-180.00,0.00,0.00
C00069=429.253,528.248,1.200,-180.00,0.00,0.00
C00070=429.272,528.241,1.200,-180.00,0.00,0.00
C00071=427.799,523.966,1.200,-180.00,0.00,0.00
C00072=475.884,572.051,1.200,-180.00,0.00,0.00
C00073=476.250,572.364,1.200,-180.00,0.00,0.00
C00074=480.074,573.412,1.200,-180.00,0.00,0.00
C00075=426.711,520.049,1.200,-180.00,0.00,0.00
C00076=426.425,519.679,1.200,-180.00,0.00,0.00
C00077=425.653,516.163,1.200,-180.00,0.00,0.00
C00078=483.702,574.211,1.200,-180.00,0.00,0.00
C00079=425.099,512.780,1.200,-180.00,0.00,0.00
C00080=424.544,509.397,1.200,-180.00,0.00,0.00
C00081=490.548,575.401,1.200,-180.00,0.00,0.00
C00082=493.722,575.746,1.200,-180.00,0.00,0.00
C00083=424.246,506.270,1.200,-180.00,0.00,0.00
C00084=424.083,503.279,1.200,-180.00,0.00,0.00
C00085=496.786,575.982,1.200,-180.00,0.00,0.00
C00086=499.614,575.982,1.200,-180.00,0.00,0.00
C00087=423.921,500.289,1.200,-180.00,0.00,0.00
C00088=424.037,497.576,1.200,-180.00,0.00,0.00
C00089=502.443,575.982,1.200,-180.00,0.00,0.00
C00090=505.157,575.868,1.200,-180.00,0.00,0.00
C00091=424.183,494.894,1.200,-180.00,0.00,0.00
C00092=424.329,492.211,1.200,-180.00,0.00,0.00
C00093=507.708,575.590,1.200,-180.00,0.00,0.00
C00094=510.258,575.312,1.200,-180.00,0.00,0.00
C00095=424.686,489.740,1.200,-180.00,0.00,0.00
C00096=425.085,487.310,1.200,-180.00,0.00,0.00
C00097=512.764,574.989,1.200,-180.00,0.00,0.00
C00098=515.082,574.479,1.200,-180.00,0.00,0.00
C00099=425.483,484.880,1.200,-180.00,0.00,0.00
C00100=425.987,482.555,1.200,-180.00,0.00,0.00
C00101=517.399,573.968,1.200,-180.00,0.00,0.00
C00102=519.717,573.457,1.200,-180.00,0.00,0.00
C00103=426.601,480.341,1.200,-180.00,0.00,0.00
C00104=427.214,478.126,1.200,-180.00,0.00,0.00
C00105=521.889,572.801,1.200,-180.00,0.00,0.00
C00106=524.005,572.088,1.200,-180.00,0.00,0.00
C00107=427.828,475.911,1.200,-180.00,0.00,0.00
C00108=428.618,473.873,1.200,-180.00,0.00,0.00
C00109=526.120,571.375,1.200,-180.00,0.00,0.00
C00110=528.229,570.655,1.200,-180.00,0.00,0.00
C00111=429.424,471.850,1.200,-180.00,0.00,0.00
C00112=430.229,469.827,1.200,-180.00,0.00,0.00
C00113=530.163,569.761,1.200,-180.00,0.00,0.00
C00114=532.096,568.865,1.200,-180.00,0.00,0.00
C00115=431.056,467.826,1.200,-180.00,0.00,0.00
C00116=432.036,465.977,1.200,-180.00,0.00,0.00
C00117=534.030,567.971,1.200,-180.00,0.00,0.00
C00118=535.936,567.048,1.200,-180.00,0.00,0.00
C00119=433.015,464.128,1.200,-180.00,0.00,0.00
C00120=433.995,462.280,1.200,-180.00,0.00,0.00
C00121=537.702,565.986,1.200,-180.00,0.00,0.00
C00122=539.468,564.923,1.200,-180.00,0.00,0.00
C00123=435.005,460.461,1.200,-180.00,0.00,0.00
C00124=436.148,458.775,1.200,-180.00,0.00,0.00
C00125=541.233,563.861,1.200,-180.00,0.00,0.00
C00126=542.972,562.771,1.200,-180.00,0.00,0.00
C00127=437.291,457.090,1.200,-180.00,0.00,0.00
C00128=438.433,455.404,1.200,-180.00,0.00,0.00
C00129=544.579,561.550,1.200,-180.00,0.00,0.00
C00130=546.186,560.329,1.200,-180.00,0.00,0.00
C00131=439.598,453.740,1.200,-180.00,0.00,0.00
C00132=440.898,452.211,1.200,-180.00,0.00,0.00
C00133=547.793,559.107,1.200,-180.00,0.00,0.00
C00134=549.387,557.872,1.200,-180.00,0.00,0.00
C00135=442.197,450.682,1.200,-180.00,0.00,0.00
C00136=443.496,449.153,1.200,-180.00,0.00,0.00
C00137=550.839,556.496,1.200,-180.00,0.00,0.00
C00138=552.292,555.121,1.200,-180.00,0.00,0.00
C00139=444.801,447.629,1.200,-180.00,0.00,0.00
C00140=446.254,446.254,1.200,-180.00,0.00,0.00
C00141=553.745,553.745,1.200,-180.00,0.00,0.00
C00142=555.197,552.369,1.200,-180.00,0.00,0.00
C00143=447.706,444.878,1.200,-180.00,0.00,0.00
C00144=449.159,443.502,1.200,-180.00,0.00,0.00
C00145=556.502,550.845,1.200,-180.00,0.00,0.00
C00146=557.801,549.316,1.200,-180.00,0.00,0.00
C00147=450.612,442.127,1.200,-180.00,0.00,0.00
C00148=452.205,440.891,1.200,-180.00,0.00,0.00
C00149=559.101,547.787,1.200,-180.00,0.00,0.00
C00150=560.401,546.259,1.200,-180.00,0.00,0.00
C00151=453.812,439.670,1.200,-180.00,0.00,0.00
C00152=455.419,438.448,1.200,-180.00,0.00,0.00
C00153=561.565,544.595,1.200,-180.00,0.00,0.00
C00154=562.707,542.908,1.200,-180.00,0.00,0.00
C00155=457.026,437.227,1.200,-180.00,0.00,0.00
C00156=458.765,436.137,1.200,-180.00,0.00,0.00
C00157=563.850,541.223,1.200,-180.00,0.00,0.00
C00158=564.993,539.537,1.200,-180.00,0.00,0.00
C00159=460.531,435.075,1.200,-180.00,0.00,0.00
C00160=462.297,434.012,1.200,-180.00,0.00,0.00
C00161=566.002,537.718,1.200,-180.00,0.00,0.00
C00162=566.982,535.870,1.200,-180.00,0.00,0.00
C00163=464.063,432.950,1.200,-180.00,0.00,0.00
C00164=465.969,432.028,1.200,-180.00,0.00,0.00
C00165=567.962,534.021,1.200,-180.00,0.00,0.00
C00166=568.942,532.172,1.200,-180.00,0.00,0.00
C00167=467.902,431.132,1.200,-180.00,0.00,0.00
C00168=469.836,430.238,1.200,-180.00,0.00,0.00
C00169=569.768,530.170,1.200,-180.00,0.00,0.00
C00170=570.575,528.148,1.200,-180.00,0.00,0.00
C00171=471.769,429.343,1.200,-180.00,0.00,0.00
C00172=473.878,428.624,1.200,-180.00,0.00,0.00
C00173=571.381,526.126,1.200,-180.00,0.00,0.00
C00174=572.171,524.087,1.200,-180.00,0.00,0.00
C00175=475.994,427.911,1.200,-180.00,0.00,0.00
C00176=478.109,427.197,1.200,-180.00,0.00,0.00
C00177=572.784,521.873,1.200,-180.00,0.00,0.00
C00178=573.398,519.658,1.200,-180.00,0.00,0.00
C00179=480.281,426.540,1.200,-180.00,0.00,0.00
C00180=482.598,426.030,1.200,-180.00,0.00,0.00
C00181=574.012,517.443,1.200,-180.00,0.00,0.00
C00182=574.516,515.119,1.200,-180.00,0.00,0.00
C00183=484.916,425.519,1.200,-180.00,0.00,0.00
C00184=487.234,425.009,1.200,-180.00,0.00,0.00
C00185=574.914,512.689,1.200,-180.00,0.00,0.00
C00186=575.312,510.258,1.200,-180.00,0.00,0.00
C00187=489.740,424.686,1.200,-180.00,0.00,0.00
C00188=492.291,424.409,1.200,-180.00,0.00,0.00
C00189=575.669,507.787,1.200,-180.00,0.00,0.00
C00190=575.815,505.104,1.200,-180.00,0.00,0.00
C00191=494.842,424.131,1.200,-180.00,0.00,0.00
C00192=497.557,424.018,1.200,-180.00,0.00,0.00
C00193=575.961,502.422,1.200,-180.00,0.00,0.00
C00194=576.077,499.710,1.200,-180.00,0.00,0.00
C00195=500.386,424.018,1.200,-180.00,0.00,0.00
C00196=503.214,424.018,1.200,-180.00,0.00,0.00
C00197=575.915,496.719,1.200,-180.00,0.00,0.00
C00198=575.752,493.728,1.200,-180.00,0.00,0.00
C00199=506.278,424.254,1.200,-180.00,0.00,0.00
C00200=509.451,424.598,1.200,-180.00,0.00,0.00
C00201=575.454,490.601,1.200,-180.00,0.00,0.00
C00202=574.899,487.218,1.200,-180.00,0.00,0.00
C00203=512.670,424.988,1.200,-180.00,0.00,0.00
C00204=516.296,425.787,1.200,-180.00,0.00,0.00
C00205=574.346,483.836,1.200,-180.00,0.00,0.00
C00206=574.699,484.189,1.200,-180.00,0.00,0.00
C00207=574.586,484.207,1.200,-180.00,0.00,0.00
C00208=573.288,479.950,1.200,-180.00,0.00,0.00
C00209=519.924,426.586,1.200,-180.00,0.00,0.00
C00210=519.551,426.321,1.200,-180.00,0.00,0.00
C00211=524.114,427.948,1.200,-180.00,0.00,0.00
C00212=572.200,476.034,1.200,-180.00,0.00,0.00
C00213=572.487,476.404,1.200,-180.00,0.00,0.00
C00214=570.391,471.396,1.200,-180.00,0.00,0.00
C00215=528.433,429.438,1.200,-180.00,0.00,0.00
C00216=528.077,429.094,1.200,-180.00,0.00,0.00
C00217=533.696,431.873,1.200,-180.00,0.00,0.00
C00218=568.140,466.317,1.200,-180.00,0.00,0.00
C00219=564.731,460.079,1.200,-180.00,0.00,0.00
C00220=540.117,435.466,1.200,-180.00,0.00,0.00
C00221=539.764,435.113,1.200,-180.00,0.00,0.00
C00222=553.533,446.052,1.200,-180.00,0.00,0.00
C00223=555.754,448.273,1.200,-180.00,0.00,0.00
C00224=554.440,449.387,1.200,-180.00,0.00,0.00
C00225=431.017,500.001,1.200,-180.00,0.00,0.00
C00226=431.421,507.457,1.200,-180.00,0.00,0.00
C00227=432.629,514.828,1.200,-180.00,0.00,0.00
C00228=434.624,522.013,1.200,-180.00,0.00,0.00
C00229=437.393,528.965,1.200,-180.00,0.00,0.00
C00230=440.890,535.564,1.200,-180.00,0.00,0.00
C00231=449.918,547.438,1.200,-180.00,0.00,0.00
C00232=461.290,557.096,1.200,-180.00,0.00,0.00
C00233=467.688,560.947,1.200,-180.00,0.00,0.00
C00234=474.469,564.084,1.200,-180.00,0.00,0.00
C00235=481.544,566.468,1.200,-180.00,0.00,0.00
C00236=488.840,568.075,1.200,-180.00,0.00,0.00
C00237=518.456,566.468,1.200,-180.00,0.00,0.00
C00238=544.659,552.575,1.200,-180.00,0.00,0.00
C00239=550.082,547.438,1.200,-180.00,0.00,0.00
C00240=565.378,522.013,1.200,-180.00,0.00,0.00
C00241=565.376,477.988,1.200,-180.00,0.00,0.00
C00242=562.607,471.035,1.200,-180.00,0.00,0.00
C00243=559.108,464.435,1.200,-180.00,0.00,0.00
C00244=550.082,452.562,1.200,-180.00,0.00,0.00
C00245=538.711,442.904,1.200,-180.00,0.00,0.00
C00246=532.312,439.054,1.200,-180.00,0.00,0.00
C00247=525.531,435.916,1.200,-180.00,0.00,0.00
C00248=518.456,433.532,1.200,-180.00,0.00,0.00
C00249=511.160,431.926,1.200,-180.00,0.00,0.00
C00250=481.544,433.532,1.200,-180.00,0.00,0.00
C00251=455.341,447.425,1.200,-180.00,0.00,0.00
C00252=449.918,452.562,1.200,-180.00,0.00,0.00
C00253=434.622,477.987,1.200,-180.00,0.00,0.00
C00254=430.673,515.259,1.200,-180.00,0.00,0.00
C00255=435.575,529.806,1.200,-180.00,0.00,0.00
C00256=439.174,536.596,1.200,-180.00,0.00,0.00
C00257=448.464,548.816,1.200,-180.00,0.00,0.00
C00258=454.044,554.102,1.200,-180.00,0.00,0.00
C00259=460.166,558.754,1.200,-180.00,0.00,0.00
C00260=466.750,562.716,1.200,-180.00,0.00,0.00
C00261=488.516,570.051,1.200,-180.00,0.00,0.00
C00262=511.484,570.051,1.200,-180.00,0.00,0.00
C00263=518.992,568.398,1.200,-180.00,0.00,0.00
C00264=526.272,565.944,1.200,-180.00,0.00,0.00
C00265=533.250,562.716,1.200,-180.00,0.00,0.00
C00266=539.834,558.754,1.200,-180.00,0.00,0.00
C00267=564.425,529.805,1.200,-180.00,0.00,0.00
C00268=567.274,477.348,1.200,-180.00,0.00,0.00
C00269=564.425,470.194,1.200,-180.00,0.00,0.00
C00270=560.824,463.402,1.200,-180.00,0.00,0.00
C00271=551.536,451.184,1.200,-180.00,0.00,0.00
C00272=545.954,445.896,1.200,-180.00,0.00,0.00
C00273=539.835,441.246,1.200,-180.00,0.00,0.00
C00274=533.251,437.284,1.200,-180.00,0.00,0.00
C00275=511.484,429.949,1.200,-180.00,0.00,0.00
C00276=488.516,429.949,1.200,-180.00,0.00,0.00
C00277=481.008,431.602,1.200,-180.00,0.00,0.00
C00278=473.728,434.056,1.200,-180.00,0.00,0.00
C00279=466.750,437.284,1.200,-180.00,0.00,0.00
C00280=460.166,441.246,1.200,-180.00,0.00,0.00
C00281=435.575,470.195,1.200,-180.00,0.00,0.00
C00282=428.717,515.690,1.200,-180.00,0.00,0.00
C00283=433.757,530.647,1.200,-180.00,0.00,0.00
C00284=437.458,537.629,1.200,-180.00,0.00,0.00
C00285=447.010,550.193,1.200,-180.00,0.00,0.00
C00286=452.748,555.628,1.200,-180.00,0.00,0.00
C00287=459.042,560.412,1.200,-180.00,0.00,0.00
C00288=465.811,564.486,1.200,-180.00,0.00,0.00
C00289=488.192,572.028,1.200,-180.00,0.00,0.00
C00290=511.808,572.028,1.200,-180.00,0.00,0.00
C00291=519.528,570.328,1.200,-180.00,0.00,0.00
C00292=527.014,567.805,1.200,-180.00,0.00,0.00
C00293=534.189,564.486,1.200,-180.00,0.00,0.00
C00294=540.958,560.412,1.200,-180.00,0.00,0.00
C00295=566.243,530.646,1.200,-180.00,0.00,0.00
C00296=569.172,476.709,1.200,-180.00,0.00,0.00
C00297=566.243,469.353,1.200,-180.00,0.00,0.00
C00298=562.541,462.370,1.200,-180.00,0.00,0.00
C00299=552.990,449.807,1.200,-180.00,0.00,0.00
C00300=547.250,444.370,1.200,-180.00,0.00,0.00
C00301=540.959,439.588,1.200,-180.00,0.00,0.00
C00302=534.189,435.514,1.200,-180.00,0.00,0.00
C00303=511.808,427.972,1.200,-180.00,0.00,0.00
C00304=488.192,427.972,1.200,-180.00,0.00,0.00
C00305=480.472,429.672,1.200,-180.00,0.00,0.00
C00306=472.986,432.195,1.200,-180.00,0.00,0.00
C00307=465.811,435.514,1.200,-180.00,0.00,0.00
C00308=459.042,439.588,1.200,-180.00,0.00,0.00
C00309=433.757,469.354,1.200,-180.00,0.00,0.00
C00310=426.761,516.120,1.200,-180.00,0.00,0.00
C00311=431.939,531.488,1.200,-180.00,0.00,0.00
C00312=435.741,538.661,1.200,-180.00,0.00,0.00
C00313=445.556,551.571,1.200,-180.00,0.00,0.00
C00314=451.451,557.155,1.200,-180.00,0.00,0.00
C00315=457.918,562.070,1.200,-180.00,0.00,0.00
C00316=464.873,566.255,1.200,-180.00,0.00,0.00
C00317=487.868,574.004,1.200,-180.00,0.00,0.00
C00318=512.132,574.004,1.200,-180.00,0.00,0.00
C00319=520.064,572.258,1.200,-180.00,0.00,0.00
C00320=527.755,569.666,1.200,-180.00,0.00,0.00
C00321=535.127,566.255,1.200,-180.00,0.00,0.00
C00322=559.702,545.382,1.200,-180.00,0.00,0.00
C00323=574.992,499.998,1.200,-180.00,0.00,0.00
C00324=568.061,468.513,1.200,-180.00,0.00,0.00
C00325=564.257,461.337,1.200,-180.00,0.00,0.00
C00326=554.444,448.429,1.200,-180.00,0.00,0.00
C00327=548.547,442.843,1.200,-180.00,0.00,0.00
C00328=542.083,437.930,1.200,-180.00,0.00,0.00
C00329=535.127,433.745,1.200,-180.00,0.00,0.00
C00330=512.132,425.996,1.200,-180.00,0.00,0.00
C00331=487.868,425.996,1.200,-180.00,0.00,0.00
C00332=479.936,427.742,1.200,-180.00,0.00,0.00
C00333=472.245,430.334,1.200,-180.00,0.00,0.00
C00334=464.873,433.745,1.200,-180.00,0.00,0.00
C00335=440.298,454.618,1.200,-180.00,0.00,0.00
C00336=425.008,500.001,1.200,-180.00,0.00,0.00
C00337=424.805,516.551,1.200,-180.00,0.00,0.00
C00338=427.032,524.570,1.200,-180.00,0.00,0.00
C00339=430.121,532.328,1.200,-180.00,0.00,0.00
C00340=43.000,532.328,1.200,-180.00,0.00,0.00
C00341=444.102,552.948,1.200,-180.00,0.00,0.00
C00342=450.154,558.682,1.200,-180.00,0.00,0.00
C00343=456.794,563.728,1.200,-180.00,0.00,0.00
C00344=463.935,568.025,1.200,-180.00,0.00,0.00
C00345=471.504,571.526,1.200,-180.00,0.00,0.00
C00346=479.400,574.188,1.200,-180.00,0.00,0.00
C00347=487.544,575.981,1.200,-180.00,0.00,0.00
C00348=495.833,576.883,1.200,-180.00,0.00,0.00
C00349=528.496,571.526,1.200,-180.00,0.00,0.00
C00350=555.898,552.948,1.200,-180.00,0.00,0.00
C00351=561.297,546.594,1.200,-180.00,0.00,0.00
C00352=575.195,516.551,1.200,-180.00,0.00,0.00
C00353=572.968,475.430,1.200,-180.00,0.00,0.00
C00354=569.879,467.672,1.200,-180.00,0.00,0.00
C00355=565.973,460.304,1.200,-180.00,0.00,0.00
C00356=555.898,447.052,1.200,-180.00,0.00,0.00
C00357=549.844,441.316,1.200,-180.00,0.00,0.00
C00358=543.207,436.272,1.200,-180.00,0.00,0.00
C00359=536.065,431.975,1.200,-180.00,0.00,0.00
C00360=512.456,424.019,1.200,-180.00,0.00,0.00
C00361=487.544,424.019,1.200,-180.00,0.00,0.00
C00362=479.400,425.812,1.200,-180.00,0.00,0.00
C00363=471.504,428.474,1.200,-180.00,0.00,0.00
C00364=463.935,431.975,1.200,-180.00,0.00,0.00
C00365=438.703,453.406,1.200,-180.00,0.00,0.00
C00366=423.005,500.001,1.200,-180.00,0.00,0.00
C00367=422.849,516.981,1.200,-180.00,0.00,0.00
C00368=425.134,525.210,1.200,-180.00,0.00,0.00
C00369=428.303,533.169,1.200,-180.00,0.00,0.00
C00370=432.309,540.726,1.200,-180.00,0.00,0.00
C00371=437.109,547.806,1.200,-180.00,0.00,0.00
C00372=448.858,560.208,1.200,-180.00,0.00,0.00
C00373=462.997,569.795,1.200,-180.00,0.00,0.00
C00374=470.762,573.387,1.200,-180.00,0.00,0.00
C00375=478.864,576.118,1.200,-180.00,0.00,0.00
C00376=487.220,577.957,1.200,-180.00,0.00,0.00
C00377=495.725,578.883,1.200,-180.00,0.00,0.00
C00378=529.238,573.387,1.200,-180.00,0.00,0.00
C00379=557.352,554.326,1.200,-180.00,0.00,0.00
C00380=562.891,547.806,1.200,-180.00,0.00,0.00
C00381=577.151,516.981,1.200,-180.00,0.00,0.00
C00382=574.866,474.790,1.200,-180.00,0.00,0.00
C00383=571.697,466.831,1.200,-180.00,0.00,0.00
C00384=567.689,459.272,1.200,-180.00,0.00,0.00
C00385=562.889,452.192,1.200,-180.00,0.00,0.00
C00386=551.140,439.790,1.200,-180.00,0.00,0.00
C00387=537.003,430.205,1.200,-180.00,0.00,0.00
C00388=529.238,426.613,1.200,-180.00,0.00,0.00
C00389=521.136,423.882,1.200,-180.00,0.00,0.00
C00390=512.780,422.043,1.200,-180.00,0.00,0.00
C00391=504.275,421.118,1.200,-180.00,0.00,0.00
C00392=470.762,426.613,1.200,-180.00,0.00,0.00
C00393=442.648,445.674,1.200,-180.00,0.00,0.00
C00394=437.109,452.194,1.200,-180.00,0.00,0.00
C00395=422.849,483.019,1.200,-180.00,0.00,0.00
C00396=432.920,500.002,1.200,-180.00,0.00,0.00
C00397=433.313,507.248,1.200,-180.00,0.00,0.00
C00398=436.428,521.405,1.200,-180.00,0.00,0.00
C00399=439.120,528.165,1.200,-180.00,0.00,0.00
C00400=442.521,534.582,1.200,-180.00,0.00,0.00
C00401=451.299,546.128,1.200,-180.00,0.00,0.00
C00402=462.360,555.522,1.200,-180.00,0.00,0.00
C00403=468.580,559.264,1.200,-180.00,0.00,0.00
C00404=475.176,562.315,1.200,-180.00,0.00,0.00
C00405=482.052,564.633,1.200,-180.00,0.00,0.00
C00406=489.149,566.196,1.200,-180.00,0.00,0.00
C00407=517.948,564.633,1.200,-180.00,0.00,0.00
C00408=543.427,551.123,1.200,-180.00,0.00,0.00
C00409=548.701,546.128,1.200,-180.00,0.00,0.00
C00410=563.579,521.391,1.200,-180.00,0.00,0.00
C00411=563.572,478.595,1.200,-180.00,0.00,0.00
C00412=560.880,471.836,1.200,-180.00,0.00,0.00
C00413=557.476,465.415,1.200,-180.00,0.00,0.00
C00414=548.700,453.871,1.200,-180.00,0.00,0.00
C00415=537.641,444.479,1.200,-180.00,0.00,0.00
C00416=531.420,440.736,1.200,-180.00,0.00,0.00
C00417=524.824,437.685,1.200,-180.00,0.00,0.00
C00418=517.948,435.367,1.200,-180.00,0.00,0.00
C00419=510.851,433.804,1.200,-180.00,0.00,0.00
C00420=482.052,435.367,1.200,-180.00,0.00,0.00
C00421=456.573,448.877,1.200,-180.00,0.00,0.00
C00422=451.299,453.872,1.200,-180.00,0.00,0.00
C00423=436.420,478.609,1.200,-180.00,0.00,0.00
C00424=462.012,445.912,1.200,-180.00,0.00,0.00
C00425=469.206,441.547,1.200,-180.00,0.00,0.00
C00426=441.753,468.999,1.200,-180.00,0.00,0.00
C00427=441.400,469.352,1.200,-180.00,0.00,0.00
C00428=439.168,474.413,1.200,-180.00,0.00,0.00
C00429=474.467,439.114,1.200,-180.00,0.00,0.00
C00430=474.820,438.761,1.200,-180.00,0.00,0.00
C00431=478.938,437.471,1.200,-180.00,0.00,0.00
C00432=437.325,479.084,1.200,-180.00,0.00,0.00
C00433=436.972,479.437,1.200,-180.00,0.00,0.00
C00434=436.241,482.997,1.200,-180.00,0.00,0.00
C00435=483.072,436.166,1.200,-180.00,0.00,0.00
C00436=486.700,435.367,1.200,-180.00,0.00,0.00
C00437=435.308,486.758,1.200,-180.00,0.00,0.00
C00438=434.754,490.140,1.200,-180.00,0.00,0.00
C00439=490.200,434.695,1.200,-180.00,0.00,0.00
C00440=493.374,434.349,1.200,-180.00,0.00,0.00
C00441=434.277,493.446,1.200,-180.00,0.00,0.00
C00442=434.114,496.437,1.200,-180.00,0.00,0.00
C00443=496.534,434.017,1.200,-180.00,0.00,0.00
C00444=499.363,434.017,1.200,-180.00,0.00,0.00
C00445=433.952,499.428,1.200,-180.00,0.00,0.00
C00446=434.039,502.170,1.200,-180.00,0.00,0.00
C00447=502.190,434.018,1.200,-180.00,0.00,0.00
C00448=504.877,434.160,1.200,-180.00,0.00,0.00
C00449=434.184,504.853,1.200,-180.00,0.00,0.00
C00450=434.367,507.498,1.200,-180.00,0.00,0.00
C00451=507.428,434.437,1.200,-180.00,0.00,0.00
C00452=509.979,434.715,1.200,-180.00,0.00,0.00
C00453=434.766,509.928,1.200,-180.00,0.00,0.00
C00454=435.164,512.358,1.200,-180.00,0.00,0.00
C00455=512.362,435.160,1.200,-180.00,0.00,0.00
C00456=514.680,435.671,1.200,-180.00,0.00,0.00
C00457=435.614,514.736,1.200,-180.00,0.00,0.00
C00458=436.229,516.950,1.200,-180.00,0.00,0.00
C00459=516.998,436.181,1.200,-180.00,0.00,0.00
C00460=519.173,436.835,1.200,-180.00,0.00,0.00
C00461=436.844,519.164,1.200,-180.00,0.00,0.00
C00462=437.484,521.352,1.200,-180.00,0.00,0.00
C00463=521.288,437.548,1.200,-180.00,0.00,0.00
C00464=523.403,438.261,1.200,-180.00,0.00,0.00
C00465=438.289,523.375,1.200,-180.00,0.00,0.00
C00466=439.095,525.398,1.200,-180.00,0.00,0.00
C00467=525.427,439.065,1.200,-180.00,0.00,0.00
C00468=527.361,439.960,1.200,-180.00,0.00,0.00
C00469=439.901,527.421,1.200,-180.00,0.00,0.00
C00470=440.852,529.297,1.200,-180.00,0.00,0.00
C00471=529.295,440.854,1.200,-180.00,0.00,0.00
C00472=531.204,441.774,1.200,-180.00,0.00,0.00
C00473=441.832,531.146,1.200,-180.00,0.00,0.00
C00474=442.812,532.995,1.200,-180.00,0.00,0.00
C00475=532.971,442.836,1.200,-180.00,0.00,0.00
C00476=534.736,443.899,1.200,-180.00,0.00,0.00
C00477=443.860,534.774,1.200,-180.00,0.00,0.00
C00478=445.003,536.460,1.200,-180.00,0.00,0.00
C00479=536.502,444.961,1.200,-180.00,0.00,0.00
C00480=538.162,446.130,1.200,-180.00,0.00,0.00
C00481=446.146,538.146,1.200,-180.00,0.00,0.00
C00482=447.288,539.832,1.200,-180.00,0.00,0.00
C00483=539.769,447.351,1.200,-180.00,0.00,0.00
C00484=541.376,448.572,1.200,-180.00,0.00,0.00
C00485=448.574,541.375,1.200,-180.00,0.00,0.00
C00486=449.874,542.903,1.200,-180.00,0.00,0.00
C00487=542.963,449.813,1.200,-180.00,0.00,0.00
C00488=544.415,451.190,1.200,-180.00,0.00,0.00
C00489=451.173,544.433,1.200,-180.00,0.00,0.00
C00490=452.524,545.910,1.200,-180.00,0.00,0.00
C00491=545.868,452.566,1.200,-180.00,0.00,0.00
C00492=547.320,453.942,1.200,-180.00,0.00,0.00
C00493=453.976,547.286,1.200,-180.00,0.00,0.00
C00494=455.429,548.662,1.200,-180.00,0.00,0.00
C00495=548.687,455.403,1.200,-180.00,0.00,0.00
C00496=549.987,456.932,1.200,-180.00,0.00,0.00
C00497=456.881,550.038,1.200,-180.00,0.00,0.00
C00498=458.452,551.295,1.200,-180.00,0.00,0.00
C00499=551.286,458.461,1.200,-180.00,0.00,0.00
C00500=552.586,459.990,1.200,-180.00,0.00,0.00
C00501=460.059,552.516,1.200,-180.00,0.00,0.00
C00502=461.666,553.738,1.200,-180.00,0.00,0.00
C00503=553.731,461.674,1.200,-180.00,0.00,0.00
C00504=554.873,463.360,1.200,-180.00,0.00,0.00
C00505=463.308,554.925,1.200,-180.00,0.00,0.00
C00506=465.074,555.987,1.200,-180.00,0.00,0.00
C00507=556.016,465.045,1.200,-180.00,0.00,0.00
C00508=557.082,466.808,1.200,-180.00,0.00,0.00
C00509=466.840,557.050,1.200,-180.00,0.00,0.00
C00510=468.606,558.112,1.200,-180.00,0.00,0.00
C00511=558.062,468.656,1.200,-180.00,0.00,0.00
C00512=559.041,470.506,1.200,-180.00,0.00,0.00
C00513=470.498,559.049,1.200,-180.00,0.00,0.00
C00514=472.432,559.943,1.200,-180.00,0.00,0.00
C00515=560.012,472.363,1.200,-180.00,0.00,0.00
C00516=560.817,474.386,1.200,-180.00,0.00,0.00
C00517=474.366,560.838,1.200,-180.00,0.00,0.00
C00518=476.370,561.661,1.200,-180.00,0.00,0.00
C00519=561.623,476.408,1.200,-180.00,0.00,0.00
C00520=562.429,478.431,1.200,-180.00,0.00,0.00
C00521=478.485,562.375,1.200,-180.00,0.00,0.00
C00522=480.601,563.088,1.200,-180.00,0.00,0.00
C00523=563.089,480.599,1.200,-180.00,0.00,0.00
C00524=563.704,482.813,1.200,-180.00,0.00,0.00
C00525=482.754,563.763,1.200,-180.00,0.00,0.00
C00526=485.072,564.274,1.200,-180.00,0.00,0.00
C00527=564.320,485.026,1.200,-180.00,0.00,0.00
C00528=564.793,487.381,1.200,-180.00,0.00,0.00
C00529=487.390,564.784,1.200,-180.00,0.00,0.00
C00530=489.747,565.255,1.200,-180.00,0.00,0.00
C00531=565.191,489.812,1.200,-180.00,0.00,0.00
C00532=565.589,492.242,1.200,-180.00,0.00,0.00
C00533=492.298,565.533,1.200,-180.00,0.00,0.00
C00534=494.848,565.811,1.200,-180.00,0.00,0.00
C00535=565.799,494.860,1.200,-180.00,0.00,0.00
C00536=565.944,497.543,1.200,-180.00,0.00,0.00
C00537=497.506,565.982,1.200,-180.00,0.00,0.00
C00538=500.334,565.982,1.200,-180.00,0.00,0.00
C00539=566.064,500.252,1.200,-180.00,0.00,0.00
C00540=565.901,503.243,1.200,-180.00,0.00,0.00
C00541=503.163,565.982,1.200,-180.00,0.00,0.00
C00542=506.286,565.687,1.200,-180.00,0.00,0.00
C00543=565.739,506.234,1.200,-180.00,0.00,0.00
C00544=565.303,509.498,1.200,-180.00,0.00,0.00
C00545=509.460,565.341,1.200,-180.00,0.00,0.00
C00546=512.912,564.718,1.200,-180.00,0.00,0.00
C00547=564.748,512.882,1.200,-180.00,0.00,0.00
C00548=563.871,516.587,1.200,-180.00,0.00,0.00
C00549=516.540,563.918,1.200,-180.00,0.00,0.00
C00550=516.187,564.271,1.200,-180.00,0.00,0.00
C00551=520.606,562.680,1.200,-180.00,0.00,0.00
C00552=562.786,520.500,1.200,-180.00,0.00,0.00
C00553=563.139,520.147,1.200,-180.00,0.00,0.00
C00554=561.028,525.087,1.200,-180.00,0.00,0.00
C00555=524.971,561.144,1.200,-180.00,0.00,0.00
C00556=524.618,561.497,1.200,-180.00,0.00,0.00
C00557=530.234,558.709,1.200,-180.00,0.00,0.00
C00558=558.583,530.361,1.200,-180.00,0.00,0.00
C00559=558.936,530.008,1.200,-180.00,0.00,0.00
C00560=554.336,537.436,1.200,-180.00,0.00,0.00
C00561=537.089,554.683,1.200,-180.00,0.00,0.00
C00562=536.736,555.036,1.200,-180.00,0.00,0.00
C00563=536.736,555.036,3.600,-180.00,0.00,0.00
C00564=439.278,453.848,3.600,-180.00,0.00,0.00
C00565=437.113,452.188,3.600,-180.00,0.00,0.00
C00566=442.643,445.677,3.600,-180.00,0.00,0.00
C00567=448.860,439.788,3.600,-180.00,0.00,0.00
C00568=455.663,434.617,3.600,-180.00,0.00,0.00
C00569=462.996,430.205,3.600,-180.00,0.00,0.00
C00570=470.762,426.612,3.600,-180.00,0.00,0.00
C00571=478.865,423.882,3.600,-180.00,0.00,0.00
C00572=487.224,422.042,3.600,-180.00,0.00,0.00
C00573=495.722,421.117,3.600,-180.00,0.00,0.00
C00574=529.238,426.612,3.600,-180.00,0.00,0.00
C00575=557.357,445.677,3.600,-180.00,0.00,0.00
C00576=562.887,452.188,3.600,-180.00,0.00,0.00
C00577=577.152,483.021,3.600,-180.00,0.00,0.00
C00578=574.861,525.229,3.600,-180.00,0.00,0.00
C00579=571.698,533.168,3.600,-180.00,0.00,0.00
C00580=567.690,540.728,3.600,-180.00,0.00,0.00
C00581=562.887,547.812,3.600,-180.00,0.00,0.00
C00582=551.140,560.212,3.600,-180.00,0.00,0.00
C00583=537.004,569.795,3.600,-180.00,0.00,0.00
C00584=529.238,573.388,3.600,-180.00,0.00,0.00
C00585=521.135,576.118,3.600,-180.00,0.00,0.00
C00586=512.776,577.958,3.600,-180.00,0.00,0.00
C00587=504.278,578.883,3.600,-180.00,0.00,0.00
C00588=470.762,573.388,3.600,-180.00,0.00,0.00
C00589=442.643,554.323,3.600,-180.00,0.00,0.00
C00590=437.113,547.812,3.600,-180.00,0.00,0.00
C00591=422.848,516.979,3.600,-180.00,0.00,0.00
C00592=425.139,474.771,3.600,-180.00,0.00,0.00
C00593=432.310,459.272,3.600,-180.00,0.00,0.00
C00594=442.643,445.677,3.621,-180.00,0.00,0.00
C00595=448.860,439.788,3.641,-180.00,0.00,0.00
C00596=455.663,434.617,3.662,-180.00,0.00,0.00
C00597=478.865,423.882,3.724,-180.00,0.00,0.00
C00598=504.278,421.117,3.786,-180.00,0.00,0.00
C00599=512.776,422.042,3.807,-180.00,0.00,0.00
C00600=521.135,423.882,3.828,-180.00,0.00,0.00
C00601=529.238,426.612,3.848,-180.00,0.00,0.00
C00602=557.357,445.677,3.931,-180.00,0.00,0.00
C00603=578.535,491.456,4.055,-180.00,0.00,0.00
C00604=574.861,525.229,4.138,-180.00,0.00,0.00
C00605=571.698,533.168,4.159,-180.00,0.00,0.00
C00606=567.690,540.728,4.179,-180.00,0.00,0.00
C00607=562.887,547.812,4.200,-180.00,0.00,0.00
C00608=551.140,560.212,4.241,-180.00,0.00,0.00
C00609=537.004,569.795,4.283,-180.00,0.00,0.00
C00610=529.238,573.388,4.303,-180.00,0.00,0.00
C00611=521.135,576.118,4.324,-180.00,0.00,0.00
C00612=512.776,577.958,4.345,-180.00,0.00,0.00
C00613=504.278,578.883,4.366,-180.00,0.00,0.00
C00614=470.762,573.388,4.448,-180.00,0.00,0.00
C00615=442.643,554.323,4.531,-180.00,0.00,0.00
C00616=437.113,547.812,4.552,-180.00,0.00,0.00
C00617=422.848,516.979,4.634,-180.00,0.00,0.00
C00618=425.139,474.771,4.738,-180.00,0.00,0.00
C00619=432.310,459.272,4.779,-180.00,0.00,0.00
C00620=442.643,445.677,4.821,-180.00,0.00,0.00
C00621=448.860,439.788,4.841,-180.00,0.00,0.00
C00622=455.663,434.617,4.862,-180.00,0.00,0.00
C00623=478.865,423.882,4.924,-180.00,0.00,0.00
C00624=504.278,421.117,4.986,-180.00,0.00,0.00
C00625=512.776,422.042,5.007,-180.00,0.00,0.00
C00626=521.135,423.882,5.028,-180.00,0.00,0.00
C00627=529.238,426.612,5.048,-180.00,0.00,0.00
C00628=557.357,445.677,5.131,-180.00,0.00,0.00
C00629=578.535,491.456,5.255,-180.00,0.00,0.00
C00630=574.861,525.229,5.338,-180.00,0.00,0.00
C00631=571.698,533.168,5.359,-180.00,0.00,0.00
C00632=567.690,540.728,5.379,-180.00,0.00,0.00
C00633=562.887,547.812,5.400,-180.00,0.00,0.00
C00634=551.140,560.212,5.441,-180.00,0.00,0.00
C00635=537.004,569.795,5.483,-180.00,0.00,0.00
C00636=529.238,573.388,5.503,-180.00,0.00,0.00
C00637=521.135,576.118,5.524,-180.00,0.00,0.00
C00638=512.776,577.958,5.545,-180.00,0.00,0.00
C00639=504.278,578.883,5.566,-180.00,0.00,0.00
C00640=470.762,573.388,5.648,-180.00,0.00,0.00
C00641=442.643,554.323,5.731,-180.00,0.00,0.00
C00642=437.113,547.812,5.752,-180.00,0.00,0.00
C00643=422.848,516.979,5.834,-180.00,0.00,0.00
C00644=425.139,474.771,5.938,-180.00,0.00,0.00
C00645=432.310,459.272,5.979,-180.00,0.00,0.00
C00646=442.643,445.677,6.021,-180.00,0.00,0.00
C00647=448.860,439.788,6.041,-180.00,0.00,0.00
C00648=455.663,434.617,6.062,-180.00,0.00,0.00
C00649=478.865,423.882,6.124,-180.00,0.00,0.00
C00650=504.278,421.117,6.186,-180.00,0.00,0.00
C00651=512.776,422.042,6.207,-180.00,0.00,0.00
C00652=521.135,423.882,6.228,-180.00,0.00,0.00
C00653=529.238,426.612,6.248,-180.00,0.00,0.00
C00654=557.357,445.677,6.331,-180.00,0.00,0.00
C00655=578.998,500.000,6.476,-180.00,0.00,0.00
C00656=574.861,525.229,6.538,-180.00,0.00,0.00
C00657=571.698,533.168,6.559,-180.00,0.00,0.00
C00658=567.690,540.728,6.579,-180.00,0.00,0.00
C00659=562.887,547.812,6.600,-180.00,0.00,0.00
C00660=551.140,560.212,6.641,-180.00,0.00,0.00
C00661=537.004,569.795,6.683,-180.00,0.00,0.00
C00662=529.238,573.388,6.703,-180.00,0.00,0.00
C00663=521.135,576.118,6.724,-180.00,0.00,0.00
C00664=512.776,577.958,6.745,-180.00,0.00,0.00
C00665=504.278,578.883,6.766,-180.00,0.00,0.00
C00666=470.762,573.388,6.848,-180.00,0.00,0.00
C00667=442.643,554.323,6.931,-180.00,0.00,0.00
C00668=437.113,547.812,6.952,-180.00,0.00,0.00
C00669=422.848,516.979,7.034,-180.00,0.00,0.00
C00670=425.139,474.771,7.138,-180.00,0.00,0.00
C00671=432.310,459.272,7.179,-180.00,0.00,0.00
C00672=442.643,445.677,7.221,-180.00,0.00,0.00
C00673=448.860,439.788,7.241,-180.00,0.00,0.00
C00674=455.663,434.617,7.262,-180.00,0.00,0.00
C00675=478.865,423.882,7.324,-180.00,0.00,0.00
C00676=504.278,421.117,7.386,-180.00,0.00,0.00
C00677=512.776,422.042,7.407,-180.00,0.00,0.00
C00678=521.135,423.882,7.428,-180.00,0.00,0.00
C00679=529.238,426.612,7.448,-180.00,0.00,0.00
C00680=557.357,445.677,7.531,-180.00,0.00,0.00
C00681=578.535,491.456,7.655,-180.00,0.00,0.00
C00682=574.861,525.229,7.738,-180.00,0.00,0.00
C00683=571.698,533.168,7.759,-180.00,0.00,0.00
C00684=567.690,540.728,7.779,-180.00,0.00,0.00
C00685=562.887,547.812,7.800,-180.00,0.00,0.00
C00686=551.140,560.212,7.841,-180.00,0.00,0.00
C00687=537.004,569.795,7.883,-180.00,0.00,0.00
C00688=529.238,573.388,7.903,-180.00,0.00,0.00
C00689=521.135,576.118,7.924,-180.00,0.00,0.00
C00690=512.776,577.958,7.945,-180.00,0.00,0.00
C00691=504.278,578.883,7.966,-180.00,0.00,0.00
C00692=470.762,573.388,8.048,-180.00,0.00,0.00
C00693=442.643,554.323,8.131,-180.00,0.00,0.00
C00694=437.113,547.812,8.152,-180.00,0.00,0.00
C00695=422.848,516.979,8.234,-180.00,0.00,0.00
C00696=425.139,474.771,8.338,-180.00,0.00,0.00
C00697=432.310,459.272,8.379,-180.00,0.00,0.00
C00698=442.643,445.677,8.421,-180.00,0.00,0.00
C00699=448.860,439.788,8.441,-180.00,0.00,0.00
C00700=455.663,434.617,8.462,-180.00,0.00,0.00
C00701=478.865,423.882,8.524,-180.00,0.00,0.00
C00702=504.278,421.117,8.586,-180.00,0.00,0.00
C00703=512.776,422.042,8.607,-180.00,0.00,0.00
C00704=521.135,423.882,8.628,-180.00,0.00,0.00
C00705=529.238,426.612,8.648,-180.00,0.00,0.00
C00706=557.357,445.677,8.731,-180.00,0.00,0.00
C00707=578.535,491.456,8.855,-180.00,0.00,0.00
C00708=574.861,525.229,8.938,-180.00,0.00,0.00
C00709=571.698,533.168,8.959,-180.00,0.00,0.00
C00710=567.690,540.728,8.979,-180.00,0.00,0.00
C00711=562.887,547.812,9.000,-180.00,0.00,0.00
C00712=551.140,560.212,9.041,-180.00,0.00,0.00
C00713=537.004,569.795,9.083,-180.00,0.00,0.00
C00714=529.238,573.388,9.103,-180.00,0.00,0.00
C00715=521.135,576.118,9.124,-180.00,0.00,0.00
C00716=512.776,577.958,9.145,-180.00,0.00,0.00
C00717=504.278,578.883,9.166,-180.00,0.00,0.00
C00718=470.762,573.388,9.248,-180.00,0.00,0.00
C00719=442.643,554.323,9.331,-180.00,0.00,0.00
C00720=437.113,547.812,9.352,-180.00,0.00,0.00
C00721=422.848,516.979,9.434,-180.00,0.00,0.00
C00722=425.139,474.771,9.538,-180.00,0.00,0.00
C00723=432.310,459.272,9.579,-180.00,0.00,0.00
C00724=442.643,445.677,9.621,-180.00,0.00,0.00
C00725=448.860,439.788,9.641,-180.00,0.00,0.00
C00726=455.663,434.617,9.662,-180.00,0.00,0.00
C00727=478.865,423.882,9.724,-180.00,0.00,0.00
C00728=504.278,421.117,9.786,-180.00,0.00,0.00
C00729=512.776,422.042,9.807,-180.00,0.00,0.00
C00730=521.135,423.882,9.828,-180.00,0.00,0.00
C00731=529.238,426.612,9.848,-180.00,0.00,0.00
C00732=557.357,445.677,9.931,-180.00,0.00,0.00
C00733=578.535,491.456,10.055,-180.00,0.00,0.00
C00734=574.861,525.229,10.138,-180.00,0.00,0.00
C00735=571.698,533.168,10.159,-180.00,0.00,0.00
C00736=567.690,540.728,10.179,-180.00,0.00,0.00
C00737=562.887,547.812,10.200,-180.00,0.00,0.00
C00738=551.140,560.212,10.241,-180.00,0.00,0.00
C00739=537.004,569.795,10.283,-180.00,0.00,0.00
C00740=529.238,573.388,10.303,-180.00,0.00,0.00
C00741=521.135,576.118,10.324,-180.00,0.00,0.00
C00742=512.776,577.958,10.345,-180.00,0.00,0.00
C00743=504.278,578.883,10.366,-180.00,0.00,0.00
C00744=470.762,573.388,10.448,-180.00,0.00,0.00
C00745=442.643,554.323,10.531,-180.00,0.00,0.00
C00746=437.113,547.812,10.552,-180.00,0.00,0.00
C00747=422.848,516.979,10.634,-180.00,0.00,0.00
C00748=425.139,474.771,10.738,-180.00,0.00,0.00
C00749=432.310,459.272,10.779,-180.00,0.00,0.00
C00750=442.643,445.677,10.821,-180.00,0.00,0.00
C00751=448.860,439.788,10.841,-180.00,0.00,0.00
C00752=455.663,434.617,10.862,-180.00,0.00,0.00
C00753=478.865,423.882,10.924,-180.00,0.00,0.00
C00754=504.278,421.117,10.986,-180.00,0.00,0.00
C00755=512.776,422.042,11.007,-180.00,0.00,0.00
C00756=521.135,423.882,11.028,-180.00,0.00,0.00
C00757=529.238,426.612,11.048,-180.00,0.00,0.00
C00758=557.357,445.677,11.131,-180.00,0.00,0.00
C00759=578.535,491.456,11.255,-180.00,0.00,0.00
C00760=574.861,525.229,11.338,-180.00,0.00,0.00
C00761=571.698,533.168,11.359,-180.00,0.00,0.00
C00762=567.690,540.728,11.379,-180.00,0.00,0.00
C00763=562.887,547.812,11.400,-180.00,0.00,0.00
C00764=551.140,560.212,11.441,-180.00,0.00,0.00
C00765=537.004,569.795,11.483,-180.00,0.00,0.00
C00766=529.238,573.388,11.503,-180.00,0.00,0.00
C00767=521.135,576.118,11.524,-180.00,0.00,0.00
C00768=512.776,577.958,11.545,-180.00,0.00,0.00
C00769=504.278,578.883,11.566,-180.00,0.00,0.00
C00770=470.762,573.388,11.648,-180.00,0.00,0.00
C00771=442.643,554.323,11.731,-180.00,0.00,0.00
C00772=437.113,547.812,11.752,-180.00,0.00,0.00
C00773=422.848,516.979,11.834,-180.00,0.00,0.00
C00774=425.139,474.771,11.938,-180.00,0.00,0.00
C00775=432.310,459.272,11.979,-180.00,0.00,0.00
C00776=442.643,445.677,12.021,-180.00,0.00,0.00
C00777=448.860,439.788,12.041,-180.00,0.00,0.00
C00778=455.663,434.617,12.062,-180.00,0.00,0.00
C00779=478.865,423.882,12.124,-180.00,0.00,0.00
C00780=504.278,421.117,12.186,-180.00,0.00,0.00
C00781=512.776,422.042,12.207,-180.00,0.00,0.00
C00782=521.135,423.882,12.228,-180.00,0.00,0.00
C00783=529.238,426.612,12.248,-180.00,0.00,0.00
C00784=557.357,445.677,12.331,-180.00,0.00,0.00
C00785=578.535,491.456,12.455,-180.00,0.00,0.00
C00786=574.861,525.229,12.538,-180.00,0.00,0.00
C00787=571.698,533.168,12.559,-180.00,0.00,0.00
C00788=567.690,540.728,12.579,-180.00,0.00,0.00
C00789=562.887,547.812,12.600,-180.00,0.00,0.00
C00790=551.140,560.212,12.641,-180.00,0.00,0.00
C00791=537.004,569.795,12.683,-180.00,0.00,0.00
C00792=529.238,573.388,12.703,-180.00,0.00,0.00
C00793=521.135,576.118,12.724,-180.00,0.00,0.00
C00794=512.776,577.958,12.745,-180.00,0.00,0.00
C00795=504.278,578.883,12.766,-180.00,0.00,0.00
C00796=470.762,573.388,12.848,-180.00,0.00,0.00
C00797=442.643,554.323,12.931,-180.00,0.00,0.00
C00798=437.113,547.812,12.952,-180.00,0.00,0.00
C00799=422.848,516.979,13.034,-180.00,0.00,0.00
C00800=425.139,474.771,13.138,-180.00,0.00,0.00
C00801=432.310,459.272,13.179,-180.00,0.00,0.00
C00802=442.643,445.677,13.221,-180.00,0.00,0.00
C00803=448.860,439.788,13.241,-180.00,0.00,0.00
C00804=455.663,434.617,13.262,-180.00,0.00,0.00
C00805=478.865,423.882,13.324,-180.00,0.00,0.00
C00806=504.278,421.117,13.386,-180.00,0.00,0.00
C00807=512.776,422.042,13.407,-180.00,0.00,0.00
C00808=521.135,423.882,13.428,-180.00,0.00,0.00
C00809=529.238,426.612,13.448,-180.00,0.00,0.00
C00810=557.357,445.677,13.531,-180.00,0.00,0.00
C00811=578.535,491.456,13.655,-180.00,0.00,0.00
C00812=574.861,525.229,13.738,-180.00,0.00,0.00
C00813=571.698,533.168,13.759,-180.00,0.00,0.00
C00814=567.690,540.728,13.779,-180.00,0.00,0.00
C00815=562.887,547.812,13.800,-180.00,0.00,0.00
C00816=551.140,560.212,13.841,-180.00,0.00,0.00
C00817=537.004,569.795,13.883,-180.00,0.00,0.00
C00818=529.238,573.388,13.903,-180.00,0.00,0.00
C00819=521.135,576.118,13.924,-180.00,0.00,0.00
C00820=512.776,577.958,13.945,-180.00,0.00,0.00
C00821=504.278,578.883,13.966,-180.00,0.00,0.00
C00822=470.762,573.388,14.048,-180.00,0.00,0.00
C00823=442.643,554.323,14.131,-180.00,0.00,0.00
C00824=437.113,547.812,14.152,-180.00,0.00,0.00
C00825=422.848,516.979,14.234,-180.00,0.00,0.00
C00826=425.139,474.771,14.338,-180.00,0.00,0.00
C00827=432.310,459.272,14.379,-180.00,0.00,0.00
C00828=442.643,445.677,14.421,-180.00,0.00,0.00
C00829=448.860,439.788,14.441,-180.00,0.00,0.00
C00830=455.663,434.617,14.462,-180.00,0.00,0.00
C00831=478.865,423.882,14.524,-180.00,0.00,0.00
C00832=504.278,421.117,14.586,-180.00,0.00,0.00
C00833=529.238,426.612,14.648,-180.00,0.00,0.00
C00834=551.140,439.788,14.710,-180.00,0.00,0.00
C00835=557.357,445.677,14.731,-180.00,0.00,0.00
C00836=562.887,452.188,14.752,-180.00,0.00,0.00
C00837=567.690,459.272,14.772,-180.00,0.00,0.00
C00838=577.152,483.021,14.834,-180.00,0.00,0.00
C00839=577.152,516.979,14.917,-180.00,0.00,0.00
C00840=574.861,525.229,14.938,-180.00,0.00,0.00
C00841=571.698,533.168,14.959,-180.00,0.00,0.00
C00842=567.690,540.728,14.979,-180.00,0.00,0.00
C00843=562.887,547.812,15.000,-180.00,0.00,0.00
C00844=551.140,560.212,15.041,-180.00,0.00,0.00
C00845=537.004,569.795,15.083,-180.00,0.00,0.00
C00846=529.238,573.388,15.103,-180.00,0.00,0.00
C00847=521.135,576.118,15.124,-180.00,0.00,0.00
C00848=512.776,577.958,15.145,-180.00,0.00,0.00
C00849=504.278,578.883,15.166,-180.00,0.00,0.00
C00850=470.762,573.388,15.248,-180.00,0.00,0.00
C00851=442.643,554.323,15.331,-180.00,0.00,0.00
C00852=437.113,547.812,15.352,-180.00,0.00,0.00
C00853=422.848,516.979,15.434,-180.00,0.00,0.00
C00854=425.139,474.771,15.538,-180.00,0.00,0.00
C00855=432.310,459.272,15.579,-180.00,0.00,0.00
C00856=442.643,445.677,15.621,-180.00,0.00,0.00
C00857=448.860,439.788,15.641,-180.00,0.00,0.00
C00858=455.663,434.617,15.662,-180.00,0.00,0.00
C00859=478.865,423.882,15.724,-180.00,0.00,0.00
C00860=504.278,421.117,15.786,-180.00,0.00,0.00
C00861=512.776,422.042,15.807,-180.00,0.00,0.00
C00862=521.135,423.882,15.828,-180.00,0.00,0.00
C00863=529.238,426.612,15.848,-180.00,0.00,0.00
C00864=557.357,445.677,15.931,-180.00,0.00,0.00
C00865=578.535,491.456,16.055,-180.00,0.00,0.00
C00866=574.861,525.229,16.138,-180.00,0.00,0.00
C00867=571.698,533.168,16.159,-180.00,0.00,0.00
C00868=567.690,540.728,16.179,-180.00,0.00,0.00
C00869=562.887,547.812,16.200,-180.00,0.00,0.00
C00870=551.140,560.212,16.241,-180.00,0.00,0.00
C00871=537.004,569.795,16.283,-180.00,0.00,0.00
C00872=529.238,573.388,16.303,-180.00,0.00,0.00
C00873=521.135,576.118,16.324,-180.00,0.00,0.00
C00874=512.776,577.958,16.345,-180.00,0.00,0.00
C00875=504.278,578.883,16.366,-180.00,0.00,0.00
C00876=470.762,573.388,16.448,-180.00,0.00,0.00
C00877=442.643,554.323,16.531,-180.00,0.00,0.00
C00878=437.113,547.812,16.552,-180.00,0.00,0.00
C00879=422.848,516.979,16.634,-180.00,0.00,0.00
C00880=425.139,474.771,16.738,-180.00,0.00,0.00
C00881=432.310,459.272,16.779,-180.00,0.00,0.00
C00882=442.643,445.677,16.821,-180.00,0.00,0.00
C00883=448.860,439.788,16.841,-180.00,0.00,0.00
C00884=455.663,434.617,16.862,-180.00,0.00,0.00
C00885=478.865,423.882,16.924,-180.00,0.00,0.00
C00886=504.278,421.117,16.986,-180.00,0.00,0.00
C00887=512.776,422.042,17.007,-180.00,0.00,0.00
C00888=521.135,423.882,17.028,-180.00,0.00,0.00
C00889=529.238,426.612,17.048,-180.00,0.00,0.00
C00890=557.357,445.677,17.131,-180.00,0.00,0.00
C00891=578.535,491.456,17.255,-180.00,0.00,0.00
C00892=574.861,525.229,17.338,-180.00,0.00,0.00
C00893=571.698,533.168,17.359,-180.00,0.00,0.00
C00894=567.690,540.728,17.379,-180.00,0.00,0.00
C00895=562.887,547.812,17.400,-180.00,0.00,0.00
C00896=551.140,560.212,17.441,-180.00,0.00,0.00
C00897=537.004,569.795,17.483,-180.00,0.00,0.00
C00898=529.238,573.388,17.503,-180.00,0.00,0.00
C00899=521.135,576.118,17.524,-180.00,0.00,0.00
C00900=512.776,577.958,17.545,-180.00,0.00,0.00
C00901=504.278,578.883,17.566,-180.00,0.00,0.00
C00902=470.762,573.388,17.648,-180.00,0.00,0.00
C00903=442.643,554.323,17.731,-180.00,0.00,0.00
C00904=437.113,547.812,17.752,-180.00,0.00,0.00
C00905=422.848,516.979,17.834,-180.00,0.00,0.00
C00906=425.139,474.771,17.938,-180.00,0.00,0.00
C00907=432.310,459.272,17.979,-180.00,0.00,0.00
C00908=442.643,445.677,18.021,-180.00,0.00,0.00
C00909=448.860,439.788,18.041,-180.00,0.00,0.00
C00910=455.663,434.617,18.062,-180.00,0.00,0.00
C00911=478.865,423.882,18.124,-180.00,0.00,0.00
C00912=504.278,421.117,18.186,-180.00,0.00,0.00
C00913=512.776,422.042,18.207,-180.00,0.00,0.00
C00914=521.135,423.882,18.228,-180.00,0.00,0.00
C00915=529.238,426.612,18.248,-180.00,0.00,0.00
C00916=557.357,445.677,18.331,-180.00,0.00,0.00
C00917=578.535,491.456,18.455,-180.00,0.00,0.00
C00918=574.861,525.229,18.538,-180.00,0.00,0.00
C00919=571.698,533.168,18.559,-180.00,0.00,0.00
C00920=567.690,540.728,18.579,-180.00,0.00,0.00
C00921=562.887,547.812,18.600,-180.00,0.00,0.00
C00922=551.140,560.212,18.641,-180.00,0.00,0.00
C00923=537.004,569.795,18.683,-180.00,0.00,0.00
C00924=529.238,573.388,18.703,-180.00,0.00,0.00
C00925=521.135,576.118,18.724,-180.00,0.00,0.00
C00926=512.776,577.958,18.745,-180.00,0.00,0.00
C00927=504.278,578.883,18.766,-180.00,0.00,0.00
C00928=470.762,573.388,18.848,-180.00,0.00,0.00
C00929=442.643,554.323,18.931,-180.00,0.00,0.00
C00930=437.113,547.812,18.952,-180.00,0.00,0.00
C00931=422.848,516.979,19.034,-180.00,0.00,0.00
C00932=425.139,474.771,19.138,-180.00,0.00,0.00
C00933=432.310,459.272,19.179,-180.00,0.00,0.00
C00934=442.643,445.677,19.221,-180.00,0.00,0.00
C00935=448.860,439.788,19.241,-180.00,0.00,0.00
C00936=455.663,434.617,19.262,-180.00,0.00,0.00
C00937=478.865,423.882,19.324,-180.00,0.00,0.00
C00938=504.278,421.117,19.386,-180.00,0.00,0.00
C00939=512.776,422.042,19.407,-180.00,0.00,0.00
C00940=521.135,423.882,19.428,-180.00,0.00,0.00
C00941=529.238,426.612,19.448,-180.00,0.00,0.00
C00942=557.357,445.677,19.531,-180.00,0.00,0.00
C00943=578.535,491.456,19.655,-180.00,0.00,0.00
C00944=574.861,525.229,19.738,-180.00,0.00,0.00
C00945=571.698,533.168,19.759,-180.00,0.00,0.00
C00946=567.690,540.728,19.779,-180.00,0.00,0.00
C00947=562.887,547.812,19.800,-180.00,0.00,0.00
C00948=551.140,560.212,19.841,-180.00,0.00,0.00
C00949=537.004,569.795,19.883,-180.00,0.00,0.00
C00950=529.238,573.388,19.903,-180.00,0.00,0.00
C00951=521.135,576.118,19.924,-180.00,0.00,0.00
C00952=512.776,577.958,19.945,-180.00,0.00,0.00
C00953=504.278,578.883,19.966,-180.00,0.00,0.00
C00954=470.762,573.388,20.048,-180.00,0.00,0.00
C00955=442.643,554.323,20.131,-180.00,0.00,0.00
C00956=437.113,547.812,20.152,-180.00,0.00,0.00
C00957=422.848,516.979,20.234,-180.00,0.00,0.00
C00958=425.139,474.771,20.338,-180.00,0.00,0.00
C00959=432.310,459.272,20.379,-180.00,0.00,0.00
C00960=442.643,445.677,20.421,-180.00,0.00,0.00
C00961=448.860,439.788,20.441,-180.00,0.00,0.00
C00962=455.663,434.617,20.462,-180.00,0.00,0.00
C00963=478.865,423.882,20.524,-180.00,0.00,0.00
C00964=504.278,421.117,20.586,-180.00,0.00,0.00
C00965=512.776,422.042,20.607,-180.00,0.00,0.00
C00966=521.135,423.882,20.628,-180.00,0.00,0.00
C00967=529.238,426.612,20.648,-180.00,0.00,0.00
C00968=557.357,445.677,20.731,-180.00,0.00,0.00
C00969=578.535,491.456,20.855,-180.00,0.00,0.00
C00970=574.861,525.229,20.938,-180.00,0.00,0.00
C00971=571.698,533.168,20.959,-180.00,0.00,0.00
C00972=567.690,540.728,20.979,-180.00,0.00,0.00
C00973=562.887,547.812,21.000,-180.00,0.00,0.00
C00974=551.140,560.212,21.041,-180.00,0.00,0.00
C00975=537.004,569.795,21.083,-180.00,0.00,0.00
C00976=529.238,573.388,21.103,-180.00,0.00,0.00
C00977=521.135,576.118,21.124,-180.00,0.00,0.00
C00978=512.776,577.958,21.145,-180.00,0.00,0.00
C00979=504.278,578.883,21.166,-180.00,0.00,0.00
C00980=470.762,573.388,21.248,-180.00,0.00,0.00
C00981=442.643,554.323,21.331,-180.00,0.00,0.00
C00982=437.113,547.812,21.352,-180.00,0.00,0.00
C00983=422.848,516.979,21.434,-180.00,0.00,0.00
C00984=425.139,474.771,21.538,-180.00,0.00,0.00
C00985=432.310,459.272,21.579,-180.00,0.00,0.00
C00986=442.643,445.677,21.621,-180.00,0.00,0.00
C00987=448.860,439.788,21.641,-180.00,0.00,0.00
C00988=455.663,434.617,21.662,-180.00,0.00,0.00
C00989=478.865,423.882,21.724,-180.00,0.00,0.00
C00990=504.278,421.117,21.786,-180.00,0.00,0.00
C00991=512.776,422.042,21.807,-180.00,0.00,0.00
C00992=521.135,423.882,21.828,-180.00,0.00,0.00
C00993=529.238,426.612,21.848,-180.00,0.00,0.00
C00994=557.357,445.677,21.931,-180.00,0.00,0.00
C00995=578.535,491.456,22.055,-180.00,0.00,0.00
C00996=574.861,525.229,22.138,-180.00,0.00,0.00
C00997=571.698,533.168,22.159,-180.00,0.00,0.00
C00998=567.690,540.728,22.179,-180.00,0.00,0.00
C00999=562.887,547.812,22.200,-180.00,0.00,0.00
C01000=551.140,560.212,22.241,-180.00,0.00,0.00
C01001=537.004,569.795,22.283,-180.00,0.00,0.00
C01002=529.238,573.388,22.303,-180.00,0.00,0.00
C01003=521.135,576.118,22.324,-180.00,0.00,0.00
C01004=512.776,577.958,22.345,-180.00,0.00,0.00
C01005=504.278,578.883,22.366,-180.00,0.00,0.00
C01006=470.762,573.388,22.448,-180.00,0.00,0.00
C01007=442.643,554.323,22.531,-180.00,0.00,0.00
C01008=437.113,547.812,22.552,-180.00,0.00,0.00
C01009=422.848,516.979,22.634,-180.00,0.00,0.00
C01010=425.139,474.771,22.738,-180.00,0.00,0.00
C01011=432.310,459.272,22.779,-180.00,0.00,0.00
C01012=442.643,445.677,22.821,-180.00,0.00,0.00
C01013=448.860,439.788,22.841,-180.00,0.00,0.00
C01014=455.663,434.617,22.862,-180.00,0.00,0.00
C01015=478.865,423.882,22.924,-180.00,0.00,0.00
C01016=504.278,421.117,22.986,-180.00,0.00,0.00
C01017=512.776,422.042,23.007,-180.00,0.00,0.00
C01018=521.135,423.882,23.028,-180.00,0.00,0.00
C01019=529.238,426.612,23.048,-180.00,0.00,0.00
C01020=537.004,430.205,23.069,-180.00,0.00,0.00
C01021=544.337,434.617,23.090,-180.00,0.00,0.00
C01022=551.140,439.788,23.110,-180.00,0.00,0.00
C01023=571.698,466.832,23.193,-180.00,0.00,0.00
C01024=577.152,516.979,23.317,-180.00,0.00,0.00
C01025=574.861,525.229,23.338,-180.00,0.00,0.00
C01026=571.698,533.168,23.359,-180.00,0.00,0.00
C01027=567.690,540.728,23.379,-180.00,0.00,0.00
C01028=562.887,547.812,23.400,-180.00,0.00,0.00
C01029=551.140,560.212,23.441,-180.00,0.00,0.00
C01030=537.004,569.795,23.483,-180.00,0.00,0.00
C01031=529.238,573.388,23.503,-180.00,0.00,0.00
C01032=521.135,576.118,23.524,-180.00,0.00,0.00
C01033=512.776,577.958,23.545,-180.00,0.00,0.00
C01034=504.278,578.883,23.566,-180.00,0.00,0.00
C01035=470.762,573.388,23.648,-180.00,0.00,0.00
C01036=442.643,554.323,23.731,-180.00,0.00,0.00
C01037=437.113,547.812,23.752,-180.00,0.00,0.00
C01038=422.848,516.979,23.834,-180.00,0.00,0.00
C01039=425.139,474.771,23.938,-180.00,0.00,0.00
C01040=432.310,459.272,23.979,-180.00,0.00,0.00
C01041=442.643,445.677,24.021,-180.00,0.00,0.00
C01042=448.860,439.788,24.041,-180.00,0.00,0.00
C01043=455.663,434.617,24.062,-180.00,0.00,0.00
C01044=478.865,423.882,24.124,-180.00,0.00,0.00
C01045=504.278,421.117,24.186,-180.00,0.00,0.00
C01046=512.776,422.042,24.207,-180.00,0.00,0.00
C01047=521.135,423.882,24.228,-180.00,0.00,0.00
C01048=529.238,426.612,24.248,-180.00,0.00,0.00
C01049=557.357,445.677,24.331,-180.00,0.00,0.00
C01050=578.535,491.456,24.455,-180.00,0.00,0.00
C01051=574.861,525.229,24.538,-180.00,0.00,0.00
C01052=571.698,533.168,24.559,-180.00,0.00,0.00
C01053=567.690,540.728,24.579,-180.00,0.00,0.00
C01054=562.887,547.812,24.600,-180.00,0.00,0.00
C01055=551.140,560.212,24.641,-180.00,0.00,0.00
C01056=537.004,569.795,24.683,-180.00,0.00,0.00
C01057=529.238,573.388,24.703,-180.00,0.00,0.00
C01058=521.135,576.118,24.724,-180.00,0.00,0.00
C01059=512.776,577.958,24.745,-180.00,0.00,0.00
C01060=504.278,578.883,24.766,-180.00,0.00,0.00
C01061=470.762,573.388,24.848,-180.00,0.00,0.00
C01062=442.643,554.323,24.931,-180.00,0.00,0.00
C01063=437.113,547.812,24.952,-180.00,0.00,0.00
C01064=422.848,516.979,25.034,-180.00,0.00,0.00
C01065=425.139,474.771,25.138,-180.00,0.00,0.00
C01066=432.310,459.272,25.179,-180.00,0.00,0.00
C01067=442.643,445.677,25.221,-180.00,0.00,0.00
C01068=448.860,439.788,25.241,-180.00,0.00,0.00
C01069=455.663,434.617,25.262,-180.00,0.00,0.00
C01070=478.865,423.882,25.324,-180.00,0.00,0.00
C01071=504.278,421.117,25.386,-180.00,0.00,0.00
C01072=512.776,422.042,25.407,-180.00,0.00,0.00
C01073=521.135,423.882,25.428,-180.00,0.00,0.00
C01074=529.238,426.612,25.448,-180.00,0.00,0.00
C01075=557.357,445.677,25.531,-180.00,0.00,0.00
C01076=578.535,491.456,25.655,-180.00,0.00,0.00
C01077=574.861,525.229,25.738,-180.00,0.00,0.00
C01078=571.698,533.168,25.759,-180.00,0.00,0.00
C01079=567.690,540.728,25.779,-180.00,0.00,0.00
C01080=562.887,547.812,25.800,-180.00,0.00,0.00
C01081=551.140,560.212,25.841,-180.00,0.00,0.00
C01082=537.004,569.795,25.883,-180.00,0.00,0.00
C01083=529.238,573.388,25.903,-180.00,0.00,0.00
C01084=521.135,576.118,25.924,-180.00,0.00,0.00
C01085=512.776,577.958,25.945,-180.00,0.00,0.00
C01086=504.278,578.883,25.966,-180.00,0.00,0.00
C01087=470.762,573.388,26.048,-180.00,0.00,0.00
C01088=442.643,554.323,26.131,-180.00,0.00,0.00
C01089=437.113,547.812,26.152,-180.00,0.00,0.00
C01090=422.848,516.979,26.234,-180.00,0.00,0.00
C01091=425.139,474.771,26.338,-180.00,0.00,0.00
C01092=432.310,459.272,26.379,-180.00,0.00,0.00
C01093=442.643,445.677,26.421,-180.00,0.00,0.00
C01094=448.860,439.788,26.441,-180.00,0.00,0.00
C01095=455.663,434.617,26.462,-180.00,0.00,0.00
C01096=478.865,423.882,26.524,-180.00,0.00,0.00
C01097=504.278,421.117,26.586,-180.00,0.00,0.00
C01098=512.776,422.042,26.607,-180.00,0.00,0.00
C01099=521.135,423.882,26.628,-180.00,0.00,0.00
C01100=529.238,426.612,26.648,-180.00,0.00,0.00
C01101=557.357,445.677,26.731,-180.00,0.00,0.00
C01102=578.535,491.456,26.855,-180.00,0.00,0.00
C01103=574.861,525.229,26.938,-180.00,0.00,0.00
C01104=571.698,533.168,26.959,-180.00,0.00,0.00
C01105=567.690,540.728,26.979,-180.00,0.00,0.00
C01106=562.887,547.812,27.000,-180.00,0.00,0.00
C01107=551.140,560.212,27.041,-180.00,0.00,0.00
C01108=537.004,569.795,27.083,-180.00,0.00,0.00
C01109=529.238,573.388,27.103,-180.00,0.00,0.00
C01110=521.135,576.118,27.124,-180.00,0.00,0.00
C01111=512.776,577.958,27.145,-180.00,0.00,0.00
C01112=504.278,578.883,27.166,-180.00,0.00,0.00
C01113=470.762,573.388,27.248,-180.00,0.00,0.00
C01114=442.643,554.323,27.331,-180.00,0.00,0.00
C01115=437.113,547.812,27.352,-180.00,0.00,0.00
C01116=422.848,516.979,27.434,-180.00,0.00,0.00
C01117=425.139,474.771,27.538,-180.00,0.00,0.00
C01118=432.310,459.272,27.579,-180.00,0.00,0.00
C01119=442.643,445.677,27.621,-180.00,0.00,0.00
C01120=448.860,439.788,27.641,-180.00,0.00,0.00
C01121=455.663,434.617,27.662,-180.00,0.00,0.00
C01122=478.865,423.882,27.724,-180.00,0.00,0.00
C01123=504.278,421.117,27.786,-180.00,0.00,0.00
C01124=512.776,422.042,27.807,-180.00,0.00,0.00
C01125=521.135,423.882,27.828,-180.00,0.00,0.00
C01126=529.238,426.612,27.848,-180.00,0.00,0.00
C01127=557.357,445.677,27.931,-180.00,0.00,0.00
C01128=578.535,491.456,28.055,-180.00,0.00,0.00
C01129=574.861,525.229,28.138,-180.00,0.00,0.00
C01130=571.698,533.168,28.159,-180.00,0.00,0.00
C01131=567.690,540.728,28.179,-180.00,0.00,0.00
C01132=562.887,547.812,28.200,-180.00,0.00,0.00
C01133=551.140,560.212,28.241,-180.00,0.00,0.00
C01134=537.004,569.795,28.283,-180.00,0.00,0.00
C01135=529.238,573.388,28.303,-180.00,0.00,0.00
C01136=521.135,576.118,28.324,-180.00,0.00,0.00
C01137=512.776,577.958,28.345,-180.00,0.00,0.00
C01138=504.278,578.883,28.366,-180.00,0.00,0.00
C01139=470.762,573.388,28.448,-180.00,0.00,0.00
C01140=442.643,554.323,28.531,-180.00,0.00,0.00
C01141=437.113,547.812,28.552,-180.00,0.00,0.00
C01142=422.848,516.979,28.634,-180.00,0.00,0.00
C01143=425.139,474.771,28.738,-180.00,0.00,0.00
C01144=432.310,459.272,28.779,-180.00,0.00,0.00
C01145=442.643,445.677,28.821,-180.00,0.00,0.00
C01146=448.860,439.788,28.841,-180.00,0.00,0.00
C01147=455.663,434.617,28.862,-180.00,0.00,0.00
C01148=478.865,423.882,28.924,-180.00,0.00,0.00
C01149=504.278,421.117,28.986,-180.00,0.00,0.00
C01150=512.776,422.042,29.007,-180.00,0.00,0.00
C01151=521.135,423.882,29.028,-180.00,0.00,0.00
C01152=529.238,426.612,29.048,-180.00,0.00,0.00
C01153=557.357,445.677,29.131,-180.00,0.00,0.00
C01154=578.535,491.456,29.255,-180.00,0.00,0.00
C01155=574.861,525.229,29.338,-180.00,0.00,0.00
C01156=571.698,533.168,29.359,-180.00,0.00,0.00
C01157=567.690,540.728,29.379,-180.00,0.00,0.00
C01158=562.887,547.812,29.400,-180.00,0.00,0.00
C01159=551.140,560.212,29.441,-180.00,0.00,0.00
C01160=537.004,569.795,29.483,-180.00,0.00,0.00
C01161=529.238,573.388,29.503,-180.00,0.00,0.00
C01162=521.135,576.118,29.524,-180.00,0.00,0.00
C01163=512.776,577.958,29.545,-180.00,0.00,0.00
C01164=504.278,578.883,29.566,-180.00,0.00,0.00
C01165=470.762,573.388,29.648,-180.00,0.00,0.00
C01166=442.643,554.323,29.731,-180.00,0.00,0.00
C01167=437.113,547.812,29.752,-180.00,0.00,0.00
C01168=422.848,516.979,29.834,-180.00,0.00,0.00
C01169=425.139,474.771,29.938,-180.00,0.00,0.00
C01170=432.310,459.272,29.979,-180.00,0.00,0.00
C01171=442.643,445.677,30.021,-180.00,0.00,0.00
C01172=448.860,439.788,30.041,-180.00,0.00,0.00
C01173=455.663,434.617,30.062,-180.00,0.00,0.00
C01174=478.865,423.882,30.124,-180.00,0.00,0.00
C01175=504.278,421.117,30.186,-180.00,0.00,0.00
C01176=512.776,422.042,30.207,-180.00,0.00,0.00
C01177=521.135,423.882,30.228,-180.00,0.00,0.00
C01178=529.238,426.612,30.248,-180.00,0.00,0.00
C01179=557.357,445.677,30.331,-180.00,0.00,0.00
C01180=578.535,491.456,30.455,-180.00,0.00,0.00
C01181=574.861,525.229,30.538,-180.00,0.00,0.00
C01182=571.698,533.168,30.559,-180.00,0.00,0.00
C01183=567.690,540.728,30.579,-180.00,0.00,0.00
C01184=562.887,547.812,30.600,-180.00,0.00,0.00
C01185=551.140,560.212,30.641,-180.00,0.00,0.00
C01186=537.004,569.795,30.683,-180.00,0.00,0.00
C01187=529.238,573.388,30.703,-180.00,0.00,0.00
C01188=521.135,576.118,30.724,-180.00,0.00,0.00
C01189=512.776,577.958,30.745,-180.00,0.00,0.00
C01190=504.278,578.883,30.766,-180.00,0.00,0.00
C01191=470.762,573.388,30.848,-180.00,0.00,0.00
C01192=442.643,554.323,30.931,-180.00,0.00,0.00
C01193=437.113,547.812,30.952,-180.00,0.00,0.00
C01194=422.848,516.979,31.034,-180.00,0.00,0.00
C01195=425.139,474.771,31.138,-180.00,0.00,0.00
C01196=432.310,459.272,31.179,-180.00,0.00,0.00
C01197=442.643,445.677,31.221,-180.00,0.00,0.00
C01198=448.860,439.788,31.241,-180.00,0.00,0.00
C01199=455.663,434.617,31.262,-180.00,0.00,0.00
C01200=478.865,423.882,31.324,-180.00,0.00,0.00
C01201=504.278,421.117,31.386,-180.00,0.00,0.00
C01202=512.776,422.042,31.407,-180.00,0.00,0.00
C01203=521.135,423.882,31.428,-180.00,0.00,0.00
C01204=529.238,426.612,31.448,-180.00,0.00,0.00
C01205=557.357,445.677,31.531,-180.00,0.00,0.00
C01206=578.535,491.456,31.655,-180.00,0.00,0.00
C01207=574.861,525.229,31.738,-180.00,0.00,0.00
C01208=571.698,533.168,31.759,-180.00,0.00,0.00
C01209=567.690,540.728,31.779,-180.00,0.00,0.00
C01210=562.887,547.812,31.800,-180.00,0.00,0.00
C01211=551.140,560.212,31.841,-180.00,0.00,0.00
C01212=537.004,569.795,31.883,-180.00,0.00,0.00
C01213=529.238,573.388,31.903,-180.00,0.00,0.00
C01214=521.135,576.118,31.924,-180.00,0.00,0.00
C01215=512.776,577.958,31.945,-180.00,0.00,0.00
C01216=504.278,578.883,31.966,-180.00,0.00,0.00
C01217=470.762,573.388,32.048,-180.00,0.00,0.00
C01218=442.643,554.323,32.131,-180.00,0.00,0.00
C01219=437.113,547.812,32.152,-180.00,0.00,0.00
C01220=422.848,516.979,32.234,-180.00,0.00,0.00
C01221=425.139,474.771,32.338,-180.00,0.00,0.00
C01222=432.310,459.272,32.379,-180.00,0.00,0.00
C01223=442.643,445.677,32.421,-180.00,0.00,0.00
C01224=448.860,439.788,32.441,-180.00,0.00,0.00
C01225=455.663,434.617,32.462,-180.00,0.00,0.00
C01226=478.865,423.882,32.524,-180.00,0.00,0.00
C01227=504.278,421.117,32.586,-180.00,0.00,0.00
C01228=512.776,422.042,32.607,-180.00,0.00,0.00
C01229=521.135,423.882,32.628,-180.00,0.00,0.00
C01230=529.238,426.612,32.648,-180.00,0.00,0.00
C01231=557.357,445.677,32.731,-180.00,0.00,0.00
C01232=578.535,491.456,32.855,-180.00,0.00,0.00
C01233=574.861,525.229,32.938,-180.00,0.00,0.00
C01234=571.698,533.168,32.959,-180.00,0.00,0.00
C01235=567.690,540.728,32.979,-180.00,0.00,0.00
C01236=562.887,547.812,33.000,-180.00,0.00,0.00
C01237=551.140,560.212,33.041,-180.00,0.00,0.00
C01238=537.004,569.795,33.083,-180.00,0.00,0.00
C01239=529.238,573.388,33.103,-180.00,0.00,0.00
C01240=521.135,576.118,33.124,-180.00,0.00,0.00
C01241=512.776,577.958,33.145,-180.00,0.00,0.00
C01242=504.278,578.883,33.166,-180.00,0.00,0.00
C01243=470.762,573.388,33.248,-180.00,0.00,0.00
C01244=442.643,554.323,33.331,-180.00,0.00,0.00
C01245=437.113,547.812,33.352,-180.00,0.00,0.00
C01246=422.848,516.979,33.434,-180.00,0.00,0.00
C01247=425.139,474.771,33.538,-180.00,0.00,0.00
C01248=432.310,459.272,33.579,-180.00,0.00,0.00
C01249=442.643,445.677,33.621,-180.00,0.00,0.00
C01250=448.860,439.788,33.641,-180.00,0.00,0.00
C01251=455.663,434.617,33.662,-180.00,0.00,0.00
C01252=478.865,423.882,33.724,-180.00,0.00,0.00
C01253=504.278,421.117,33.786,-180.00,0.00,0.00
C01254=512.776,422.042,33.807,-180.00,0.00,0.00
C01255=521.135,423.882,33.828,-180.00,0.00,0.00
C01256=529.238,426.612,33.848,-180.00,0.00,0.00
C01257=557.357,445.677,33.931,-180.00,0.00,0.00
C01258=578.535,491.456,34.055,-180.00,0.00,0.00
C01259=574.861,525.229,34.138,-180.00,0.00,0.00
C01260=571.698,533.168,34.159,-180.00,0.00,0.00
C01261=567.690,540.728,34.179,-180.00,0.00,0.00
C01262=562.887,547.812,34.200,-180.00,0.00,0.00
C01263=551.140,560.212,34.241,-180.00,0.00,0.00
C01264=537.004,569.795,34.283,-180.00,0.00,0.00
C01265=529.238,573.388,34.303,-180.00,0.00,0.00
C01266=521.135,576.118,34.324,-180.00,0.00,0.00
C01267=512.776,577.958,34.345,-180.00,0.00,0.00
C01268=504.278,578.883,34.366,-180.00,0.00,0.00
C01269=470.762,573.388,34.448,-180.00,0.00,0.00
C01270=442.643,554.323,34.531,-180.00,0.00,0.00
C01271=437.113,547.812,34.552,-180.00,0.00,0.00
C01272=422.848,516.979,34.634,-180.00,0.00,0.00
C01273=425.139,474.771,34.738,-180.00,0.00,0.00
C01274=432.310,459.272,34.779,-180.00,0.00,0.00
C01275=442.643,445.677,34.821,-180.00,0.00,0.00
C01276=448.860,439.788,34.841,-180.00,0.00,0.00
C01277=455.663,434.617,34.862,-180.00,0.00,0.00
C01278=478.865,423.882,34.924,-180.00,0.00,0.00
C01279=504.278,421.117,34.986,-180.00,0.00,0.00
C01280=512.776,422.042,35.007,-180.00,0.00,0.00
C01281=521.135,423.882,35.028,-180.00,0.00,0.00
C01282=529.238,426.612,35.048,-180.00,0.00,0.00
C01283=557.357,445.677,35.131,-180.00,0.00,0.00
C01284=578.535,491.456,35.255,-180.00,0.00,0.00
C01285=574.861,525.229,35.338,-180.00,0.00,0.00
C01286=571.698,533.168,35.359,-180.00,0.00,0.00
C01287=567.690,540.728,35.379,-180.00,0.00,0.00
C01288=562.887,547.812,35.400,-180.00,0.00,0.00
C01289=551.140,560.212,35.441,-180.00,0.00,0.00
C01290=537.004,569.795,35.483,-180.00,0.00,0.00
C01291=529.238,573.388,35.503,-180.00,0.00,0.00
C01292=521.135,576.118,35.524,-180.00,0.00,0.00
C01293=512.776,577.958,35.545,-180.00,0.00,0.00
C01294=504.278,578.883,35.566,-180.00,0.00,0.00
C01295=470.762,573.388,35.648,-180.00,0.00,0.00
C01296=442.643,554.323,35.731,-180.00,0.00,0.00
C01297=437.113,547.812,35.752,-180.00,0.00,0.00
C01298=422.848,516.979,35.834,-180.00,0.00,0.00
C01299=425.139,474.771,35.938,-180.00,0.00,0.00
C01300=432.310,459.272,35.979,-180.00,0.00,0.00
C01301=442.643,445.677,36.021,-180.00,0.00,0.00
C01302=448.860,439.788,36.041,-180.00,0.00,0.00
C01303=455.663,434.617,36.062,-180.00,0.00,0.00
C01304=478.865,423.882,36.124,-180.00,0.00,0.00
C01305=504.278,421.117,36.186,-180.00,0.00,0.00
C01306=512.776,422.042,36.207,-180.00,0.00,0.00
C01307=521.135,423.882,36.228,-180.00,0.00,0.00
C01308=529.238,426.612,36.248,-180.00,0.00,0.00
C01309=557.357,445.677,36.331,-180.00,0.00,0.00
C01310=578.535,491.456,36.455,-180.00,0.00,0.00
C01311=574.861,525.229,36.538,-180.00,0.00,0.00
C01312=571.698,533.168,36.559,-180.00,0.00,0.00
C01313=567.690,540.728,36.579,-180.00,0.00,0.00
C01314=562.887,547.812,36.600,-180.00,0.00,0.00
C01315=551.140,560.212,36.641,-180.00,0.00,0.00
C01316=537.004,569.795,36.683,-180.00,0.00,0.00
C01317=529.238,573.388,36.703,-180.00,0.00,0.00
C01318=521.135,576.118,36.724,-180.00,0.00,0.00
C01319=512.776,577.958,36.745,-180.00,0.00,0.00
C01320=504.278,578.883,36.766,-180.00,0.00,0.00
C01321=470.762,573.388,36.848,-180.00,0.00,0.00
C01322=442.643,554.323,36.931,-180.00,0.00,0.00
C01323=437.113,547.812,36.952,-180.00,0.00,0.00
C01324=422.848,516.979,37.034,-180.00,0.00,0.00
C01325=425.139,474.771,37.138,-180.00,0.00,0.00
C01326=432.310,459.272,37.179,-180.00,0.00,0.00
C01327=442.643,445.677,37.221,-180.00,0.00,0.00
C01328=448.860,439.788,37.241,-180.00,0.00,0.00
C01329=455.663,434.617,37.262,-180.00,0.00,0.00
C01330=478.865,423.882,37.324,-180.00,0.00,0.00
C01331=504.278,421.117,37.386,-180.00,0.00,0.00
C01332=512.776,422.042,37.407,-180.00,0.00,0.00
C01333=521.135,423.882,37.428,-180.00,0.00,0.00
C01334=529.238,426.612,37.448,-180.00,0.00,0.00
C01335=557.357,445.677,37.531,-180.00,0.00,0.00
C01336=578.535,491.456,37.655,-180.00,0.00,0.00
C01337=574.861,525.229,37.738,-180.00,0.00,0.00
C01338=571.698,533.168,37.759,-180.00,0.00,0.00
C01339=567.690,540.728,37.779,-180.00,0.00,0.00
C01340=562.887,547.812,37.800,-180.00,0.00,0.00
C01341=551.140,560.212,37.841,-180.00,0.00,0.00
C01342=537.004,569.795,37.883,-180.00,0.00,0.00
C01343=529.238,573.388,37.903,-180.00,0.00,0.00
C01344=521.135,576.118,37.924,-180.00,0.00,0.00
C01345=512.776,577.958,37.945,-180.00,0.00,0.00
C01346=504.278,578.883,37.966,-180.00,0.00,0.00
C01347=470.762,573.388,38.048,-180.00,0.00,0.00
C01348=442.643,554.323,38.131,-180.00,0.00,0.00
C01349=437.113,547.812,38.152,-180.00,0.00,0.00
C01350=422.848,516.979,38.234,-180.00,0.00,0.00
C01351=425.139,474.771,38.338,-180.00,0.00,0.00
C01352=432.310,459.272,38.379,-180.00,0.00,0.00
C01353=442.643,445.677,38.421,-180.00,0.00,0.00
C01354=448.860,439.788,38.441,-180.00,0.00,0.00
C01355=455.663,434.617,38.462,-180.00,0.00,0.00
C01356=478.865,423.882,38.524,-180.00,0.00,0.00
C01357=504.278,421.117,38.586,-180.00,0.00,0.00
C01358=512.776,422.042,38.607,-180.00,0.00,0.00
C01359=521.135,423.882,38.628,-180.00,0.00,0.00
C01360=529.238,426.612,38.648,-180.00,0.00,0.00
C01361=557.357,445.677,38.731,-180.00,0.00,0.00
C01362=578.535,491.456,38.855,-180.00,0.00,0.00
C01363=574.861,525.229,38.938,-180.00,0.00,0.00
C01364=571.698,533.168,38.959,-180.00,0.00,0.00
C01365=567.690,540.728,38.979,-180.00,0.00,0.00
C01366=562.887,547.812,39.000,-180.00,0.00,0.00
C01367=551.140,560.212,39.041,-180.00,0.00,0.00
C01368=537.004,569.795,39.083,-180.00,0.00,0.00
C01369=529.238,573.388,39.103,-180.00,0.00,0.00
C01370=521.135,576.118,39.124,-180.00,0.00,0.00
C01371=512.776,577.958,39.145,-180.00,0.00,0.00
C01372=504.278,578.883,39.166,-180.00,0.00,0.00
C01373=470.762,573.388,39.248,-180.00,0.00,0.00
C01374=442.643,554.323,39.331,-180.00,0.00,0.00
C01375=437.113,547.812,39.352,-180.00,0.00,0.00
C01376=422.848,516.979,39.434,-180.00,0.00,0.00
C01377=425.139,474.771,39.538,-180.00,0.00,0.00
C01378=428.302,466.832,39.559,-180.00,0.00,0.00
C01379=432.310,459.272,39.579,-180.00,0.00,0.00
C01380=437.113,452.188,39.600,-180.00,0.00,0.00
C01381=448.860,439.788,39.623,-180.00,0.00,0.00
C01382=462.996,430.205,39.647,-180.00,0.00,0.00
C01383=470.762,426.612,39.658,-180.00,0.00,0.00
C01384=478.865,423.882,39.670,-180.00,0.00,0.00
C01385=487.224,422.042,39.682,-180.00,0.00,0.00
C01386=495.722,421.117,39.693,-180.00,0.00,0.00
C01387=529.238,426.612,39.740,-180.00,0.00,0.00
C01388=557.357,445.677,39.786,-180.00,0.00,0.00
C01389=562.887,452.188,39.798,-180.00,0.00,0.00
C01390=577.152,483.021,39.845,-180.00,0.00,0.00
C01391=574.861,525.229,39.903,-180.00,0.00,0.00
C01392=571.698,533.168,39.915,-180.00,0.00,0.00
C01393=567.690,540.728,39.926,-180.00,0.00,0.00
C01394=562.887,547.812,39.938,-180.00,0.00,0.00
C01395=551.140,560.212,39.961,-180.00,0.00,0.00
C01396=537.004,569.795,39.984,-180.00,0.00,0.00
C01397=529.238,573.388,39.996,-180.00,0.00,0.00
C01398=521.135,576.118,40.008,-180.00,0.00,0.00
C01399=512.776,577.958,40.019,-180.00,0.00,0.00
C01400=504.278,578.883,40.031,-180.00,0.00,0.00
C01401=470.762,573.388,40.078,-180.00,0.00,0.00
C01402=442.643,554.323,40.124,-180.00,0.00,0.00
C01403=437.113,547.812,40.136,-180.00,0.00,0.00
C01404=422.848,516.979,40.183,-180.00,0.00,0.00
C01405=425.139,474.771,40.241,-180.00,0.00,0.00
C01406=432.310,459.272,40.264,-180.00,0.00,0.00
C01407=442.643,445.677,40.264,-180.00,0.00,0.00
C01408=448.860,439.788,40.264,-180.00,0.00,0.00
C01409=455.663,434.617,40.264,-180.00,0.00,0.00
C01410=478.865,423.882,40.264,-180.00,0.00,0.00
C01411=504.278,421.117,40.264,-180.00,0.00,0.00
C01412=512.776,422.042,40.264,-180.00,0.00,0.00
C01413=521.135,423.882,40.264,-180.00,0.00,0.00
C01414=529.238,426.612,40.264,-180.00,0.00,0.00
C01415=557.357,445.677,40.264,-180.00,0.00,0.00
C01416=578.535,491.456,40.264,-180.00,0.00,0.00
C01417=574.861,525.229,40.264,-180.00,0.00,0.00
C01418=571.698,533.168,40.264,-180.00,0.00,0.00
C01419=567.690,540.728,40.264,-180.00,0.00,0.00
C01420=562.887,547.812,40.264,-180.00,0.00,0.00
C01421=551.140,560.212,40.264,-180.00,0.00,0.00
C01422=537.004,569.795,40.264,-180.00,0.00,0.00
C01423=529.238,573.388,40.264,-180.00,0.00,0.00
C01424=521.135,576.118,40.264,-180.00,0.00,0.00
C01425=512.776,577.958,40.264,-180.00,0.00,0.00
C01426=504.278,578.883,40.264,-180.00,0.00,0.00
C01427=470.762,573.388,40.264,-180.00,0.00,0.00
C01428=442.643,554.323,40.264,-180.00,0.00,0.00
NOP
MOVJ C00000 VJ=50.00 PL=0
MOVL C00001 V=100.0 PL=0
MOVL C00002 V=100.0 PL=0
MOVL C00003 V=100.0 PL=0
MOVL C00004 V=100.0 PL=0
MOVL C00005 V=100.0 PL=0
MOVL C00006 V=100.0 PL=0
MOVS C00007 V=100.0 PL=0
MOVS C00008 V=100.0 PL=0
MOVS C00009 V=100.0 PL=0
MOVL C00010 V=100.0 PL=0
MOVL C00011 V=100.0 PL=0
MOVL C00012 V=100.0 PL=0
MOVS C00013 V=100.0 PL=0
MOVS C00014 V=100.0 PL=0
MOVS C00015 V=100.0 PL=0
MOVS C00016 V=100.0 PL=0
MOVS C00017 V=100.0 PL=0
MOVS C00018 V=100.0 PL=0
MOVL C00019 V=100.0 PL=0
MOVL C00020 V=100.0 PL=0
MOVS C00021 V=100.0 PL=0
MOVS C00022 V=100.0 PL=0
MOVS C00023 V=100.0 PL=0
MOVL C00024 V=100.0 PL=0
MOVL C00025 V=100.0 PL=0
MOVL C00026 V=100.0 PL=0
MOVS C00027 V=100.0 PL=0
MOVS C00028 V=100.0 PL=0
MOVS C00029 V=100.0 PL=0
MOVS C00030 V=100.0 PL=0
MOVS C00031 V=100.0 PL=0
MOVS C00032 V=100.0 PL=0
MOVS C00033 V=100.0 PL=0
MOVS C00034 V=100.0 PL=0
MOVS C00035 V=100.0 PL=0
MOVS C00036 V=100.0 PL=0
MOVS C00037 V=100.0 PL=0
MOVL C00038 V=100.0 PL=0
MOVL C00039 V=100.0 PL=0
MOVS C00040 V=100.0 PL=0
MOVS C00041 V=100.0 PL=0
MOVS C00042 V=100.0 PL=0
MOVL C00043 V=100.0 PL=0
MOVL C00044 V=100.0 PL=0
MOVS C00045 V=100.0 PL=0
MOVS C00046 V=100.0 PL=0
MOVS C00047 V=100.0 PL=0
MOVS C00048 V=100.0 PL=0
MOVS C00049 V=100.0 PL=0
MOVS C00050 V=100.0 PL=0
MOVL C00051 V=100.0 PL=0
MOVL C00052 V=100.0 PL=0
MOVS C00053 V=100.0 PL=0
MOVS C00054 V=100.0 PL=0
MOVS C00055 V=100.0 PL=0
MOVL C00056 V=100.0 PL=0
MOVL C00057 V=100.0 PL=0
MOVS C00058 V=100.0 PL=0
MOVS C00059 V=100.0 PL=0
MOVS C00060 V=100.0 PL=0
MOVS C00061 V=100.0 PL=0
MOVL C00062 V=100.0 PL=0
MOVL C00063 V=100.0 PL=0
MOVL C00064 V=100.0 PL=0
MOVL C00065 V=100.0 PL=0
MOVL C00066 V=100.0 PL=0
MOVL C00067 V=100.0 PL=0
MOVL C00068 V=100.0 PL=0
MOVL C00069 V=100.0 PL=0
MOVL C00070 V=100.0 PL=0
MOVS C00071 V=100.0 PL=0
MOVS C00072 V=100.0 PL=0
MOVS C00073 V=100.0 PL=0
MOVS C00074 V=100.0 PL=0
MOVS C00075 V=100.0 PL=0
MOVS C00076 V=100.0 PL=0
MOVS C00077 V=100.0 PL=0
MOVS C00078 V=100.0 PL=0
MOVS C00079 V=100.0 PL=0
MOVL C00080 V=100.0 PL=0
MOVL C00081 V=100.0 PL=0
MOVL C00082 V=100.0 PL=0
MOVL C00083 V=100.0 PL=0
MOVL C00084 V=100.0 PL=0
MOVL C00085 V=100.0 PL=0
MOVL C00086 V=100.0 PL=0
MOVL C00087 V=100.0 PL=0
MOVL C00088 V=100.0 PL=0
MOVL C00089 V=100.0 PL=0
MOVL C00090 V=100.0 PL=0
MOVL C00091 V=100.0 PL=0
MOVL C00092 V=100.0 PL=0
MOVL C00093 V=100.0 PL=0
MOVL C00094 V=100.0 PL=0
MOVL C00095 V=100.0 PL=0
MOVL C00096 V=100.0 PL=0
MOVL C00097 V=100.0 PL=0
MOVL C00098 V=100.0 PL=0
MOVL C00099 V=100.0 PL=0
MOVL C00100 V=100.0 PL=0
MOVL C00101 V=100.0 PL=0
MOVL C00102 V=100.0 PL=0
MOVL C00103 V=100.0 PL=0
MOVL C00104 V=100.0 PL=0
MOVL C00105 V=100.0 PL=0
MOVL C00106 V=100.0 PL=0
MOVL C00107 V=100.0 PL=0
MOVL C00108 V=100.0 PL=0
MOVL C00109 V=100.0 PL=0
MOVL C00110 V=100.0 PL=0
MOVL C00111 V=100.0 PL=0
MOVL C00112 V=100.0 PL=0
MOVL C00113 V=100.0 PL=0
MOVL C00114 V=100.0 PL=0
MOVL C00115 V=100.0 PL=0
MOVL C00116 V=100.0 PL=0
MOVL C00117 V=100.0 PL=0
MOVL C00118 V=100.0 PL=0
MOVL C00119 V=100.0 PL=0
MOVL C00120 V=100.0 PL=0
MOVL C00121 V=100.0 PL=0
MOVL C00122 V=100.0 PL=0
MOVL C00123 V=100.0 PL=0
MOVL C00124 V=100.0 PL=0
MOVL C00125 V=100.0 PL=0
MOVL C00126 V=100.0 PL=0
MOVL C00127 V=100.0 PL=0
MOVL C00128 V=100.0 PL=0
MOVL C00129 V=100.0 PL=0
MOVL C00130 V=100.0 PL=0
MOVL C00131 V=100.0 PL=0
MOVL C00132 V=100.0 PL=0
MOVL C00133 V=100.0 PL=0
MOVL C00134 V=100.0 PL=0
MOVL C00135 V=100.0 PL=0
MOVL C00136 V=100.0 PL=0
MOVL C00137 V=100.0 PL=0
MOVL C00138 V=100.0 PL=0
MOVL C00139 V=100.0 PL=0
MOVL C00140 V=100.0 PL=0
MOVL C00141 V=100.0 PL=0
MOVL C00142 V=100.0 PL=0
MOVL C00143 V=100.0 PL=0
MOVL C00144 V=100.0 PL=0
MOVL C00145 V=100.0 PL=0
MOVL C00146 V=100.0 PL=0
MOVL C00147 V=100.0 PL=0
MOVL C00148 V=100.0 PL=0
MOVL C00149 V=100.0 PL=0
MOVL C00150 V=100.0 PL=0
MOVL C00151 V=100.0 PL=0
MOVL C00152 V=100.0 PL=0
MOVL C00153 V=100.0 PL=0
MOVL C00154 V=100.0 PL=0
MOVL C00155 V=100.0 PL=0
MOVL C00156 V=100.0 PL=0
MOVL C00157 V=100.0 PL=0
MOVL C00158 V=100.0 PL=0
MOVL C00159 V=100.0 PL=0
MOVL C00160 V=100.0 PL=0
MOVL C00161 V=100.0 PL=0
MOVL C00162 V=100.0 PL=0
MOVL C00163 V=100.0 PL=0
MOVL C00164 V=100.0 PL=0
MOVL C00165 V=100.0 PL=0
MOVL C00166 V=100.0 PL=0
MOVL C00167 V=100.0 PL=0
MOVL C00168 V=100.0 PL=0
MOVL C00169 V=100.0 PL=0
MOVL C00170 V=100.0 PL=0
MOVL C00171 V=100.0 PL=0
MOVL C00172 V=100.0 PL=0
MOVL C00173 V=100.0 PL=0
MOVL C00174 V=100.0 PL=0
MOVL C00175 V=100.0 PL=0
MOVL C00176 V=100.0 PL=0
MOVL C00177 V=100.0 PL=0
MOVL C00178 V=100.0 PL=0
MOVL C00179 V=100.0 PL=0
MOVL C00180 V=100.0 PL=0
MOVL C00181 V=100.0 PL=0
MOVL C00182 V=100.0 PL=0
MOVL C00183 V=100.0 PL=0
MOVL C00184 V=100.0 PL=0
MOVL C00185 V=100.0 PL=0
MOVL C00186 V=100.0 PL=0
MOVL C00187 V=100.0 PL=0
MOVL C00188 V=100.0 PL=0
MOVL C00189 V=100.0 PL=0
MOVL C00190 V=100.0 PL=0
MOVL C00191 V=100.0 PL=0
MOVL C00192 V=100.0 PL=0
MOVL C00193 V=100.0 PL=0
MOVL C00194 V=100.0 PL=0
MOVL C00195 V=100.0 PL=0
MOVL C00196 V=100.0 PL=0
MOVL C00197 V=100.0 PL=0
MOVL C00198 V=100.0 PL=0
MOVL C00199 V=100.0 PL=0
MOVL C00200 V=100.0 PL=0
MOVL C00201 V=100.0 PL=0
MOVL C00202 V=100.0 PL=0
MOVL C00203 V=100.0 PL=0
MOVL C00204 V=100.0 PL=0
MOVL C00205 V=100.0 PL=0
MOVL C00206 V=100.0 PL=0
MOVL C00207 V=100.0 PL=0
MOVS C00208 V=100.0 PL=0
MOVS C00209 V=100.0 PL=0
MOVS C00210 V=100.0 PL=0
MOVS C00211 V=100.0 PL=0
MOVS C00212 V=100.0 PL=0
MOVS C00213 V=100.0 PL=0
MOVS C00214 V=100.0 PL=0
MOVS C00215 V=100.0 PL=0
MOVS C00216 V=100.0 PL=0
MOVS C00217 V=100.0 PL=0
MOVS C00218 V=100.0 PL=0
MOVS C00219 V=100.0 PL=0
MOVL C00220 V=100.0 PL=0
MOVL C00221 V=100.0 PL=0
MOVL C00222 V=100.0 PL=0
MOVS C00223 V=100.0 PL=0
MOVS C00224 V=100.0 PL=0
MOVS C00225 V=100.0 PL=0
MOVL C00226 V=100.0 PL=0
MOVL C00227 V=100.0 PL=0
MOVL C00228 V=100.0 PL=0
MOVL C00229 V=100.0 PL=0
MOVS C00230 V=100.0 PL=0
MOVS C00231 V=100.0 PL=0
MOVS C00232 V=100.0 PL=0
MOVL C00233 V=100.0 PL=0
MOVL C00234 V=100.0 PL=0
MOVL C00235 V=100.0 PL=0
MOVS C00236 V=100.0 PL=0
MOVS C00237 V=100.0 PL=0
MOVS C00238 V=100.0 PL=0
MOVS C00239 V=100.0 PL=0
MOVS C00240 V=100.0 PL=0
MOVS C00241 V=100.0 PL=0
MOVL C00242 V=100.0 PL=0
MOVS C00243 V=100.0 PL=0
MOVS C00244 V=100.0 PL=0
MOVS C00245 V=100.0 PL=0
MOVL C00246 V=100.0 PL=0
MOVL C00247 V=100.0 PL=0
MOVL C00248 V=100.0 PL=0
MOVS C00249 V=100.0 PL=0
MOVS C00250 V=100.0 PL=0
MOVS C00251 V=100.0 PL=0
MOVS C00252 V=100.0 PL=0
MOVS C00253 V=100.0 PL=0
MOVS C00254 V=100.0 PL=0
MOVS C00255 V=100.0 PL=0
MOVS C00256 V=100.0 PL=0
MOVS C00257 V=100.0 PL=0
MOVL C00258 V=100.0 PL=0
MOVL C00259 V=100.0 PL=0
MOVS C00260 V=100.0 PL=0
MOVS C00261 V=100.0 PL=0
MOVS C00262 V=100.0 PL=0
MOVL C00263 V=100.0 PL=0
MOVL C00264 V=100.0 PL=0
MOVL C00265 V=100.0 PL=0
MOVS C00266 V=100.0 PL=0
MOVS C00267 V=100.0 PL=0
MOVS C00268 V=100.0 PL=0
MOVS C00269 V=100.0 PL=0
MOVS C00270 V=100.0 PL=0
MOVS C00271 V=100.0 PL=0
MOVL C00272 V=100.0 PL=0
MOVL C00273 V=100.0 PL=0
MOVS C00274 V=100.0 PL=0
MOVS C00275 V=100.0 PL=0
MOVS C00276 V=100.0 PL=0
MOVL C00277 V=100.0 PL=0
MOVL C00278 V=100.0 PL=0
MOVL C00279 V=100.0 PL=0
MOVS C00280 V=100.0 PL=0
MOVS C00281 V=100.0 PL=0
MOVS C00282 V=100.0 PL=0
MOVS C00283 V=100.0 PL=0
MOVS C00284 V=100.0 PL=0
MOVS C00285 V=100.0 PL=0
MOVL C00286 V=100.0 PL=0
MOVL C00287 V=100.0 PL=0
MOVS C00288 V=100.0 PL=0
MOVS C00289 V=100.0 PL=0
MOVS C00290 V=100.0 PL=0
MOVL C00291 V=100.0 PL=0
MOVL C00292 V=100.0 PL=0
MOVL C00293 V=100.0 PL=0
MOVS C00294 V=100.0 PL=0
MOVS C00295 V=100.0 PL=0
MOVS C00296 V=100.0 PL=0
MOVS C00297 V=100.0 PL=0
MOVS C00298 V=100.0 PL=0
MOVS C00299 V=100.0 PL=0
MOVL C00300 V=100.0 PL=0
MOVL C00301 V=100.0 PL=0
MOVS C00302 V=100.0 PL=0
MOVS C00303 V=100.0 PL=0
MOVS C00304 V=100.0 PL=0
MOVL C00305 V=100.0 PL=0
MOVL C00306 V=100.0 PL=0
MOVL C00307 V=100.0 PL=0
MOVS C00308 V=100.0 PL=0
MOVS C00309 V=100.0 PL=0
MOVS C00310 V=100.0 PL=0
MOVS C00311 V=100.0 PL=0
MOVS C00312 V=100.0 PL=0
MOVS C00313 V=100.0 PL=0
MOVL C00314 V=100.0 PL=0
MOVL C00315 V=100.0 PL=0
MOVS C00316 V=100.0 PL=0
MOVS C00317 V=100.0 PL=0
MOVS C00318 V=100.0 PL=0
MOVL C00319 V=100.0 PL=0
MOVL C00320 V=100.0 PL=0
MOVS C00321 V=100.0 PL=0
MOVS C00322 V=100.0 PL=0
MOVS C00323 V=100.0 PL=0
MOVS C00324 V=100.0 PL=0
MOVS C00325 V=100.0 PL=0
MOVS C00326 V=100.0 PL=0
MOVL C00327 V=100.0 PL=0
MOVL C00328 V=100.0 PL=0
MOVS C00329 V=100.0 PL=0
MOVS C00330 V=100.0 PL=0
MOVS C00331 V=100.0 PL=0
MOVL C00332 V=100.0 PL=0
MOVL C00333 V=100.0 PL=0
MOVS C00334 V=100.0 PL=0
MOVS C00335 V=100.0 PL=0
MOVS C00336 V=100.0 PL=0
MOVS C00337 V=100.0 PL=0
MOVL C00338 V=100.0 PL=0
MOVS C00339 V=100.0 PL=0
MOVS C00340 V=100.0 PL=0
MOVS C00341 V=100.0 PL=0
MOVL C00342 V=100.0 PL=0
MOVL C00343 V=100.0 PL=0
MOVL C00344 V=100.0 PL=0
MOVL C00345 V=100.0 PL=0
MOVL C00346 V=100.0 PL=0
MOVL C00347 V=100.0 PL=0
MOVS C00348 V=100.0 PL=0
MOVS C00349 V=100.0 PL=0
MOVS C00350 V=100.0 PL=0
MOVS C00351 V=100.0 PL=0
MOVS C00352 V=100.0 PL=0
MOVS C00353 V=100.0 PL=0
MOVS C00354 V=100.0 PL=0
MOVS C00355 V=100.0 PL=0
MOVS C00356 V=100.0 PL=0
MOVL C00357 V=100.0 PL=0
MOVL C00358 V=100.0 PL=0
MOVS C00359 V=100.0 PL=0
MOVS C00360 V=100.0 PL=0
MOVS C00361 V=100.0 PL=0
MOVL C00362 V=100.0 PL=0
MOVL C00363 V=100.0 PL=0
MOVS C00364 V=100.0 PL=0
MOVS C00365 V=100.0 PL=0
MOVS C00366 V=100.0 PL=0
MOVS C00367 V=100.0 PL=0
MOVL C00368 V=100.0 PL=0
MOVL C00369 V=100.0 PL=0
MOVL C00370 V=100.0 PL=0
MOVS C00371 V=100.0 PL=0
MOVS C00372 V=100.0 PL=0
MOVS C00373 V=100.0 PL=0
MOVL C00374 V=100.0 PL=0
MOVL C00375 V=100.0 PL=0
MOVL C00376 V=100.0 PL=0
MOVS C00377 V=100.0 PL=0
MOVS C00378 V=100.0 PL=0
MOVS C00379 V=100.0 PL=0
MOVS C00380 V=100.0 PL=0
MOVS C00381 V=100.0 PL=0
MOVS C00382 V=100.0 PL=0
MOVL C00383 V=100.0 PL=0
MOVL C00384 V=100.0 PL=0
MOVS C00385 V=100.0 PL=0
MOVS C00386 V=100.0 PL=0
MOVS C00387 V=100.0 PL=0
MOVL C00388 V=100.0 PL=0
MOVL C00389 V=100.0 PL=0
MOVL C00390 V=100.0 PL=0
MOVS C00391 V=100.0 PL=0
MOVS C00392 V=100.0 PL=0
MOVS C00393 V=100.0 PL=0
MOVS C00394 V=100.0 PL=0
MOVS C00395 V=100.0 PL=0
MOVS C00396 V=100.0 PL=0
MOVS C00397 V=100.0 PL=0
MOVS C00398 V=100.0 PL=0
MOVL C00399 V=100.0 PL=0
MOVS C00400 V=100.0 PL=0
MOVS C00401 V=100.0 PL=0
MOVS C00402 V=100.0 PL=0
MOVL C00403 V=100.0 PL=0
MOVL C00404 V=100.0 PL=0
MOVL C00405 V=100.0 PL=0
MOVS C00406 V=100.0 PL=0
MOVS C00407 V=100.0 PL=0
MOVS C00408 V=100.0 PL=0
MOVS C00409 V=100.0 PL=0
MOVS C00410 V=100.0 PL=0
MOVS C00411 V=100.0 PL=0
MOVL C00412 V=100.0 PL=0
MOVS C00413 V=100.0 PL=0
MOVS C00414 V=100.0 PL=0
MOVS C00415 V=100.0 PL=0
MOVL C00416 V=100.0 PL=0
MOVL C00417 V=100.0 PL=0
MOVL C00418 V=100.0 PL=0
MOVS C00419 V=100.0 PL=0
MOVS C00420 V=100.0 PL=0
MOVS C00421 V=100.0 PL=0
MOVS C00422 V=100.0 PL=0
MOVS C00423 V=100.0 PL=0
MOVS C00424 V=100.0 PL=0
MOVL C00425 V=100.0 PL=0
MOVL C00426 V=100.0 PL=0
MOVL C00427 V=100.0 PL=0
MOVL C00428 V=100.0 PL=0
MOVL C00429 V=100.0 PL=0
MOVL C00430 V=100.0 PL=0
MOVL C00431 V=100.0 PL=0
MOVL C00432 V=100.0 PL=0
MOVL C00433 V=100.0 PL=0
MOVL C00434 V=100.0 PL=0
MOVL C00435 V=100.0 PL=0
MOVL C00436 V=100.0 PL=0
MOVL C00437 V=100.0 PL=0
MOVL C00438 V=100.0 PL=0
MOVL C00439 V=100.0 PL=0
MOVL C00440 V=100.0 PL=0
MOVL C00441 V=100.0 PL=0
MOVL C00442 V=100.0 PL=0
MOVL C00443 V=100.0 PL=0
MOVL C00444 V=100.0 PL=0
MOVL C00445 V=100.0 PL=0
MOVL C00446 V=100.0 PL=0
MOVL C00447 V=100.0 PL=0
MOVL C00448 V=100.0 PL=0
MOVL C00449 V=100.0 PL=0
MOVL C00450 V=100.0 PL=0
MOVL C00451 V=100.0 PL=0
MOVL C00452 V=100.0 PL=0
MOVL C00453 V=100.0 PL=0
MOVL C00454 V=100.0 PL=0
MOVL C00455 V=100.0 PL=0
MOVL C00456 V=100.0 PL=0
MOVL C00457 V=100.0 PL=0
MOVL C00458 V=100.0 PL=0
MOVL C00459 V=100.0 PL=0
MOVL C00460 V=100.0 PL=0
MOVL C00461 V=100.0 PL=0
MOVL C00462 V=100.0 PL=0
MOVL C00463 V=100.0 PL=0
MOVL C00464 V=100.0 PL=0
MOVL C00465 V=100.0 PL=0
MOVL C00466 V=100.0 PL=0
MOVL C00467 V=100.0 PL=0
MOVL C00468 V=100.0 PL=0
MOVL C00469 V=100.0 PL=0
MOVL C00470 V=100.0 PL=0
MOVL C00471 V=100.0 PL=0
MOVL C00472 V=100.0 PL=0
MOVL C00473 V=100.0 PL=0
MOVL C00474 V=100.0 PL=0
MOVL C00475 V=100.0 PL=0
MOVL C00476 V=100.0 PL=0
MOVL C00477 V=100.0 PL=0
MOVL C00478 V=100.0 PL=0
MOVL C00479 V=100.0 PL=0
MOVL C00480 V=100.0 PL=0
MOVL C00481 V=100.0 PL=0
MOVL C00482 V=100.0 PL=0
MOVL C00483 V=100.0 PL=0
MOVL C00484 V=100.0 PL=0
MOVL C00485 V=100.0 PL=0
MOVL C00486 V=100.0 PL=0
MOVL C00487 V=100.0 PL=0
MOVL C00488 V=100.0 PL=0
MOVL C00489 V=100.0 PL=0
MOVL C00490 V=100.0 PL=0
MOVL C00491 V=100.0 PL=0
MOVL C00492 V=100.0 PL=0
MOVL C00493 V=100.0 PL=0
MOVL C00494 V=100.0 PL=0
MOVL C00495 V=100.0 PL=0
MOVL C00496 V=100.0 PL=0
MOVL C00497 V=100.0 PL=0
MOVL C00498 V=100.0 PL=0
MOVL C00499 V=100.0 PL=0
MOVL C00500 V=100.0 PL=0
MOVL C00501 V=100.0 PL=0
MOVL C00502 V=100.0 PL=0
MOVL C00503 V=100.0 PL=0
MOVL C00504 V=100.0 PL=0
MOVL C00505 V=100.0 PL=0
MOVL C00506 V=100.0 PL=0
MOVL C00507 V=100.0 PL=0
MOVL C00508 V=100.0 PL=0
MOVL C00509 V=100.0 PL=0
MOVL C00510 V=100.0 PL=0
MOVL C00511 V=100.0 PL=0
MOVL C00512 V=100.0 PL=0
MOVL C00513 V=100.0 PL=0
MOVL C00514 V=100.0 PL=0
MOVL C00515 V=100.0 PL=0
MOVL C00516 V=100.0 PL=0
MOVL C00517 V=100.0 PL=0
MOVL C00518 V=100.0 PL=0
MOVL C00519 V=100.0 PL=0
MOVL C00520 V=100.0 PL=0
MOVL C00521 V=100.0 PL=0
MOVL C00522 V=100.0 PL=0
MOVL C00523 V=100.0 PL=0
MOVL C00524 V=100.0 PL=0
MOVL C00525 V=100.0 PL=0
MOVL C00526 V=100.0 PL=0
MOVL C00527 V=100.0 PL=0
MOVL C00528 V=100.0 PL=0
MOVL C00529 V=100.0 PL=0
MOVL C00530 V=100.0 PL=0
MOVL C00531 V=100.0 PL=0
MOVL C00532 V=100.0 PL=0
MOVL C00533 V=100.0 PL=0
MOVL C00534 V=100.0 PL=0
MOVL C00535 V=100.0 PL=0
MOVL C00536 V=100.0 PL=0
MOVL C00537 V=100.0 PL=0
MOVL C00538 V=100.0 PL=0
MOVL C00539 V=100.0 PL=0
MOVL C00540 V=100.0 PL=0
MOVL C00541 V=100.0 PL=0
MOVL C00542 V=100.0 PL=0
MOVL C00543 V=100.0 PL=0
MOVL C00544 V=100.0 PL=0
MOVL C00545 V=100.0 PL=0
MOVL C00546 V=100.0 PL=0
MOVL C00547 V=100.0 PL=0
MOVL C00548 V=100.0 PL=0
MOVL C00549 V=100.0 PL=0
MOVL C00550 V=100.0 PL=0
MOVL C00551 V=100.0 PL=0
MOVL C00552 V=100.0 PL=0
MOVL C00553 V=100.0 PL=0
MOVL C00554 V=100.0 PL=0
MOVL C00555 V=100.0 PL=0
MOVL C00556 V=100.0 PL=0
MOVL C00557 V=100.0 PL=0
MOVL C00558 V=100.0 PL=0
MOVL C00559 V=100.0 PL=0
MOVL C00560 V=100.0 PL=0
MOVL C00561 V=100.0 PL=0
MOVL C00562 V=100.0 PL=0
MOVL C00563 V=100.0 PL=0
MOVL C00564 V=100.0 PL=0
MOVL C00565 V=100.0 PL=0
MOVL C00566 V=100.0 PL=0
MOVL C00567 V=100.0 PL=0
MOVL C00568 V=100.0 PL=0
MOVL C00569 V=100.0 PL=0
MOVL C00570 V=100.0 PL=0
MOVL C00571 V=100.0 PL=0
MOVL C00572 V=100.0 PL=0
MOVS C00573 V=100.0 PL=0
MOVS C00574 V=100.0 PL=0
MOVS C00575 V=100.0 PL=0
MOVS C00576 V=100.0 PL=0
MOVS C00577 V=100.0 PL=0
MOVS C00578 V=100.0 PL=0
MOVL C00579 V=100.0 PL=0
MOVL C00580 V=100.0 PL=0
MOVS C00581 V=100.0 PL=0
MOVS C00582 V=100.0 PL=0
MOVS C00583 V=100.0 PL=0
MOVL C00584 V=100.0 PL=0
MOVL C00585 V=100.0 PL=0
MOVL C00586 V=100.0 PL=0
MOVS C00587 V=100.0 PL=0
MOVS C00588 V=100.0 PL=0
MOVS C00589 V=100.0 PL=0
MOVS C00590 V=100.0 PL=0
MOVS C00591 V=100.0 PL=0
MOVS C00592 V=100.0 PL=0
MOVS C00593 V=100.0 PL=0
MOVS C00594 V=100.0 PL=0
MOVL C00595 V=100.0 PL=0
MOVS C00596 V=100.0 PL=0
MOVS C00597 V=100.0 PL=0
MOVS C00598 V=100.0 PL=0
MOVL C00599 V=100.0 PL=0
MOVL C00600 V=100.0 PL=0
MOVS C00601 V=100.0 PL=0
MOVS C00602 V=100.0 PL=0
MOVS C00603 V=100.0 PL=0
MOVS C00604 V=100.0 PL=0
MOVL C00605 V=100.0 PL=0
MOVL C00606 V=100.0 PL=0
MOVS C00607 V=100.0 PL=0
MOVS C00608 V=100.0 PL=0
MOVS C00609 V=100.0 PL=0
MOVL C00610 V=100.0 PL=0
MOVL C00611 V=100.0 PL=0
MOVL C00612 V=100.0 PL=0
MOVS C00613 V=100.0 PL=0
MOVS C00614 V=100.0 PL=0
MOVS C00615 V=100.0 PL=0
MOVS C00616 V=100.0 PL=0
MOVS C00617 V=100.0 PL=0
MOVS C00618 V=100.0 PL=0
MOVS C00619 V=100.0 PL=0
MOVS C00620 V=100.0 PL=0
MOVL C00621 V=100.0 PL=0
MOVS C00622 V=100.0 PL=0
MOVS C00623 V=100.0 PL=0
MOVS C00624 V=100.0 PL=0
MOVL C00625 V=100.0 PL=0
MOVL C00626 V=100.0 PL=0
MOVS C00627 V=100.0 PL=0
MOVS C00628 V=100.0 PL=0
MOVS C00629 V=100.0 PL=0
MOVS C00630 V=100.0 PL=0
MOVL C00631 V=100.0 PL=0
MOVL C00632 V=100.0 PL=0
MOVS C00633 V=100.0 PL=0
MOVS C00634 V=100.0 PL=0
MOVS C00635 V=100.0 PL=0
MOVL C00636 V=100.0 PL=0
MOVL C00637 V=100.0 PL=0
MOVL C00638 V=100.0 PL=0
MOVS C00639 V=100.0 PL=0
MOVS C00640 V=100.0 PL=0
MOVS C00641 V=100.0 PL=0
MOVS C00642 V=100.0 PL=0
MOVS C00643 V=100.0 PL=0
MOVS C00644 V=100.0 PL=0
MOVS C00645 V=100.0 PL=0
MOVS C00646 V=100.0 PL=0
MOVL C00647 V=100.0 PL=0
MOVS C00648 V=100.0 PL=0
MOVS C00649 V=100.0 PL=0
MOVS C00650 V=100.0 PL=0
MOVL C00651 V=100.0 PL=0
MOVL C00652 V=100.0 PL=0
MOVS C00653 V=100.0 PL=0
MOVS C00654 V=100.0 PL=0
MOVS C00655 V=100.0 PL=0
MOVS C00656 V=100.0 PL=0
MOVL C00657 V=100.0 PL=0
MOVL C00658 V=100.0 PL=0
MOVS C00659 V=100.0 PL=0
MOVS C00660 V=100.0 PL=0
MOVS C00661 V=100.0 PL=0
MOVL C00662 V=100.0 PL=0
MOVL C00663 V=100.0 PL=0
MOVL C00664 V=100.0 PL=0
MOVS C00665 V=100.0 PL=0
MOVS C00666 V=100.0 PL=0
MOVS C00667 V=100.0 PL=0
MOVS C00668 V=100.0 PL=0
MOVS C00669 V=100.0 PL=0
MOVS C00670 V=100.0 PL=0
MOVS C00671 V=100.0 PL=0
MOVS C00672 V=100.0 PL=0
MOVL C00673 V=100.0 PL=0
MOVS C00674 V=100.0 PL=0
MOVS C00675 V=100.0 PL=0
MOVS C00676 V=100.0 PL=0
MOVL C00677 V=100.0 PL=0
MOVL C00678 V=100.0 PL=0
MOVS C00679 V=100.0 PL=0
MOVS C00680 V=100.0 PL=0
MOVS C00681 V=100.0 PL=0
MOVS C00682 V=100.0 PL=0
MOVL C00683 V=100.0 PL=0
MOVL C00684 V=100.0 PL=0
MOVS C00685 V=100.0 PL=0
MOVS C00686 V=100.0 PL=0
MOVS C00687 V=100.0 PL=0
MOVL C00688 V=100.0 PL=0
MOVL C00689 V=100.0 PL=0
MOVL C00690 V=100.0 PL=0
MOVS C00691 V=100.0 PL=0
MOVS C00692 V=100.0 PL=0
MOVS C00693 V=100.0 PL=0
MOVS C00694 V=100.0 PL=0
MOVS C00695 V=100.0 PL=0
MOVS C00696 V=100.0 PL=0
MOVS C00697 V=100.0 PL=0
MOVS C00698 V=100.0 PL=0
MOVL C00699 V=100.0 PL=0
MOVS C00700 V=100.0 PL=0
MOVS C00701 V=100.0 PL=0
MOVS C00702 V=100.0 PL=0
MOVL C00703 V=100.0 PL=0
MOVL C00704 V=100.0 PL=0
MOVS C00705 V=100.0 PL=0
MOVS C00706 V=100.0 PL=0
MOVS C00707 V=100.0 PL=0
MOVS C00708 V=100.0 PL=0
MOVL C00709 V=100.0 PL=0
MOVL C00710 V=100.0 PL=0
MOVS C00711 V=100.0 PL=0
MOVS C00712 V=100.0 PL=0
MOVS C00713 V=100.0 PL=0
MOVL C00714 V=100.0 PL=0
MOVL C00715 V=100.0 PL=0
MOVL C00716 V=100.0 PL=0
MOVS C00717 V=100.0 PL=0
MOVS C00718 V=100.0 PL=0
MOVS C00719 V=100.0 PL=0
MOVS C00720 V=100.0 PL=0
MOVS C00721 V=100.0 PL=0
MOVS C00722 V=100.0 PL=0
MOVS C00723 V=100.0 PL=0
MOVS C00724 V=100.0 PL=0
MOVL C00725 V=100.0 PL=0
MOVS C00726 V=100.0 PL=0
MOVS C00727 V=100.0 PL=0
MOVS C00728 V=100.0 PL=0
MOVL C00729 V=100.0 PL=0
MOVL C00730 V=100.0 PL=0
MOVS C00731 V=100.0 PL=0
MOVS C00732 V=100.0 PL=0
MOVS C00733 V=100.0 PL=0
MOVS C00734 V=100.0 PL=0
MOVL C00735 V=100.0 PL=0
MOVL C00736 V=100.0 PL=0
MOVS C00737 V=100.0 PL=0
MOVS C00738 V=100.0 PL=0
MOVS C00739 V=100.0 PL=0
MOVL C00740 V=100.0 PL=0
MOVL C00741 V=100.0 PL=0
MOVL C00742 V=100.0 PL=0
MOVS C00743 V=100.0 PL=0
MOVS C00744 V=100.0 PL=0
MOVS C00745 V=100.0 PL=0
MOVS C00746 V=100.0 PL=0
MOVS C00747 V=100.0 PL=0
MOVS C00748 V=100.0 PL=0
MOVS C00749 V=100.0 PL=0
MOVS C00750 V=100.0 PL=0
MOVL C00751 V=100.0 PL=0
MOVS C00752 V=100.0 PL=0
MOVS C00753 V=100.0 PL=0
MOVS C00754 V=100.0 PL=0
MOVL C00755 V=100.0 PL=0
MOVL C00756 V=100.0 PL=0
MOVS C00757 V=100.0 PL=0
MOVS C00758 V=100.0 PL=0
MOVS C00759 V=100.0 PL=0
MOVS C00760 V=100.0 PL=0
MOVL C00761 V=100.0 PL=0
MOVL C00762 V=100.0 PL=0
MOVS C00763 V=100.0 PL=0
MOVS C00764 V=100.0 PL=0
MOVS C00765 V=100.0 PL=0
MOVL C00766 V=100.0 PL=0
MOVL C00767 V=100.0 PL=0
MOVL C00768 V=100.0 PL=0
MOVS C00769 V=100.0 PL=0
MOVS C00770 V=100.0 PL=0
MOVS C00771 V=100.0 PL=0
MOVS C00772 V=100.0 PL=0
MOVS C00773 V=100.0 PL=0
MOVS C00774 V=100.0 PL=0
MOVS C00775 V=100.0 PL=0
MOVS C00776 V=100.0 PL=0
MOVL C00777 V=100.0 PL=0
MOVS C00778 V=100.0 PL=0
MOVS C00779 V=100.0 PL=0
MOVS C00780 V=100.0 PL=0
MOVL C00781 V=100.0 PL=0
MOVL C00782 V=100.0 PL=0
MOVS C00783 V=100.0 PL=0
MOVS C00784 V=100.0 PL=0
MOVS C00785 V=100.0 PL=0
MOVS C00786 V=100.0 PL=0
MOVL C00787 V=100.0 PL=0
MOVL C00788 V=100.0 PL=0
MOVS C00789 V=100.0 PL=0
MOVS C00790 V=100.0 PL=0
MOVS C00791 V=100.0 PL=0
MOVL C00792 V=100.0 PL=0
MOVL C00793 V=100.0 PL=0
MOVL C00794 V=100.0 PL=0
MOVS C00795 V=100.0 PL=0
MOVS C00796 V=100.0 PL=0
MOVS C00797 V=100.0 PL=0
MOVS C00798 V=100.0 PL=0
MOVS C00799 V=100.0 PL=0
MOVS C00800 V=100.0 PL=0
MOVS C00801 V=100.0 PL=0
MOVS C00802 V=100.0 PL=0
MOVL C00803 V=100.0 PL=0
MOVS C00804 V=100.0 PL=0
MOVS C00805 V=100.0 PL=0
MOVS C00806 V=100.0 PL=0
MOVL C00807 V=100.0 PL=0
MOVL C00808 V=100.0 PL=0
MOVS C00809 V=100.0 PL=0
MOVS C00810 V=100.0 PL=0
MOVS C00811 V=100.0 PL=0
MOVS C00812 V=100.0 PL=0
MOVL C00813 V=100.0 PL=0
MOVL C00814 V=100.0 PL=0
MOVS C00815 V=100.0 PL=0
MOVS C00816 V=100.0 PL=0
MOVS C00817 V=100.0 PL=0
MOVL C00818 V=100.0 PL=0
MOVL C00819 V=100.0 PL=0
MOVL C00820 V=100.0 PL=0
MOVS C00821 V=100.0 PL=0
MOVS C00822 V=100.0 PL=0
MOVS C00823 V=100.0 PL=0
MOVS C00824 V=100.0 PL=0
MOVS C00825 V=100.0 PL=0
MOVS C00826 V=100.0 PL=0
MOVS C00827 V=100.0 PL=0
MOVS C00828 V=100.0 PL=0
MOVL C00829 V=100.0 PL=0
MOVS C00830 V=100.0 PL=0
MOVS C00831 V=100.0 PL=0
MOVS C00832 V=100.0 PL=0
MOVS C00833 V=100.0 PL=0
MOVS C00834 V=100.0 PL=0
MOVL C00835 V=100.0 PL=0
MOVL C00836 V=100.0 PL=0
MOVS C00837 V=100.0 PL=0
MOVS C00838 V=100.0 PL=0
MOVS C00839 V=100.0 PL=0
MOVL C00840 V=100.0 PL=0
MOVL C00841 V=100.0 PL=0
MOVL C00842 V=100.0 PL=0
MOVS C00843 V=100.0 PL=0
MOVS C00844 V=100.0 PL=0
MOVS C00845 V=100.0 PL=0
MOVL C00846 V=100.0 PL=0
MOVL C00847 V=100.0 PL=0
MOVL C00848 V=100.0 PL=0
MOVS C00849 V=100.0 PL=0
MOVS C00850 V=100.0 PL=0
MOVS C00851 V=100.0 PL=0
MOVS C00852 V=100.0 PL=0
MOVS C00853 V=100.0 PL=0
MOVS C00854 V=100.0 PL=0
MOVS C00855 V=100.0 PL=0
MOVS C00856 V=100.0 PL=0
MOVL C00857 V=100.0 PL=0
MOVS C00858 V=100.0 PL=0
MOVS C00859 V=100.0 PL=0
MOVS C00860 V=100.0 PL=0
MOVL C00861 V=100.0 PL=0
MOVL C00862 V=100.0 PL=0
MOVS C00863 V=100.0 PL=0
MOVS C00864 V=100.0 PL=0
MOVS C00865 V=100.0 PL=0
MOVS C00866 V=100.0 PL=0
MOVL C00867 V=100.0 PL=0
MOVL C00868 V=100.0 PL=0
MOVS C00869 V=100.0 PL=0
MOVS C00870 V=100.0 PL=0
MOVS C00871 V=100.0 PL=0
MOVL C00872 V=100.0 PL=0
MOVL C00873 V=100.0 PL=0
MOVL C00874 V=100.0 PL=0
MOVS C00875 V=100.0 PL=0
MOVS C00876 V=100.0 PL=0
MOVS C00877 V=100.0 PL=0
MOVS C00878 V=100.0 PL=0
MOVS C00879 V=100.0 PL=0
MOVS C00880 V=100.0 PL=0
MOVS C00881 V=100.0 PL=0
MOVS C00882 V=100.0 PL=0
MOVL C00883 V=100.0 PL=0
MOVS C00884 V=100.0 PL=0
MOVS C00885 V=100.0 PL=0
MOVS C00886 V=100.0 PL=0
MOVL C00887 V=100.0 PL=0
MOVL C00888 V=100.0 PL=0
MOVS C00889 V=100.0 PL=0
MOVS C00890 V=100.0 PL=0
MOVS C00891 V=100.0 PL=0
MOVS C00892 V=100.0 PL=0
MOVL C00893 V=100.0 PL=0
MOVL C00894 V=100.0 PL=0
MOVS C00895 V=100.0 PL=0
MOVS C00896 V=100.0 PL=0
MOVS C00897 V=100.0 PL=0
MOVL C00898 V=100.0 PL=0
MOVL C00899 V=100.0 PL=0
MOVL C00900 V=100.0 PL=0
MOVS C00901 V=100.0 PL=0
MOVS C00902 V=100.0 PL=0
MOVS C00903 V=100.0 PL=0
MOVS C00904 V=100.0 PL=0
MOVS C00905 V=100.0 PL=0
MOVS C00906 V=100.0 PL=0
MOVS C00907 V=100.0 PL=0
MOVS C00908 V=100.0 PL=0
MOVL C00909 V=100.0 PL=0
MOVS C00910 V=100.0 PL=0
MOVS C00911 V=100.0 PL=0
MOVS C00912 V=100.0 PL=0
MOVL C00913 V=100.0 PL=0
MOVL C00914 V=100.0 PL=0
MOVS C00915 V=100.0 PL=0
MOVS C00916 V=100.0 PL=0
MOVS C00917 V=100.0 PL=0
MOVS C00918 V=100.0 PL=0
MOVL C00919 V=100.0 PL=0
MOVL C00920 V=100.0 PL=0
MOVS C00921 V=100.0 PL=0
MOVS C00922 V=100.0 PL=0
MOVS C00923 V=100.0 PL=0
MOVL C00924 V=100.0 PL=0
MOVL C00925 V=100.0 PL=0
MOVL C00926 V=100.0 PL=0
MOVS C00927 V=100.0 PL=0
MOVS C00928 V=100.0 PL=0
MOVS C00929 V=100.0 PL=0
MOVS C00930 V=100.0 PL=0
MOVS C00931 V=100.0 PL=0
MOVS C00932 V=100.0 PL=0
MOVS C00933 V=100.0 PL=0
MOVS C00934 V=100.0 PL=0
MOVL C00935 V=100.0 PL=0
MOVS C00936 V=100.0 PL=0
MOVS C00937 V=100.0 PL=0
MOVS C00938 V=100.0 PL=0
MOVL C00939 V=100.0 PL=0
MOVL C00940 V=100.0 PL=0
MOVS C00941 V=100.0 PL=0
MOVS C00942 V=100.0 PL=0
MOVS C00943 V=100.0 PL=0
MOVS C00944 V=100.0 PL=0
MOVL C00945 V=100.0 PL=0
MOVL C00946 V=100.0 PL=0
MOVS C00947 V=100.0 PL=0
MOVS C00948 V=100.0 PL=0
MOVS C00949 V=100.0 PL=0
MOVL C00950 V=100.0 PL=0
MOVL C00951 V=100.0 PL=0
MOVL C00952 V=100.0 PL=0
MOVS C00953 V=100.0 PL=0
MOVS C00954 V=100.0 PL=0
MOVS C00955 V=100.0 PL=0
MOVS C00956 V=100.0 PL=0
MOVS C00957 V=100.0 PL=0
MOVS C00958 V=100.0 PL=0
MOVS C00959 V=100.0 PL=0
MOVS C00960 V=100.0 PL=0
MOVL C00961 V=100.0 PL=0
MOVS C00962 V=100.0 PL=0
MOVS C00963 V=100.0 PL=0
MOVS C00964 V=100.0 PL=0
MOVL C00965 V=100.0 PL=0
MOVL C00966 V=100.0 PL=0
MOVS C00967 V=100.0 PL=0
MOVS C00968 V=100.0 PL=0
MOVS C00969 V=100.0 PL=0
MOVS C00970 V=100.0 PL=0
MOVL C00971 V=100.0 PL=0
MOVL C00972 V=100.0 PL=0
MOVS C00973 V=100.0 PL=0
MOVS C00974 V=100.0 PL=0
MOVS C00975 V=100.0 PL=0
MOVL C00976 V=100.0 PL=0
MOVL C00977 V=100.0 PL=0
MOVL C00978 V=100.0 PL=0
MOVS C00979 V=100.0 PL=0
MOVS C00980 V=100.0 PL=0
MOVS C00981 V=100.0 PL=0
MOVS C00982 V=100.0 PL=0
MOVS C00983 V=100.0 PL=0
MOVS C00984 V=100.0 PL=0
MOVS C00985 V=100.0 PL=0
MOVS C00986 V=100.0 PL=0
MOVL C00987 V=100.0 PL=0
MOVS C00988 V=100.0 PL=0
MOVS C00989 V=100.0 PL=0
MOVS C00990 V=100.0 PL=0
MOVL C00991 V=100.0 PL=0
MOVL C00992 V=100.0 PL=0
MOVS C00993 V=100.0 PL=0
MOVS C00994 V=100.0 PL=0
MOVS C00995 V=100.0 PL=0
MOVS C00996 V=100.0 PL=0
MOVL C00997 V=100.0 PL=0
MOVL C00998 V=100.0 PL=0
MOVS C00999 V=100.0 PL=0
MOVS C01000 V=100.0 PL=0
MOVS C01001 V=100.0 PL=0
MOVL C01002 V=100.0 PL=0
MOVL C01003 V=100.0 PL=0
MOVL C01004 V=100.0 PL=0
MOVS C01005 V=100.0 PL=0
MOVS C01006 V=100.0 PL=0
MOVS C01007 V=100.0 PL=0
MOVS C01008 V=100.0 PL=0
MOVS C01009 V=100.0 PL=0
MOVS C01010 V=100.0 PL=0
MOVS C01011 V=100.0 PL=0
MOVS C01012 V=100.0 PL=0
MOVL C01013 V=100.0 PL=0
MOVS C01014 V=100.0 PL=0
MOVS C01015 V=100.0 PL=0
MOVS C01016 V=100.0 PL=0
MOVL C01017 V=100.0 PL=0
MOVL C01018 V=100.0 PL=0
MOVL C01019 V=100.0 PL=0
MOVL C01020 V=100.0 PL=0
MOVL C01021 V=100.0 PL=0
MOVS C01022 V=100.0 PL=0
MOVS C01023 V=100.0 PL=0
MOVS C01024 V=100.0 PL=0
MOVL C01025 V=100.0 PL=0
MOVL C01026 V=100.0 PL=0
MOVL C01027 V=100.0 PL=0
MOVS C01028 V=100.0 PL=0
MOVS C01029 V=100.0 PL=0
MOVS C01030 V=100.0 PL=0
MOVL C01031 V=100.0 PL=0
MOVL C01032 V=100.0 PL=0
MOVL C01033 V=100.0 PL=0
MOVS C01034 V=100.0 PL=0
MOVS C01035 V=100.0 PL=0
MOVS C01036 V=100.0 PL=0
MOVS C01037 V=100.0 PL=0
MOVS C01038 V=100.0 PL=0
MOVS C01039 V=100.0 PL=0
MOVS C01040 V=100.0 PL=0
MOVS C01041 V=100.0 PL=0
MOVL C01042 V=100.0 PL=0
MOVS C01043 V=100.0 PL=0
MOVS C01044 V=100.0 PL=0
MOVS C01045 V=100.0 PL=0
MOVL C01046 V=100.0 PL=0
MOVL C01047 V=100.0 PL=0
MOVS C01048 V=100.0 PL=0
MOVS C01049 V=100.0 PL=0
MOVS C01050 V=100.0 PL=0
MOVS C01051 V=100.0 PL=0
MOVL C01052 V=100.0 PL=0
MOVL C01053 V=100.0 PL=0
MOVS C01054 V=100.0 PL=0
MOVS C01055 V=100.0 PL=0
MOVS C01056 V=100.0 PL=0
MOVL C01057 V=100.0 PL=0
MOVL C01058 V=100.0 PL=0
MOVL C01059 V=100.0 PL=0
MOVS C01060 V=100.0 PL=0
MOVS C01061 V=100.0 PL=0
MOVS C01062 V=100.0 PL=0
MOVS C01063 V=100.0 PL=0
MOVS C01064 V=100.0 PL=0
MOVS C01065 V=100.0 PL=0
MOVS C01066 V=100.0 PL=0
MOVS C01067 V=100.0 PL=0
MOVL C01068 V=100.0 PL=0
MOVS C01069 V=100.0 PL=0
MOVS C01070 V=100.0 PL=0
MOVS C01071 V=100.0 PL=0
MOVL C01072 V=100.0 PL=0
MOVL C01073 V=100.0 PL=0
MOVS C01074 V=100.0 PL=0
MOVS C01075 V=100.0 PL=0
MOVS C01076 V=100.0 PL=0
MOVS C01077 V=100.0 PL=0
MOVL C01078 V=100.0 PL=0
MOVL C01079 V=100.0 PL=0
MOVS C01080 V=100.0 PL=0
MOVS C01081 V=100.0 PL=0
MOVS C01082 V=100.0 PL=0
MOVL C01083 V=100.0 PL=0
MOVL C01084 V=100.0 PL=0
MOVL C01085 V=100.0 PL=0
MOVS C01086 V=100.0 PL=0
MOVS C01087 V=100.0 PL=0
MOVS C01088 V=100.0 PL=0
MOVS C01089 V=100.0 PL=0
MOVS C01090 V=100.0 PL=0
MOVS C01091 V=100.0 PL=0
MOVS C01092 V=100.0 PL=0
MOVS C01093 V=100.0 PL=0
MOVL C01094 V=100.0 PL=0
MOVS C01095 V=100.0 PL=0
MOVS C01096 V=100.0 PL=0
MOVS C01097 V=100.0 PL=0
MOVL C01098 V=100.0 PL=0
MOVL C01099 V=100.0 PL=0
MOVS C01100 V=100.0 PL=0
MOVS C01101 V=100.0 PL=0
MOVS C01102 V=100.0 PL=0
MOVS C01103 V=100.0 PL=0
MOVL C01104 V=100.0 PL=0
MOVL C01105 V=100.0 PL=0
MOVS C01106 V=100.0 PL=0
MOVS C01107 V=100.0 PL=0
MOVS C01108 V=100.0 PL=0
MOVL C01109 V=100.0 PL=0
MOVL C01110 V=100.0 PL=0
MOVL C01111 V=100.0 PL=0
MOVS C01112 V=100.0 PL=0
MOVS C01113 V=100.0 PL=0
MOVS C01114 V=100.0 PL=0
MOVS C01115 V=100.0 PL=0
MOVS C01116 V=100.0 PL=0
MOVS C01117 V=100.0 PL=0
MOVS C01118 V=100.0 PL=0
MOVS C01119 V=100.0 PL=0
MOVL C01120 V=100.0 PL=0
MOVS C01121 V=100.0 PL=0
MOVS C01122 V=100.0 PL=0
MOVS C01123 V=100.0 PL=0
MOVL C01124 V=100.0 PL=0
MOVL C01125 V=100.0 PL=0
MOVS C01126 V=100.0 PL=0
MOVS C01127 V=100.0 PL=0
MOVS C01128 V=100.0 PL=0
MOVS C01129 V=100.0 PL=0
MOVL C01130 V=100.0 PL=0
MOVL C01131 V=100.0 PL=0
MOVS C01132 V=100.0 PL=0
MOVS C01133 V=100.0 PL=0
MOVS C01134 V=100.0 PL=0
MOVL C01135 V=100.0 PL=0
MOVL C01136 V=100.0 PL=0
MOVL C01137 V=100.0 PL=0
MOVS C01138 V=100.0 PL=0
MOVS C01139 V=100.0 PL=0
MOVS C01140 V=100.0 PL=0
MOVS C01141 V=100.0 PL=0
MOVS C01142 V=100.0 PL=0
MOVS C01143 V=100.0 PL=0
MOVS C01144 V=100.0 PL=0
MOVS C01145 V=100.0 PL=0
MOVL C01146 V=100.0 PL=0
MOVS C01147 V=100.0 PL=0
MOVS C01148 V=100.0 PL=0
MOVS C01149 V=100.0 PL=0
MOVL C01150 V=100.0 PL=0
MOVL C01151 V=100.0 PL=0
MOVS C01152 V=100.0 PL=0
MOVS C01153 V=100.0 PL=0
MOVS C01154 V=100.0 PL=0
MOVS C01155 V=100.0 PL=0
MOVL C01156 V=100.0 PL=0
MOVL C01157 V=100.0 PL=0
MOVS C01158 V=100.0 PL=0
MOVS C01159 V=100.0 PL=0
MOVS C01160 V=100.0 PL=0
MOVL C01161 V=100.0 PL=0
MOVL C01162 V=100.0 PL=0
MOVL C01163 V=100.0 PL=0
MOVS C01164 V=100.0 PL=0
MOVS C01165 V=100.0 PL=0
MOVS C01166 V=100.0 PL=0
MOVS C01167 V=100.0 PL=0
MOVS C01168 V=100.0 PL=0
MOVS C01169 V=100.0 PL=0
MOVS C01170 V=100.0 PL=0
MOVS C01171 V=100.0 PL=0
MOVL C01172 V=100.0 PL=0
MOVS C01173 V=100.0 PL=0
MOVS C01174 V=100.0 PL=0
MOVS C01175 V=100.0 PL=0
MOVL C01176 V=100.0 PL=0
MOVL C01177 V=100.0 PL=0
MOVS C01178 V=100.0 PL=0
MOVS C01179 V=100.0 PL=0
MOVS C01180 V=100.0 PL=0
MOVS C01181 V=100.0 PL=0
MOVL C01182 V=100.0 PL=0
MOVL C01183 V=100.0 PL=0
MOVS C01184 V=100.0 PL=0
MOVS C01185 V=100.0 PL=0
MOVS C01186 V=100.0 PL=0
MOVL C01187 V=100.0 PL=0
MOVL C01188 V=100.0 PL=0
MOVL C01189 V=100.0 PL=0
MOVS C01190 V=100.0 PL=0
MOVS C01191 V=100.0 PL=0
MOVS C01192 V=100.0 PL=0
MOVS C01193 V=100.0 PL=0
MOVS C01194 V=100.0 PL=0
MOVS C01195 V=100.0 PL=0
MOVS C01196 V=100.0 PL=0
MOVS C01197 V=100.0 PL=0
MOVL C01198 V=100.0 PL=0
MOVS C01199 V=100.0 PL=0
MOVS C01200 V=100.0 PL=0
MOVS C01201 V=100.0 PL=0
MOVL C01202 V=100.0 PL=0
MOVL C01203 V=100.0 PL=0
MOVS C01204 V=100.0 PL=0
MOVS C01205 V=100.0 PL=0
MOVS C01206 V=100.0 PL=0
MOVS C01207 V=100.0 PL=0
MOVL C01208 V=100.0 PL=0
MOVL C01209 V=100.0 PL=0
MOVS C01210 V=100.0 PL=0
MOVS C01211 V=100.0 PL=0
MOVS C01212 V=100.0 PL=0
MOVL C01213 V=100.0 PL=0
MOVL C01214 V=100.0 PL=0
MOVL C01215 V=100.0 PL=0
MOVS C01216 V=100.0 PL=0
MOVS C01217 V=100.0 PL=0
MOVS C01218 V=100.0 PL=0
MOVS C01219 V=100.0 PL=0
MOVS C01220 V=100.0 PL=0
MOVS C01221 V=100.0 PL=0
MOVS C01222 V=100.0 PL=0
MOVS C01223 V=100.0 PL=0
MOVL C01224 V=100.0 PL=0
MOVS C01225 V=100.0 PL=0
MOVS C01226 V=100.0 PL=0
MOVS C01227 V=100.0 PL=0
MOVL C01228 V=100.0 PL=0
MOVL C01229 V=100.0 PL=0
MOVS C01230 V=100.0 PL=0
MOVS C01231 V=100.0 PL=0
MOVS C01232 V=100.0 PL=0
MOVS C01233 V=100.0 PL=0
MOVL C01234 V=100.0 PL=0
MOVL C01235 V=100.0 PL=0
MOVS C01236 V=100.0 PL=0
MOVS C01237 V=100.0 PL=0
MOVS C01238 V=100.0 PL=0
MOVL C01239 V=100.0 PL=0
MOVL C01240 V=100.0 PL=0
MOVL C01241 V=100.0 PL=0
MOVS C01242 V=100.0 PL=0
MOVS C01243 V=100.0 PL=0
MOVS C01244 V=100.0 PL=0
MOVS C01245 V=100.0 PL=0
MOVS C01246 V=100.0 PL=0
MOVS C01247 V=100.0 PL=0
MOVS C01248 V=100.0 PL=0
MOVS C01249 V=100.0 PL=0
MOVL C01250 V=100.0 PL=0
MOVS C01251 V=100.0 PL=0
MOVS C01252 V=100.0 PL=0
MOVS C01253 V=100.0 PL=0
MOVL C01254 V=100.0 PL=0
MOVL C01255 V=100.0 PL=0
MOVS C01256 V=100.0 PL=0
MOVS C01257 V=100.0 PL=0
MOVS C01258 V=100.0 PL=0
MOVS C01259 V=100.0 PL=0
MOVL C01260 V=100.0 PL=0
MOVL C01261 V=100.0 PL=0
MOVS C01262 V=100.0 PL=0
MOVS C01263 V=100.0 PL=0
MOVS C01264 V=100.0 PL=0
MOVL C01265 V=100.0 PL=0
MOVL C01266 V=100.0 PL=0
MOVL C01267 V=100.0 PL=0
MOVS C01268 V=100.0 PL=0
MOVS C01269 V=100.0 PL=0
MOVS C01270 V=100.0 PL=0
MOVS C01271 V=100.0 PL=0
MOVS C01272 V=100.0 PL=0
MOVS C01273 V=100.0 PL=0
MOVS C01274 V=100.0 PL=0
MOVS C01275 V=100.0 PL=0
MOVL C01276 V=100.0 PL=0
MOVS C01277 V=100.0 PL=0
MOVS C01278 V=100.0 PL=0
