/JOB
//NAME output
//POS
///NPOS 1745,0,0,0,0,0
///TOOL 10
///POSTYPE PULSE
///PULSE
///TOOL 10
///POSTYPE BASE
///RECTAN
///RCONF 0,0,0,0,0,0,0,0
C00000=500.000,500.000,500.000,-180.00,0.00,0.00
C00001=408.780,500.001,1.200,-180.00,0.00,0.00
C00002=454.391,579.000,1.200,-180.00,0.00,0.00
C00003=545.609,579.000,1.200,-180.00,0.00,0.00
C00004=591.220,500.001,1.200,-180.00,0.00,0.00
C00005=545.609,421.001,1.200,-180.00,0.00,0.00
C00006=454.391,421.001,1.200,-180.00,0.00,0.00
C00007=408.780,500.001,1.200,-180.00,0.00,0.00
C00008=409.217,500.758,1.200,-180.00,0.00,0.00
C00009=411.909,500.000,1.200,-180.00,0.00,0.00
C00010=410.976,500.002,1.200,-180.00,0.00,0.00
C00011=455.489,577.099,1.200,-180.00,0.00,0.00
C00012=544.511,577.099,1.200,-180.00,0.00,0.00
C00013=589.024,500.001,1.200,-180.00,0.00,0.00
C00014=544.511,422.902,1.200,-180.00,0.00,0.00
C00015=455.489,422.902,1.200,-180.00,0.00,0.00
C00016=410.976,500.002,1.200,-180.00,0.00,0.00
C00017=411.909,500.000,1.200,-180.00,0.00,0.00
C00018=457.304,576.098,1.200,-180.00,0.00,0.00
C00019=454.372,573.166,1.200,-180.00,0.00,0.00
C00020=454.019,572.813,1.200,-180.00,0.00,0.00
C00021=460.132,576.098,1.200,-180.00,0.00,0.00
C00022=450.509,566.474,1.200,-180.00,0.00,0.00
C00023=450.156,566.121,1.200,-180.00,0.00,0.00
C00024=446.645,559.782,1.200,-180.00,0.00,0.00
C00025=462.961,576.098,1.200,-180.00,0.00,0.00
C00026=465.789,576.098,1.200,-180.00,0.00,0.00
C00027=442.781,553.090,1.200,-180.00,0.00,0.00
C00028=442.428,552.737,1.200,-180.00,0.00,0.00
C00029=438.918,546.398,1.200,-180.00,0.00,0.00
C00030=468.618,576.098,1.200,-180.00,0.00,0.00
C00031=471.446,576.098,1.200,-180.00,0.00,0.00
C00032=435.053,539.705,1.200,-180.00,0.00,0.00
C00033=434.700,539.352,1.200,-180.00,0.00,0.00
C00034=431.190,533.013,1.200,-180.00,0.00,0.00
C00035=474.274,576.098,1.200,-180.00,0.00,0.00
C00036=477.103,576.098,1.200,-180.00,0.00,0.00
C00037=427.326,526.321,1.200,-180.00,0.00,0.00
C00038=426.973,525.968,1.200,-180.00,0.00,0.00
C00039=423.462,519.629,1.200,-180.00,0.00,0.00
C00040=479.931,576.098,1.200,-180.00,0.00,0.00
C00041=482.760,576.098,1.200,-180.00,0.00,0.00
C00042=419.599,512.937,1.200,-180.00,0.00,0.00
C00043=419.246,512.584,1.200,-180.00,0.00,0.00
C00044=415.735,506.245,1.200,-180.00,0.00,0.00
C00045=485.588,576.098,1.200,-180.00,0.00,0.00
C00046=488.417,576.098,1.200,-180.00,0.00,0.00
C00047=412.200,499.881,1.200,-180.00,0.00,0.00
C00048=413.235,498.088,1.200,-180.00,0.00,0.00
C00049=491.245,576.098,1.200,-180.00,0.00,0.00
C00050=494.073,576.098,1.200,-180.00,0.00,0.00
C00051=414.270,496.294,1.200,-180.00,0.00,0.00
C00052=415.305,494.501,1.200,-180.00,0.00,0.00
C00053=496.902,576.098,1.200,-180.00,0.00,0.00
C00054=499.730,576.098,1.200,-180.00,0.00,0.00
C00055=416.340,492.708,1.200,-180.00,0.00,0.00
C00056=417.376,490.915,1.200,-180.00,0.00,0.00
C00057=502.559,576.098,1.200,-180.00,0.00,0.00
C00058=505.387,576.098,1.200,-180.00,0.00,0.00
C00059=418.411,489.122,1.200,-180.00,0.00,0.00
C00060=419.446,487.328,1.200,-180.00,0.00,0.00
C00061=508.216,576.098,1.200,-180.00,0.00,0.00
C00062=511.044,576.098,1.200,-180.00,0.00,0.00
C00063=420.481,485.535,1.200,-180.00,0.00,0.00
C00064=421.516,483.742,1.200,-180.00,0.00,0.00
C00065=513.872,576.098,1.200,-180.00,0.00,0.00
C00066=516.701,576.098,1.200,-180.00,0.00,0.00
C00067=422.552,481.949,1.200,-180.00,0.00,0.00
C00068=423.587,480.155,1.200,-180.00,0.00,0.00
C00069=519.529,576.098,1.200,-180.00,0.00,0.00
C00070=522.358,576.098,1.200,-180.00,0.00,0.00
C00071=424.622,478.362,1.200,-180.00,0.00,0.00
C00072=425.658,476.570,1.200,-180.00,0.00,0.00
C00073=525.186,576.098,1.200,-180.00,0.00,0.00
C00074=528.015,576.098,1.200,-180.00,0.00,0.00
C00075=426.693,474.776,1.200,-180.00,0.00,0.00
C00076=427.728,472.983,1.200,-180.00,0.00,0.00
C00077=530.843,576.098,1.200,-180.00,0.00,0.00
C00078=533.671,576.098,1.200,-180.00,0.00,0.00
C00079=428.764,471.190,1.200,-180.00,0.00,0.00
C00080=429.799,469.397,1.200,-180.00,0.00,0.00
C00081=536.500,576.098,1.200,-180.00,0.00,0.00
C00082=539.328,576.098,1.200,-180.00,0.00,0.00
C00083=430.834,467.604,1.200,-180.00,0.00,0.00
C00084=431.869,465.810,1.200,-180.00,0.00,0.00
C00085=542.157,576.098,1.200,-180.00,0.00,0.00
C00086=544.318,575.431,1.200,-180.00,0.00,0.00
C00087=432.904,464.017,1.200,-180.00,0.00,0.00
C00088=433.940,462.224,1.200,-180.00,0.00,0.00
C00089=545.353,573.638,1.200,-180.00,0.00,0.00
C00090=546.389,571.845,1.200,-180.00,0.00,0.00
C00091=434.975,460.431,1.200,-180.00,0.00,0.00
C00092=436.010,458.637,1.200,-180.00,0.00,0.00
C00093=547.424,570.051,1.200,-180.00,0.00,0.00
C00094=548.460,568.259,1.200,-180.00,0.00,0.00
C00095=437.045,456.844,1.200,-180.00,0.00,0.00
C00096=438.080,455.051,1.200,-180.00,0.00,0.00
C00097=549.495,566.466,1.200,-180.00,0.00,0.00
C00098=550.530,564.672,1.200,-180.00,0.00,0.00
C00099=439.116,453.258,1.200,-180.00,0.00,0.00
C00100=440.152,451.465,1.200,-180.00,0.00,0.00
C00101=551.565,562.879,1.200,-180.00,0.00,0.00
C00102=552.601,561.086,1.200,-180.00,0.00,0.00
C00103=441.187,449.672,1.200,-180.00,0.00,0.00
C00104=442.222,447.879,1.200,-180.00,0.00,0.00
C00105=553.636,559.293,1.200,-180.00,0.00,0.00
C00106=554.671,557.499,1.200,-180.00,0.00,0.00
C00107=443.257,446.086,1.200,-180.00,0.00,0.00
C00108=444.292,444.292,1.200,-180.00,0.00,0.00
C00109=555.706,555.706,1.200,-180.00,0.00,0.00
C00110=556.741,553.913,1.200,-180.00,0.00,0.00
C00111=445.328,442.499,1.200,-180.00,0.00,0.00
C00112=446.363,440.706,1.200,-180.00,0.00,0.00
C00113=557.777,552.120,1.200,-180.00,0.00,0.00
C00114=558.813,550.327,1.200,-180.00,0.00,0.00
C00115=447.398,438.913,1.200,-180.00,0.00,0.00
C00116=448.433,437.119,1.200,-180.00,0.00,0.00
C00117=559.848,548.534,1.200,-180.00,0.00,0.00
C00118=560.883,546.741,1.200,-180.00,0.00,0.00
C00119=449.468,435.326,1.200,-180.00,0.00,0.00
C00120=450.504,433.533,1.200,-180.00,0.00,0.00
C00121=561.918,544.948,1.200,-180.00,0.00,0.00
C00122=562.953,543.154,1.200,-180.00,0.00,0.00
C00123=451.539,431.740,1.200,-180.00,0.00,0.00
C00124=452.574,429.947,1.200,-180.00,0.00,0.00
C00125=563.989,541.361,1.200,-180.00,0.00,0.00
C00126=565.024,539.568,1.200,-180.00,0.00,0.00
C00127=453.609,428.153,1.200,-180.00,0.00,0.00
C00128=454.645,426.361,1.200,-180.00,0.00,0.00
C00129=566.060,537.775,1.200,-180.00,0.00,0.00
C00130=567.095,535.982,1.200,-180.00,0.00,0.00
C00131=455.680,424.568,1.200,-180.00,0.00,0.00
C00132=457.843,423.902,1.200,-180.00,0.00,0.00
C00133=568.130,534.189,1.200,-180.00,0.00,0.00
C00134=569.165,532.396,1.200,-180.00,0.00,0.00
C00135=460.671,423.902,1.200,-180.00,0.00,0.00
C00136=463.500,423.902,1.200,-180.00,0.00,0.00
C00137=570.201,530.603,1.200,-180.00,0.00,0.00
C00138=571.236,528.809,1.200,-180.00,0.00,0.00
C00139=466.328,423.902,1.200,-180.00,0.00,0.00
C00140=469.156,423.902,1.200,-180.00,0.00,0.00
C00141=572.271,527.016,1.200,-180.00,0.00,0.00
C00142=573.306,525.223,1.200,-180.00,0.00,0.00
C00143=471.985,423.902,1.200,-180.00,0.00,0.00
C00144=474.813,423.902,1.200,-180.00,0.00,0.00
C00145=574.341,523.430,1.200,-180.00,0.00,0.00
C00146=575.377,521.637,1.200,-180.00,0.00,0.00
C00147=477.642,423.902,1.200,-180.00,0.00,0.00
C00148=480.470,423.902,1.200,-180.00,0.00,0.00
C00149=576.412,519.844,1.200,-180.00,0.00,0.00
C00150=577.448,518.051,1.200,-180.00,0.00,0.00
C00151=483.298,423.902,1.200,-180.00,0.00,0.00
C00152=486.127,423.902,1.200,-180.00,0.00,0.00
C00153=578.483,516.257,1.200,-180.00,0.00,0.00
C00154=579.518,514.464,1.200,-180.00,0.00,0.00
C00155=488.955,423.902,1.200,-180.00,0.00,0.00
C00156=491.784,423.902,1.200,-180.00,0.00,0.00
C00157=580.553,512.671,1.200,-180.00,0.00,0.00
C00158=581.588,510.878,1.200,-180.00,0.00,0.00
C00159=494.612,423.902,1.200,-180.00,0.00,0.00
C00160=497.441,423.902,1.200,-180.00,0.00,0.00
C00161=582.624,509.085,1.200,-180.00,0.00,0.00
C00162=583.659,507.291,1.200,-180.00,0.00,0.00
C00163=500.269,423.902,1.200,-180.00,0.00,0.00
C00164=503.097,423.902,1.200,-180.00,0.00,0.00
C00165=584.695,505.499,1.200,-180.00,0.00,0.00
C00166=585.730,503.706,1.200,-180.00,0.00,0.00
C00167=505.926,423.902,1.200,-180.00,0.00,0.00
C00168=508.754,423.902,1.200,-180.00,0.00,0.00
C00169=586.765,501.912,1.200,-180.00,0.00,0.00
C00170=587.800,500.119,1.200,-180.00,0.00,0.00
C00171=511.583,423.902,1.200,-180.00,0.00,0.00
C00172=514.411,423.902,1.200,-180.00,0.00,0.00
C00173=584.260,493.750,1.200,-180.00,0.00,0.00
C00174=584.613,494.103,1.200,-180.00,0.00,0.00
C00175=580.396,487.058,1.200,-180.00,0.00,0.00
C00176=517.240,423.902,1.200,-180.00,0.00,0.00
C00177=520.068,423.902,1.200,-180.00,0.00,0.00
C00178=576.533,480.366,1.200,-180.00,0.00,0.00
C00179=576.886,480.719,1.200,-180.00,0.00,0.00
C00180=572.669,473.674,1.200,-180.00,0.00,0.00
C00181=522.896,423.902,1.200,-180.00,0.00,0.00
C00182=525.725,423.902,1.200,-180.00,0.00,0.00
C00183=568.805,466.982,1.200,-180.00,0.00,0.00
C00184=569.158,467.335,1.200,-180.00,0.00,0.00
C00185=564.942,460.290,1.200,-180.00,0.00,0.00
C00186=528.553,423.902,1.200,-180.00,0.00,0.00
C00187=531.382,423.902,1.200,-180.00,0.00,0.00
C00188=561.078,453.598,1.200,-180.00,0.00,0.00
C00189=561.431,453.951,1.200,-180.00,0.00,0.00
C00190=557.214,446.906,1.200,-180.00,0.00,0.00
C00191=534.210,423.902,1.200,-180.00,0.00,0.00
C00192=537.039,423.902,1.200,-180.00,0.00,0.00
C00193=553.351,440.214,1.200,-180.00,0.00,0.00
C00194=553.704,440.567,1.200,-180.00,0.00,0.00
C00195=549.487,433.522,1.200,-180.00,0.00,0.00
C00196=539.867,423.902,1.200,-180.00,0.00,0.00
C00197=542.695,423.902,1.200,-180.00,0.00,0.00
C00198=545.624,426.830,1.200,-180.00,0.00,0.00
C00199=545.977,427.183,1.200,-180.00,0.00,0.00
C00200=544.374,428.107,1.200,-180.00,0.00,0.00
C00201=544.374,428.107,2.400,-180.00,0.00,0.00
C00202=420.327,500.001,2.400,-180.00,0.00,0.00
C00203=440.246,534.500,2.400,-180.00,0.00,0.00
C00204=460.164,569.000,2.400,-180.00,0.00,0.00
C00205=539.836,569.000,2.400,-180.00,0.00,0.00
C00206=579.673,500.001,2.400,-180.00,0.00,0.00
C00207=539.836,431.001,2.400,-180.00,0.00,0.00
C00208=460.164,431.001,2.400,-180.00,0.00,0.00
C00209=420.327,500.001,2.400,-180.00,0.00,0.00
C00210=418.018,500.001,2.400,-180.00,0.00,0.00
C00211=438.514,535.500,2.400,-180.00,0.00,0.00
C00212=459.010,571.000,2.400,-180.00,0.00,0.00
C00213=540.990,571.000,2.400,-180.00,0.00,0.00
C00214=581.982,500.001,2.400,-180.00,0.00,0.00
C00215=540.990,429.001,2.400,-180.00,0.00,0.00
C00216=459.010,429.001,2.400,-180.00,0.00,0.00
C00217=418.018,500.001,2.400,-180.00,0.00,0.00
C00218=415.709,500.001,2.400,-180.00,0.00,0.00
C00219=436.782,536.500,2.400,-180.00,0.00,0.00
C00220=457.855,573.000,2.400,-180.00,0.00,0.00
C00221=542.145,573.000,2.400,-180.00,0.00,0.00
C00222=584.291,500.001,2.400,-180.00,0.00,0.00
C00223=542.145,427.001,2.400,-180.00,0.00,0.00
C00224=457.855,427.001,2.400,-180.00,0.00,0.00
C00225=415.709,500.001,2.400,-180.00,0.00,0.00
C00226=413.399,500.001,2.400,-180.00,0.00,0.00
C00227=435.050,537.500,2.400,-180.00,0.00,0.00
C00228=456.700,575.000,2.400,-180.00,0.00,0.00
C00229=543.300,575.000,2.400,-180.00,0.00,0.00
C00230=586.601,500.001,2.400,-180.00,0.00,0.00
C00231=543.300,425.001,2.400,-180.00,0.00,0.00
C00232=456.700,425.001,2.400,-180.00,0.00,0.00
C00233=413.399,500.001,2.400,-180.00,0.00,0.00
C00234=411.909,500.000,2.400,-180.00,0.00,0.00
C00235=411.090,500.001,2.400,-180.00,0.00,0.00
C00236=433.318,538.500,2.400,-180.00,0.00,0.00
C00237=455.546,577.000,2.400,-180.00,0.00,0.00
C00238=544.454,577.000,2.400,-180.00,0.00,0.00
C00239=588.910,500.001,2.400,-180.00,0.00,0.00
C00240=544.454,423.001,2.400,-180.00,0.00,0.00
C00241=455.546,423.001,2.400,-180.00,0.00,0.00
C00242=411.090,500.001,2.400,-180.00,0.00,0.00
C00243=411.909,500.000,2.400,-180.00,0.00,0.00
C00244=408.780,500.001,2.400,-180.00,0.00,0.00
C00245=431.586,539.500,2.400,-180.00,0.00,0.00
C00246=454.391,579.000,2.400,-180.00,0.00,0.00
C00247=545.609,579.000,2.400,-180.00,0.00,0.00
C00248=591.220,500.001,2.400,-180.00,0.00,0.00
C00249=545.609,421.001,2.400,-180.00,0.00,0.00
C00250=454.391,421.001,2.400,-180.00,0.00,0.00
C00251=408.780,500.001,2.400,-180.00,0.00,0.00
C00252=409.217,500.758,2.400,-180.00,0.00,0.00
C00253=411.909,500.000,2.400,-180.00,0.00,0.00
C00254=422.523,500.001,2.400,-180.00,0.00,0.00
C00255=461.263,567.100,2.400,-180.00,0.00,0.00
C00256=538.737,567.100,2.400,-180.00,0.00,0.00
C00257=577.477,500.002,2.400,-180.00,0.00,0.00
C00258=538.737,432.902,2.400,-180.00,0.00,0.00
C00259=461.263,432.902,2.400,-180.00,0.00,0.00
C00260=422.523,500.001,2.400,-180.00,0.00,0.00
C00261=462.709,433.901,2.400,-180.00,0.00,0.00
C00262=460.651,435.959,2.400,-180.00,0.00,0.00
C00263=465.537,433.901,2.400,-180.00,0.00,0.00
C00264=456.788,442.651,2.400,-180.00,0.00,0.00
C00265=456.435,443.004,2.400,-180.00,0.00,0.00
C00266=452.924,449.343,2.400,-180.00,0.00,0.00
C00267=468.366,433.901,2.400,-180.00,0.00,0.00
C00268=471.194,433.901,2.400,-180.00,0.00,0.00
C00269=449.060,456.035,2.400,-180.00,0.00,0.00
C00270=448.707,456.388,2.400,-180.00,0.00,0.00
C00271=445.197,462.727,2.400,-180.00,0.00,0.00
C00272=474.023,433.901,2.400,-180.00,0.00,0.00
C00273=476.851,433.901,2.400,-180.00,0.00,0.00
C00274=441.333,469.419,2.400,-180.00,0.00,0.00
C00275=440.980,469.772,2.400,-180.00,0.00,0.00
C00276=437.469,476.111,2.400,-180.00,0.00,0.00
C00277=479.680,433.901,2.400,-180.00,0.00,0.00
C00278=482.508,433.901,2.400,-180.00,0.00,0.00
C00279=433.606,482.804,2.400,-180.00,0.00,0.00
C00280=433.253,483.157,2.400,-180.00,0.00,0.00
C00281=429.742,489.496,2.400,-180.00,0.00,0.00
C00282=485.336,433.901,2.400,-180.00,0.00,0.00
C00283=488.165,433.901,2.400,-180.00,0.00,0.00
C00284=425.878,496.188,2.400,-180.00,0.00,0.00
C00285=425.525,496.541,2.400,-180.00,0.00,0.00
C00286=424.124,500.771,2.400,-180.00,0.00,0.00
C00287=490.993,433.901,2.400,-180.00,0.00,0.00
C00288=493.822,433.901,2.400,-180.00,0.00,0.00
C00289=425.159,502.564,2.400,-180.00,0.00,0.00
C00290=426.194,504.358,2.400,-180.00,0.00,0.00
C00291=496.650,433.901,2.400,-180.00,0.00,0.00
C00292=499.479,433.901,2.400,-180.00,0.00,0.00
C00293=427.229,506.151,2.400,-180.00,0.00,0.00
C00294=428.264,507.944,2.400,-180.00,0.00,0.00
C00295=502.307,433.901,2.400,-180.00,0.00,0.00
C00296=505.135,433.901,2.400,-180.00,0.00,0.00
C00297=429.300,509.737,2.400,-180.00,0.00,0.00
C00298=430.335,511.530,2.400,-180.00,0.00,0.00
C00299=507.964,433.901,2.400,-180.00,0.00,0.00
C00300=510.792,433.901,2.400,-180.00,0.00,0.00
C00301=431.371,513.323,2.400,-180.00,0.00,0.00
C00302=432.406,515.116,2.400,-180.00,0.00,0.00
C00303=513.621,433.901,2.400,-180.00,0.00,0.00
C00304=516.449,433.901,2.400,-180.00,0.00,0.00
C00305=433.441,516.909,2.400,-180.00,0.00,0.00
C00306=434.476,518.703,2.400,-180.00,0.00,0.00
C00307=519.278,433.901,2.400,-180.00,0.00,0.00
C00308=522.106,433.901,2.400,-180.00,0.00,0.00
C00309=435.512,520.496,2.400,-180.00,0.00,0.00
C00310=436.547,522.289,2.400,-180.00,0.00,0.00
C00311=524.934,433.901,2.400,-180.00,0.00,0.00
C00312=527.763,433.901,2.400,-180.00,0.00,0.00
C00313=437.582,524.082,2.400,-180.00,0.00,0.00
C00314=438.617,525.876,2.400,-180.00,0.00,0.00
C00315=530.591,433.901,2.400,-180.00,0.00,0.00
C00316=533.420,433.901,2.400,-180.00,0.00,0.00
C00317=439.652,527.669,2.400,-180.00,0.00,0.00
C00318=440.688,529.461,2.400,-180.00,0.00,0.00
C00319=536.248,433.901,2.400,-180.00,0.00,0.00
C00320=538.495,434.483,2.400,-180.00,0.00,0.00
C00321=441.723,531.254,2.400,-180.00,0.00,0.00
C00322=442.759,533.048,2.400,-180.00,0.00,0.00
C00323=539.530,436.277,2.400,-180.00,0.00,0.00
C00324=540.565,438.070,2.400,-180.00,0.00,0.00
C00325=443.794,534.841,2.400,-180.00,0.00,0.00
C00326=444.829,536.634,2.400,-180.00,0.00,0.00
C00327=541.600,439.863,2.400,-180.00,0.00,0.00
C00328=542.635,441.656,2.400,-180.00,0.00,0.00
C00329=445.864,538.427,2.400,-180.00,0.00,0.00
C00330=446.899,540.221,2.400,-180.00,0.00,0.00
C00331=543.671,443.449,2.400,-180.00,0.00,0.00
C00332=544.706,445.243,2.400,-180.00,0.00,0.00
C00333=447.935,542.014,2.400,-180.00,0.00,0.00
C00334=448.970,543.807,2.400,-180.00,0.00,0.00
C00335=545.741,447.036,2.400,-180.00,0.00,0.00
C00336=546.776,448.829,2.400,-180.00,0.00,0.00
C00337=450.006,545.600,2.400,-180.00,0.00,0.00
C00338=451.041,547.393,2.400,-180.00,0.00,0.00
C00339=547.811,450.622,2.400,-180.00,0.00,0.00
C00340=548.847,452.416,2.400,-180.00,0.00,0.00
C00341=452.076,549.186,2.400,-180.00,0.00,0.00
C00342=453.111,550.979,2.400,-180.00,0.00,0.00
C00343=549.882,454.209,2.400,-180.00,0.00,0.00
C00344=550.918,456.001,2.400,-180.00,0.00,0.00
C00345=454.147,552.772,2.400,-180.00,0.00,0.00
C00346=455.182,554.566,2.400,-180.00,0.00,0.00
C00347=551.953,457.795,2.400,-180.00,0.00,0.00
C00348=552.988,459.588,2.400,-180.00,0.00,0.00
C00349=456.217,556.359,2.400,-180.00,0.00,0.00
C00350=457.252,558.152,2.400,-180.00,0.00,0.00
C00351=554.023,461.381,2.400,-180.00,0.00,0.00
C00352=555.059,463.174,2.400,-180.00,0.00,0.00
C00353=458.287,559.945,2.400,-180.00,0.00,0.00
C00354=459.323,561.738,2.400,-180.00,0.00,0.00
C00355=556.094,464.967,2.400,-180.00,0.00,0.00
C00356=557.129,466.761,2.400,-180.00,0.00,0.00
C00357=460.359,563.531,2.400,-180.00,0.00,0.00
C00358=461.394,565.324,2.400,-180.00,0.00,0.00
C00359=558.164,468.554,2.400,-180.00,0.00,0.00
C00360=559.199,470.347,2.400,-180.00,0.00,0.00
C00361=463.448,566.099,2.400,-180.00,0.00,0.00
C00362=466.276,566.099,2.400,-180.00,0.00,0.00
C00363=560.235,472.140,2.400,-180.00,0.00,0.00
C00364=561.270,473.934,2.400,-180.00,0.00,0.00
C00365=469.105,566.099,2.400,-180.00,0.00,0.00
C00366=471.933,566.099,2.400,-180.00,0.00,0.00
C00367=562.305,475.727,2.400,-180.00,0.00,0.00
C00368=563.341,477.519,2.400,-180.00,0.00,0.00
C00369=474.762,566.099,2.400,-180.00,0.00,0.00
C00370=477.590,566.099,2.400,-180.00,0.00,0.00
C00371=564.376,479.313,2.400,-180.00,0.00,0.00
C00372=565.411,481.106,2.400,-180.00,0.00,0.00
C00373=480.418,566.099,2.400,-180.00,0.00,0.00
C00374=483.247,566.099,2.400,-180.00,0.00,0.00
C00375=566.446,482.899,2.400,-180.00,0.00,0.00
C00376=567.482,484.692,2.400,-180.00,0.00,0.00
C00377=486.075,566.099,2.400,-180.00,0.00,0.00
C00378=488.904,566.099,2.400,-180.00,0.00,0.00
C00379=568.517,486.485,2.400,-180.00,0.00,0.00
C00380=569.552,488.279,2.400,-180.00,0.00,0.00
C00381=491.732,566.099,2.400,-180.00,0.00,0.00
C00382=494.561,566.099,2.400,-180.00,0.00,0.00
C00383=570.587,490.072,2.400,-180.00,0.00,0.00
C00384=571.623,491.865,2.400,-180.00,0.00,0.00
C00385=497.389,566.099,2.400,-180.00,0.00,0.00
C00386=500.217,566.099,2.400,-180.00,0.00,0.00
C00387=572.658,493.658,2.400,-180.00,0.00,0.00
C00388=573.693,495.452,2.400,-180.00,0.00,0.00
C00389=503.046,566.099,2.400,-180.00,0.00,0.00
C00390=505.874,566.099,2.400,-180.00,0.00,0.00
C00391=574.728,497.245,2.400,-180.00,0.00,0.00
C00392=575.764,499.037,2.400,-180.00,0.00,0.00
C00393=508.703,566.099,2.400,-180.00,0.00,0.00
C00394=511.531,566.099,2.400,-180.00,0.00,0.00
C00395=574.533,503.097,2.400,-180.00,0.00,0.00
C00396=574.886,502.744,2.400,-180.00,0.00,0.00
C00397=570.669,509.789,2.400,-180.00,0.00,0.00
C00398=514.360,566.099,2.400,-180.00,0.00,0.00
C00399=517.188,566.099,2.400,-180.00,0.00,0.00
C00400=566.806,516.481,2.400,-180.00,0.00,0.00
C00401=567.159,516.128,2.400,-180.00,0.00,0.00
C00402=562.942,523.173,2.400,-180.00,0.00,0.00
C00403=520.016,566.099,2.400,-180.00,0.00,0.00
C00404=522.845,566.099,2.400,-180.00,0.00,0.00
C00405=559.078,529.865,2.400,-180.00,0.00,0.00
C00406=559.431,529.512,2.400,-180.00,0.00,0.00
C00407=555.215,536.557,2.400,-180.00,0.00,0.00
C00408=525.673,566.099,2.400,-180.00,0.00,0.00
C00409=528.502,566.099,2.400,-180.00,0.00,0.00
C00410=551.351,543.249,2.400,-180.00,0.00,0.00
C00411=551.704,542.896,2.400,-180.00,0.00,0.00
C00412=547.488,549.941,2.400,-180.00,0.00,0.00
C00413=531.330,566.099,2.400,-180.00,0.00,0.00
C00414=534.159,566.099,2.400,-180.00,0.00,0.00
C00415=543.624,556.633,2.400,-180.00,0.00,0.00
C00416=543.977,556.280,2.400,-180.00,0.00,0.00
C00417=539.760,563.325,2.400,-180.00,0.00,0.00
C00418=536.987,566.099,2.400,-180.00,0.00,0.00
C00419=536.987,566.099,3.600,-180.00,0.00,0.00
C00420=411.909,500.000,3.600,-180.00,0.00,0.00
C00421=408.779,500.000,3.600,-180.00,0.00,0.00
C00422=454.389,421.000,3.600,-180.00,0.00,0.00
C00423=545.611,421.000,3.600,-180.00,0.00,0.00
C00424=591.221,500.000,3.600,-180.00,0.00,0.00
C00425=545.611,579.000,3.600,-180.00,0.00,0.00
C00426=454.389,579.000,3.600,-180.00,0.00,0.00
C00427=408.779,500.000,3.600,-180.00,0.00,0.00
C00428=454.389,421.000,3.800,-180.00,0.00,0.00
C00429=545.611,421.000,4.000,-180.00,0.00,0.00
C00430=591.221,500.000,4.200,-180.00,0.00,0.00
C00431=545.611,579.000,4.400,-180.00,0.00,0.00
C00432=454.389,579.000,4.600,-180.00,0.00,0.00
C00433=408.779,500.000,4.800,-180.00,0.00,0.00
C00434=454.389,421.000,5.000,-180.00,0.00,0.00
C00435=545.611,421.000,5.200,-180.00,0.00,0.00
C00436=591.221,500.000,5.400,-180.00,0.00,0.00
C00437=545.611,579.000,5.600,-180.00,0.00,0.00
C00438=454.389,579.000,5.800,-180.00,0.00,0.00
C00439=408.779,500.000,6.000,-180.00,0.00,0.00
C00440=454.389,421.000,6.200,-180.00,0.00,0.00
C00441=545.611,421.000,6.400,-180.00,0.00,0.00
C00442=591.221,500.000,6.600,-180.00,0.00,0.00
C00443=545.611,579.000,6.800,-180.00,0.00,0.00
C00444=454.389,579.000,7.000,-180.00,0.00,0.00
C00445=408.779,500.000,7.200,-180.00,0.00,0.00
C00446=454.389,421.000,7.400,-180.00,0.00,0.00
C00447=545.611,421.000,7.600,-180.00,0.00,0.00
C00448=591.221,500.000,7.800,-180.00,0.00,0.00
C00449=545.611,579.000,8.000,-180.00,0.00,0.00
C00450=454.389,579.000,8.200,-180.00,0.00,0.00
C00451=408.779,500.000,8.400,-180.00,0.00,0.00
C00452=454.389,421.000,8.600,-180.00,0.00,0.00
C00453=545.611,421.000,8.800,-180.00,0.00,0.00
C00454=591.221,500.000,9.000,-180.00,0.00,0.00
C00455=545.611,579.000,9.200,-180.00,0.00,0.00
C00456=454.389,579.000,9.400,-180.00,0.00,0.00
C00457=408.779,500.000,9.600,-180.00,0.00,0.00
C00458=454.389,421.000,9.800,-180.00,0.00,0.00
C00459=545.611,421.000,10.000,-180.00,0.00,0.00
C00460=591.221,500.000,10.200,-180.00,0.00,0.00
C00461=545.611,579.000,10.400,-180.00,0.00,0.00
C00462=454.389,579.000,10.600,-180.00,0.00,0.00
C00463=408.779,500.000,10.800,-180.00,0.00,0.00
C00464=454.389,421.000,11.000,-180.00,0.00,0.00
C00465=545.611,421.000,11.200,-180.00,0.00,0.00
C00466=591.221,500.000,11.400,-180.00,0.00,0.00
C00467=545.611,579.000,11.600,-180.00,0.00,0.00
C00468=454.389,579.000,11.800,-180.00,0.00,0.00
C00469=408.779,500.000,12.000,-180.00,0.00,0.00
C00470=454.389,421.000,12.200,-180.00,0.00,0.00
C00471=545.611,421.000,12.400,-180.00,0.00,0.00
C00472=591.221,500.000,12.600,-180.00,0.00,0.00
C00473=545.611,579.000,12.800,-180.00,0.00,0.00
C00474=454.389,579.000,13.000,-180.00,0.00,0.00
C00475=408.779,500.000,13.200,-180.00,0.00,0.00
C00476=454.389,421.000,13.400,-180.00,0.00,0.00
C00477=545.611,421.000,13.600,-180.00,0.00,0.00
C00478=591.221,500.000,13.800,-180.00,0.00,0.00
C00479=545.611,579.000,14.000,-180.00,0.00,0.00
C00480=454.389,579.000,14.200,-180.00,0.00,0.00
C00481=408.779,500.000,14.400,-180.00,0.00,0.00
C00482=454.389,421.000,14.600,-180.00,0.00,0.00
C00483=545.611,421.000,14.800,-180.00,0.00,0.00
C00484=591.221,500.000,15.000,-180.00,0.00,0.00
C00485=545.611,579.000,15.200,-180.00,0.00,0.00
C00486=454.389,579.000,15.400,-180.00,0.00,0.00
C00487=408.779,500.000,15.600,-180.00,0.00,0.00
C00488=454.389,421.000,15.800,-180.00,0.00,0.00
C00489=545.611,421.000,16.000,-180.00,0.00,0.00
C00490=591.221,500.000,16.200,-180.00,0.00,0.00
C00491=545.611,579.000,16.400,-180.00,0.00,0.00
C00492=454.389,579.000,16.600,-180.00,0.00,0.00
C00493=408.779,500.000,16.800,-180.00,0.00,0.00
C00494=454.389,421.000,17.000,-180.00,0.00,0.00
C00495=545.611,421.000,17.200,-180.00,0.00,0.00
C00496=591.221,500.000,17.400,-180.00,0.00,0.00
C00497=545.611,579.000,17.600,-180.00,0.00,0.00
C00498=454.389,579.000,17.800,-180.00,0.00,0.00
C00499=408.779,500.000,18.000,-180.00,0.00,0.00
C00500=454.389,421.000,18.200,-180.00,0.00,0.00
C00501=545.611,421.000,18.400,-180.00,0.00,0.00
C00502=591.221,500.000,18.600,-180.00,0.00,0.00
C00503=545.611,579.000,18.800,-180.00,0.00,0.00
C00504=454.389,579.000,19.000,-180.00,0.00,0.00
C00505=408.779,500.000,19.200,-180.00,0.00,0.00
C00506=454.389,421.000,19.400,-180.00,0.00,0.00
C00507=545.611,421.000,19.600,-180.00,0.00,0.00
C00508=591.221,500.000,19.800,-180.00,0.00,0.00
C00509=545.611,579.000,20.000,-180.00,0.00,0.00
C00510=454.389,579.000,20.200,-180.00,0.00,0.00
C00511=408.779,500.000,20.400,-180.00,0.00,0.00
C00512=454.389,421.000,20.600,-180.00,0.00,0.00
C00513=545.611,421.000,20.800,-180.00,0.00,0.00
C00514=591.221,500.000,21.000,-180.00,0.00,0.00
C00515=545.611,579.000,21.200,-180.00,0.00,0.00
C00516=454.389,579.000,21.400,-180.00,0.00,0.00
C00517=408.779,500.000,21.600,-180.00,0.00,0.00
C00518=454.389,421.000,21.800,-180.00,0.00,0.00
C00519=545.611,421.000,22.000,-180.00,0.00,0.00
C00520=591.221,500.000,22.200,-180.00,0.00,0.00
C00521=545.611,579.000,22.400,-180.00,0.00,0.00
C00522=454.389,579.000,22.600,-180.00,0.00,0.00
C00523=408.779,500.000,22.800,-180.00,0.00,0.00
C00524=454.389,421.000,23.000,-180.00,0.00,0.00
C00525=5.000,421.000,23.000,-180.00,0.00,0.00
C00526=591.221,500.000,23.400,-180.00,0.00,0.00
C00527=545.611,579.000,23.600,-180.00,0.00,0.00
C00528=454.389,579.000,23.800,-180.00,0.00,0.00
C00529=408.779,500.000,24.000,-180.00,0.00,0.00
C00530=454.389,421.000,24.200,-180.00,0.00,0.00
C00531=545.611,421.000,24.400,-180.00,0.00,0.00
C00532=591.221,500.000,24.600,-180.00,0.00,0.00
C00533=545.611,579.000,24.800,-180.00,0.00,0.00
C00534=454.389,579.000,25.000,-180.00,0.00,0.00
C00535=408.779,500.000,25.200,-180.00,0.00,0.00
C00536=454.389,421.000,25.400,-180.00,0.00,0.00
C00537=545.611,421.000,25.600,-180.00,0.00,0.00
C00538=591.221,500.000,25.800,-180.00,0.00,0.00
C00539=545.611,579.000,26.000,-180.00,0.00,0.00
C00540=454.389,579.000,26.200,-180.00,0.00,0.00
C00541=408.779,500.000,26.400,-180.00,0.00,0.00
C00542=454.389,421.000,26.600,-180.00,0.00,0.00
C00543=545.611,421.000,26.800,-180.00,0.00,0.00
C00544=591.221,500.000,27.000,-180.00,0.00,0.00
C00545=545.611,579.000,27.200,-180.00,0.00,0.00
C00546=454.389,579.000,27.400,-180.00,0.00,0.00
C00547=408.779,500.000,27.600,-180.00,0.00,0.00
C00548=454.389,421.000,27.800,-180.00,0.00,0.00
C00549=545.611,421.000,28.000,-180.00,0.00,0.00
C00550=591.221,500.000,28.200,-180.00,0.00,0.00
C00551=545.611,579.000,28.400,-180.00,0.00,0.00
C00552=454.389,579.000,28.600,-180.00,0.00,0.00
C00553=408.779,500.000,28.800,-180.00,0.00,0.00
C00554=454.389,421.000,29.000,-180.00,0.00,0.00
C00555=545.611,421.000,29.200,-180.00,0.00,0.00
C00556=591.221,500.000,29.400,-180.00,0.00,0.00
C00557=545.611,579.000,29.600,-180.00,0.00,0.00
C00558=454.389,579.000,29.800,-180.00,0.00,0.00
C00559=408.779,500.000,30.000,-180.00,0.00,0.00
C00560=454.389,421.000,30.200,-180.00,0.00,0.00
C00561=545.611,421.000,30.400,-180.00,0.00,0.00
C00562=591.221,500.000,30.600,-180.00,0.00,0.00
C00563=545.611,579.000,30.800,-180.00,0.00,0.00
C00564=454.389,579.000,31.000,-180.00,0.00,0.00
C00565=408.779,500.000,31.200,-180.00,0.00,0.00
C00566=454.389,421.000,31.400,-180.00,0.00,0.00
C00567=545.611,421.000,31.600,-180.00,0.00,0.00
C00568=591.221,500.000,31.800,-180.00,0.00,0.00
C00569=545.611,579.000,32.000,-180.00,0.00,0.00
C00570=454.389,579.000,32.200,-180.00,0.00,0.00
C00571=408.779,500.000,32.400,-180.00,0.00,0.00
C00572=454.389,421.000,32.600,-180.00,0.00,0.00
C00573=545.611,421.000,32.800,-180.00,0.00,0.00
C00574=591.221,500.000,33.000,-180.00,0.00,0.00
C00575=545.611,579.000,33.200,-180.00,0.00,0.00
C00576=454.389,579.000,33.400,-180.00,0.00,0.00
C00577=408.779,500.000,33.600,-180.00,0.00,0.00
C00578=454.389,421.000,33.800,-180.00,0.00,0.00
C00579=545.611,421.000,34.000,-180.00,0.00,0.00
C00580=591.221,500.000,34.200,-180.00,0.00,0.00
C00581=545.611,579.000,34.400,-180.00,0.00,0.00
C00582=454.389,579.000,34.600,-180.00,0.00,0.00
C00583=408.779,500.000,34.800,-180.00,0.00,0.00
C00584=454.389,421.000,35.000,-180.00,0.00,0.00
C00585=545.611,421.000,35.200,-180.00,0.00,0.00
C00586=591.221,500.000,35.400,-180.00,0.00,0.00
C00587=545.611,579.000,35.600,-180.00,0.00,0.00
C00588=454.389,579.000,35.800,-180.00,0.00,0.00
C00589=408.779,500.000,36.000,-180.00,0.00,0.00
C00590=454.389,421.000,36.200,-180.00,0.00,0.00
C00591=545.611,421.000,36.400,-180.00,0.00,0.00
C00592=591.221,500.000,36.600,-180.00,0.00,0.00
C00593=545.611,579.000,36.800,-180.00,0.00,0.00
C00594=454.389,579.000,37.000,-180.00,0.00,0.00
C00595=408.779,500.000,37.200,-180.00,0.00,0.00
C00596=454.389,421.000,37.400,-180.00,0.00,0.00
C00597=545.611,421.000,37.600,-180.00,0.00,0.00
C00598=591.221,500.000,37.800,-180.00,0.00,0.00
C00599=545.611,579.000,38.000,-180.00,0.00,0.00
C00600=454.389,579.000,38.200,-180.00,0.00,0.00
C00601=408.779,500.000,38.400,-180.00,0.00,0.00
C00602=454.389,421.000,38.600,-180.00,0.00,0.00
C00603=545.611,421.000,38.800,-180.00,0.00,0.00
C00604=591.221,500.000,39.000,-180.00,0.00,0.00
C00605=545.611,579.000,39.200,-180.00,0.00,0.00
C00606=454.389,579.000,39.400,-180.00,0.00,0.00
C00607=408.779,500.000,39.600,-180.00,0.00,0.00
C00608=454.389,421.000,39.709,-180.00,0.00,0.00
C00609=545.611,421.000,39.818,-180.00,0.00,0.00
C00610=591.221,500.000,39.927,-180.00,0.00,0.00
C00611=545.611,579.000,40.036,-180.00,0.00,0.00
C00612=454.389,579.000,40.145,-180.00,0.00,0.00
C00613=408.779,500.000,40.255,-180.00,0.00,0.00
C00614=454.389,421.000,40.255,-180.00,0.00,0.00
C00615=545.611,421.000,40.255,-180.00,0.00,0.00
C00616=591.221,500.000,40.255,-180.00,0.00,0.00
C00617=545.611,579.000,40.255,-180.00,0.00,0.00
C00618=454.389,579.000,40.255,-180.00,0.00,0.00
NOP
MOVJ C00000 VJ=50.00 PL=0
MOVL C00001 V=100.0 PL=0
MOVL C00002 V=100.0 PL=0
MOVL C00003 V=100.0 PL=0
MOVL C00004 V=100.0 PL=0
MOVL C00005 V=100.0 PL=0
MOVL C00006 V=100.0 PL=0
MOVL C00007 V=100.0 PL=0
MOVL C00008 V=100.0 PL=0
MOVL C00009 V=100.0 PL=0
MOVL C00010 V=100.0 PL=0
MOVL C00011 V=100.0 PL=0
MOVL C00012 V=100.0 PL=0
MOVL C00013 V=100.0 PL=0
MOVL C00014 V=100.0 PL=0
MOVL C00015 V=100.0 PL=0
MOVL C00016 V=100.0 PL=0
MOVL C00017 V=100.0 PL=0
MOVL C00018 V=100.0 PL=0
MOVL C00019 V=100.0 PL=0
MOVL C00020 V=100.0 PL=0
MOVL C00021 V=100.0 PL=0
MOVL C00022 V=100.0 PL=0
MOVL C00023 V=100.0 PL=0
MOVL C00024 V=100.0 PL=0
MOVL C00025 V=100.0 PL=0
MOVL C00026 V=100.0 PL=0
MOVL C00027 V=100.0 PL=0
MOVL C00028 V=100.0 PL=0
MOVL C00029 V=100.0 PL=0
MOVL C00030 V=100.0 PL=0
MOVL C00031 V=100.0 PL=0
MOVL C00032 V=100.0 PL=0
MOVL C00033 V=100.0 PL=0
MOVL C00034 V=100.0 PL=0
MOVL C00035 V=100.0 PL=0
MOVL C00036 V=100.0 PL=0
MOVL C00037 V=100.0 PL=0
MOVL C00038 V=100.0 PL=0
MOVL C00039 V=100.0 PL=0
MOVL C00040 V=100.0 PL=0
MOVL C00041 V=100.0 PL=0
MOVL C00042 V=100.0 PL=0
MOVL C00043 V=100.0 PL=0
MOVL C00044 V=100.0 PL=0
MOVL C00045 V=100.0 PL=0
MOVL C00046 V=100.0 PL=0
MOVL C00047 V=100.0 PL=0
MOVL C00048 V=100.0 PL=0
MOVL C00049 V=100.0 PL=0
MOVL C00050 V=100.0 PL=0
MOVL C00051 V=100.0 PL=0
MOVL C00052 V=100.0 PL=0
MOVL C00053 V=100.0 PL=0
MOVL C00054 V=100.0 PL=0
MOVL C00055 V=100.0 PL=0
MOVL C00056 V=100.0 PL=0
MOVL C00057 V=100.0 PL=0
MOVL C00058 V=100.0 PL=0
MOVL C00059 V=100.0 PL=0
MOVL C00060 V=100.0 PL=0
MOVL C00061 V=100.0 PL=0
MOVL C00062 V=100.0 PL=0
MOVL C00063 V=100.0 PL=0
MOVL C00064 V=100.0 PL=0
MOVL C00065 V=100.0 PL=0
MOVL C00066 V=100.0 PL=0
MOVL C00067 V=100.0 PL=0
MOVL C00068 V=100.0 PL=0
MOVL C00069 V=100.0 PL=0
MOVL C00070 V=100.0 PL=0
MOVL C00071 V=100.0 PL=0
MOVL C00072 V=100.0 PL=0
MOVL C00073 V=100.0 PL=0
MOVL C00074 V=100.0 PL=0
MOVL C00075 V=100.0 PL=0
MOVL C00076 V=100.0 PL=0
MOVL C00077 V=100.0 PL=0
MOVL C00078 V=100.0 PL=0
MOVL C00079 V=100.0 PL=0
MOVL C00080 V=100.0 PL=0
MOVL C00081 V=100.0 PL=0
MOVL C00082 V=100.0 PL=0
MOVL C00083 V=100.0 PL=0
MOVL C00084 V=100.0 PL=0
MOVL C00085 V=100.0 PL=0
MOVL C00086 V=100.0 PL=0
MOVL C00087 V=100.0 PL=0
MOVL C00088 V=100.0 PL=0
MOVL C00089 V=100.0 PL=0
MOVL C00090 V=100.0 PL=0
MOVL C00091 V=100.0 PL=0
MOVL C00092 V=100.0 PL=0
MOVL C00093 V=100.0 PL=0
MOVL C00094 V=100.0 PL=0
MOVL C00095 V=100.0 PL=0
MOVL C00096 V=100.0 PL=0
MOVL C00097 V=100.0 PL=0
MOVL C00098 V=100.0 PL=0
MOVL C00099 V=100.0 PL=0
MOVL C00100 V=100.0 PL=0
MOVL C00101 V=100.0 PL=0
MOVL C00102 V=100.0 PL=0
MOVL C00103 V=100.0 PL=0
MOVL C00104 V=100.0 PL=0
MOVL C00105 V=100.0 PL=0
MOVL C00106 V=100.0 PL=0
MOVL C00107 V=100.0 PL=0
MOVL C00108 V=100.0 PL=0
MOVL C00109 V=100.0 PL=0
MOVL C00110 V=100.0 PL=0
MOVL C00111 V=100.0 PL=0
MOVL C00112 V=100.0 PL=0
MOVL C00113 V=100.0 PL=0
MOVL C00114 V=100.0 PL=0
MOVL C00115 V=100.0 PL=0
MOVL C00116 V=100.0 PL=0
MOVL C00117 V=100.0 PL=0
MOVL C00118 V=100.0 PL=0
MOVL C00119 V=100.0 PL=0
MOVL C00120 V=100.0 PL=0
MOVL C00121 V=100.0 PL=0
MOVL C00122 V=100.0 PL=0
MOVL C00123 V=100.0 PL=0
MOVL C00124 V=100.0 PL=0
MOVL C00125 V=100.0 PL=0
MOVL C00126 V=100.0 PL=0
MOVL C00127 V=100.0 PL=0
MOVL C00128 V=100.0 PL=0
MOVL C00129 V=100.0 PL=0
MOVL C00130 V=100.0 PL=0
MOVL C00131 V=100.0 PL=0
MOVL C00132 V=100.0 PL=0
MOVL C00133 V=100.0 PL=0
MOVL C00134 V=100.0 PL=0
MOVL C00135 V=100.0 PL=0
MOVL C00136 V=100.0 PL=0
MOVL C00137 V=100.0 PL=0
MOVL C00138 V=100.0 PL=0
MOVL C00139 V=100.0 PL=0
MOVL C00140 V=100.0 PL=0
MOVL C00141 V=100.0 PL=0
MOVL C00142 V=100.0 PL=0
MOVL C00143 V=100.0 PL=0
MOVL C00144 V=100.0 PL=0
MOVL C00145 V=100.0 PL=0
MOVL C00146 V=100.0 PL=0
MOVL C00147 V=100.0 PL=0
MOVL C00148 V=100.0 PL=0
MOVL C00149 V=100.0 PL=0
MOVL C00150 V=100.0 PL=0
MOVL C00151 V=100.0 PL=0
MOVL C00152 V=100.0 PL=0
MOVL C00153 V=100.0 PL=0
MOVL C00154 V=100.0 PL=0
MOVL C00155 V=100.0 PL=0
MOVL C00156 V=100.0 PL=0
MOVL C00157 V=100.0 PL=0
MOVL C00158 V=100.0 PL=0
MOVL C00159 V=100.0 PL=0
MOVL C00160 V=100.0 PL=0
MOVL C00161 V=100.0 PL=0
MOVL C00162 V=100.0 PL=0
MOVL C00163 V=100.0 PL=0
MOVL C00164 V=100.0 PL=0
MOVL C00165 V=100.0 PL=0
MOVL C00166 V=100.0 PL=0
MOVL C00167 V=100.0 PL=0
MOVL C00168 V=100.0 PL=0
MOVL C00169 V=100.0 PL=0
MOVL C00170 V=100.0 PL=0
MOVL C00171 V=100.0 PL=0
MOVL C00172 V=100.0 PL=0
MOVL C00173 V=100.0 PL=0
MOVL C00174 V=100.0 PL=0
MOVL C00175 V=100.0 PL=0
MOVL C00176 V=100.0 PL=0
MOVL C00177 V=100.0 PL=0
MOVL C00178 V=100.0 PL=0
MOVL C00179 V=100.0 PL=0
MOVL C00180 V=100.0 PL=0
MOVL C00181 V=100.0 PL=0
MOVL C00182 V=100.0 PL=0
MOVL C00183 V=100.0 PL=0
MOVL C00184 V=100.0 PL=0
MOVL C00185 V=100.0 PL=0
MOVL C00186 V=100.0 PL=0
MOVL C00187 V=100.0 PL=0
MOVL C00188 V=100.0 PL=0
MOVL C00189 V=100.0 PL=0
MOVL C00190 V=100.0 PL=0
MOVL C00191 V=100.0 PL=0
MOVL C00192 V=100.0 PL=0
MOVL C00193 V=100.0 PL=0
MOVL C00194 V=100.0 PL=0
MOVL C00195 V=100.0 PL=0
MOVL C00196 V=100.0 PL=0
MOVL C00197 V=100.0 PL=0
MOVL C00198 V=100.0 PL=0
MOVL C00199 V=100.0 PL=0
MOVL C00200 V=100.0 PL=0
MOVL C00201 V=100.0 PL=0
MOVL C00202 V=100.0 PL=0
MOVL C00203 V=100.0 PL=0
MOVL C00204 V=100.0 PL=0
MOVL C00205 V=100.0 PL=0
MOVL C00206 V=100.0 PL=0
MOVL C00207 V=100.0 PL=0
MOVL C00208 V=100.0 PL=0
MOVL C00209 V=100.0 PL=0
MOVL C00210 V=100.0 PL=0
MOVL C00211 V=100.0 PL=0
MOVL C00212 V=100.0 PL=0
MOVL C00213 V=100.0 PL=0
MOVL C00214 V=100.0 PL=0
MOVL C00215 V=100.0 PL=0
MOVL C00216 V=100.0 PL=0
MOVL C00217 V=100.0 PL=0
MOVL C00218 V=100.0 PL=0
MOVL C00219 V=100.0 PL=0
MOVL C00220 V=100.0 PL=0
MOVL C00221 V=100.0 PL=0
MOVL C00222 V=100.0 PL=0
MOVL C00223 V=100.0 PL=0
MOVL C00224 V=100.0 PL=0
MOVL C00225 V=100.0 PL=0
MOVL C00226 V=100.0 PL=0
MOVL C00227 V=100.0 PL=0
MOVL C00228 V=100.0 PL=0
MOVL C00229 V=100.0 PL=0
MOVL C00230 V=100.0 PL=0
MOVL C00231 V=100.0 PL=0
MOVL C00232 V=100.0 PL=0
MOVL C00233 V=100.0 PL=0
MOVL C00234 V=100.0 PL=0
MOVL C00235 V=100.0 PL=0
MOVL C00236 V=100.0 PL=0
MOVL C00237 V=100.0 PL=0
MOVL C00238 V=100.0 PL=0
MOVL C00239 V=100.0 PL=0
MOVL C00240 V=100.0 PL=0
MOVL C00241 V=100.0 PL=0
MOVL C00242 V=100.0 PL=0
MOVL C00243 V=100.0 PL=0
MOVL C00244 V=100.0 PL=0
MOVL C00245 V=100.0 PL=0
MOVL C00246 V=100.0 PL=0
MOVL C00247 V=100.0 PL=0
MOVL C00248 V=100.0 PL=0
MOVL C00249 V=100.0 PL=0
MOVL C00250 V=100.0 PL=0
MOVL C00251 V=100.0 PL=0
MOVL C00252 V=100.0 PL=0
MOVL C00253 V=100.0 PL=0
MOVL C00254 V=100.0 PL=0
MOVL C00255 V=100.0 PL=0
MOVL C00256 V=100.0 PL=0
MOVL C00257 V=100.0 PL=0
MOVL C00258 V=100.0 PL=0
MOVL C00259 V=100.0 PL=0
MOVL C00260 V=100.0 PL=0
MOVL C00261 V=100.0 PL=0
MOVL C00262 V=100.0 PL=0
MOVL C00263 V=100.0 PL=0
MOVL C00264 V=100.0 PL=0
MOVL C00265 V=100.0 PL=0
MOVL C00266 V=100.0 PL=0
MOVL C00267 V=100.0 PL=0
MOVL C00268 V=100.0 PL=0
MOVL C00269 V=100.0 PL=0
MOVL C00270 V=100.0 PL=0
MOVL C00271 V=100.0 PL=0
MOVL C00272 V=100.0 PL=0
MOVL C00273 V=100.0 PL=0
MOVL C00274 V=100.0 PL=0
MOVL C00275 V=100.0 PL=0
MOVL C00276 V=100.0 PL=0
MOVL C00277 V=100.0 PL=0
MOVL C00278 V=100.0 PL=0
MOVL C00279 V=100.0 PL=0
MOVL C00280 V=100.0 PL=0
MOVL C00281 V=100.0 PL=0
MOVL C00282 V=100.0 PL=0
MOVL C00283 V=100.0 PL=0
MOVL C00284 V=100.0 PL=0
MOVL C00285 V=100.0 PL=0
MOVL C00286 V=100.0 PL=0
MOVL C00287 V=100.0 PL=0
MOVL C00288 V=100.0 PL=0
MOVL C00289 V=100.0 PL=0
MOVL C00290 V=100.0 PL=0
MOVL C00291 V=100.0 PL=0
MOVL C00292 V=100.0 PL=0
MOVL C00293 V=100.0 PL=0
MOVL C00294 V=100.0 PL=0
MOVL C00295 V=100.0 PL=0
MOVL C00296 V=100.0 PL=0
MOVL C00297 V=100.0 PL=0
MOVL C00298 V=100.0 PL=0
MOVL C00299 V=100.0 PL=0
MOVL C00300 V=100.0 PL=0
MOVL C00301 V=100.0 PL=0
MOVL C00302 V=100.0 PL=0
MOVL C00303 V=100.0 PL=0
MOVL C00304 V=100.0 PL=0
MOVL C00305 V=100.0 PL=0
MOVL C00306 V=100.0 PL=0
MOVL C00307 V=100.0 PL=0
MOVL C00308 V=100.0 PL=0
MOVL C00309 V=100.0 PL=0
MOVL C00310 V=100.0 PL=0
MOVL C00311 V=100.0 PL=0
MOVL C00312 V=100.0 PL=0
MOVL C00313 V=100.0 PL=0
MOVL C00314 V=100.0 PL=0
MOVL C00315 V=100.0 PL=0
MOVL C00316 V=100.0 PL=0
MOVL C00317 V=100.0 PL=0
MOVL C00318 V=100.0 PL=0
MOVL C00319 V=100.0 PL=0
MOVL C00320 V=100.0 PL=0
MOVL C00321 V=100.0 PL=0
MOVL C00322 V=100.0 PL=0
MOVL C00323 V=100.0 PL=0
MOVL C00324 V=100.0 PL=0
MOVL C00325 V=100.0 PL=0
MOVL C00326 V=100.0 PL=0
MOVL C00327 V=100.0 PL=0
MOVL C00328 V=100.0 PL=0
MOVL C00329 V=100.0 PL=0
MOVL C00330 V=100.0 PL=0
MOVL C00331 V=100.0 PL=0
MOVL C00332 V=100.0 PL=0
MOVL C00333 V=100.0 PL=0
MOVL C00334 V=100.0 PL=0
MOVL C00335 V=100.0 PL=0
MOVL C00336 V=100.0 PL=0
MOVL C00337 V=100.0 PL=0
MOVL C00338 V=100.0 PL=0
MOVL C00339 V=100.0 PL=0
MOVL C00340 V=100.0 PL=0
MOVL C00341 V=100.0 PL=0
MOVL C00342 V=100.0 PL=0
MOVL C00343 V=100.0 PL=0
MOVL C00344 V=100.0 PL=0
MOVL C00345 V=100.0 PL=0
MOVL C00346 V=100.0 PL=0
MOVL C00347 V=100.0 PL=0
MOVL C00348 V=100.0 PL=0
MOVL C00349 V=100.0 PL=0
MOVL C00350 V=100.0 PL=0
MOVL C00351 V=100.0 PL=0
MOVL C00352 V=100.0 PL=0
MOVL C00353 V=100.0 PL=0
MOVL C00354 V=100.0 PL=0
MOVL C00355 V=100.0 PL=0
MOVL C00356 V=100.0 PL=0
MOVL C00357 V=100.0 PL=0
MOVL C00358 V=100.0 PL=0
MOVL C00359 V=100.0 PL=0
MOVL C00360 V=100.0 PL=0
MOVL C00361 V=100.0 PL=0
MOVL C00362 V=100.0 PL=0
MOVL C00363 V=100.0 PL=0
MOVL C00364 V=100.0 PL=0
MOVL C00365 V=100.0 PL=0
MOVL C00366 V=100.0 PL=0
MOVL C00367 V=100.0 PL=0
MOVL C00368 V=100.0 PL=0
MOVL C00369 V=100.0 PL=0
MOVL C00370 V=100.0 PL=0
MOVL C00371 V=100.0 PL=0
MOVL C00372 V=100.0 PL=0
MOVL C00373 V=100.0 PL=0
MOVL C00374 V=100.0 PL=0
MOVL C00375 V=100.0 PL=0
MOVL C00376 V=100.0 PL=0
MOVL C00377 V=100.0 PL=0
MOVL C00378 V=100.0 PL=0
MOVL C00379 V=100.0 PL=0
MOVL C00380 V=100.0 PL=0
MOVL C00381 V=100.0 PL=0
MOVL C00382 V=100.0 PL=0
MOVL C00383 V=100.0 PL=0
MOVL C00384 V=100.0 PL=0
MOVL C00385 V=100.0 PL=0
MOVL C00386 V=100.0 PL=0
MOVL C00387 V=100.0 PL=0
MOVL C00388 V=100.0 PL=0
MOVL C00389 V=100.0 PL=0
MOVL C00390 V=100.0 PL=0
MOVL C00391 V=100.0 PL=0
MOVL C00392 V=100.0 PL=0
MOVL C00393 V=100.0 PL=0
MOVL C00394 V=100.0 PL=0
MOVL C00395 V=100.0 PL=0
MOVL C00396 V=100.0 PL=0
MOVL C00397 V=100.0 PL=0
MOVL C00398 V=100.0 PL=0
MOVL C00399 V=100.0 PL=0
MOVL C00400 V=100.0 PL=0
MOVL C00401 V=100.0 PL=0
MOVL C00402 V=100.0 PL=0
MOVL C00403 V=100.0 PL=0
MOVL C00404 V=100.0 PL=0
MOVL C00405 V=100.0 PL=0
MOVL C00406 V=100.0 PL=0
MOVL C00407 V=100.0 PL=0
MOVL C00408 V=100.0 PL=0
MOVL C00409 V=100.0 PL=0
MOVL C00410 V=100.0 PL=0
MOVL C00411 V=100.0 PL=0
MOVL C00412 V=100.0 PL=0
MOVL C00413 V=100.0 PL=0
MOVL C00414 V=100.0 PL=0
MOVL C00415 V=100.0 PL=0
MOVL C00416 V=100.0 PL=0
MOVL C00417 V=100.0 PL=0
MOVL C00418 V=100.0 PL=0
MOVL C00419 V=100.0 PL=0
MOVL C00420 V=100.0 PL=0
MOVL C00421 V=100.0 PL=0
MOVL C00422 V=100.0 PL=0
MOVL C00423 V=100.0 PL=0
MOVL C00424 V=100.0 PL=0
MOVL C00425 V=100.0 PL=0
MOVL C00426 V=100.0 PL=0
MOVL C00427 V=100.0 PL=0
MOVL C00428 V=100.0 PL=0
MOVL C00429 V=100.0 PL=0
MOVL C00430 V=100.0 PL=0
MOVL C00431 V=100.0 PL=0
MOVL C00432 V=100.0 PL=0
MOVL C00433 V=100.0 PL=0
MOVL C00434 V=100.0 PL=0
MOVL C00435 V=100.0 PL=0
MOVL C00436 V=100.0 PL=0
MOVL C00437 V=100.0 PL=0
MOVL C00438 V=100.0 PL=0
MOVL C00439 V=100.0 PL=0
MOVL C00440 V=100.0 PL=0
MOVL C00441 V=100.0 PL=0
MOVL C00442 V=100.0 PL=0
MOVL C00443 V=100.0 PL=0
MOVL C00444 V=100.0 PL=0
MOVL C00445 V=100.0 PL=0
MOVL C00446 V=100.0 PL=0
MOVL C00447 V=100.0 PL=0
MOVL C00448 V=100.0 PL=0
MOVL C00449 V=100.0 PL=0
MOVL C00450 V=100.0 PL=0
MOVL C00451 V=100.0 PL=0
MOVL C00452 V=100.0 PL=0
MOVL C00453 V=100.0 PL=0
MOVL C00454 V=100.0 PL=0
MOVL C00455 V=100.0 PL=0
MOVL C00456 V=100.0 PL=0
MOVL C00457 V=100.0 PL=0
MOVL C00458 V=100.0 PL=0
MOVL C00459 V=100.0 PL=0
MOVL C00460 V=100.0 PL=0
MOVL C00461 V=100.0 PL=0
MOVL C00462 V=100.0 PL=0
MOVL C00463 V=100.0 PL=0
MOVL C00464 V=100.0 PL=0
MOVL C00465 V=100.0 PL=0
MOVL C00466 V=100.0 PL=0
MOVL C00467 V=100.0 PL=0
MOVL C00468 V=100.0 PL=0
MOVL C00469 V=100.0 PL=0
MOVL C00470 V=100.0 PL=0
MOVL C00471 V=100.0 PL=0
MOVL C00472 V=100.0 PL=0
MOVL C00473 V=100.0 PL=0
MOVL C00474 V=100.0 PL=0
MOVL C00475 V=100.0 PL=0
MOVL C00476 V=100.0 PL=0
MOVL C00477 V=100.0 PL=0
MOVL C00478 V=100.0 PL=0
MOVL C00479 V=100.0 PL=0
MOVL C00480 V=100.0 PL=0
MOVL C00481 V=100.0 PL=0
MOVL C00482 V=100.0 PL=0
MOVL C00483 V=100.0 PL=0
MOVL C00484 V=100.0 PL=0
MOVL C00485 V=100.0 PL=0
MOVL C00486 V=100.0 PL=0
MOVL C00487 V=100.0 PL=0
MOVL C00488 V=100.0 PL=0
MOVL C00489 V=100.0 PL=0
MOVL C00490 V=100.0 PL=0
MOVL C00491 V=100.0 PL=0
MOVL C00492 V=100.0 PL=0
MOVL C00493 V=100.0 PL=0
MOVL C00494 V=100.0 PL=0
MOVL C00495 V=100.0 PL=0
MOVL C00496 V=100.0 PL=0
MOVL C00497 V=100.0 PL=0
MOVL C00498 V=100.0 PL=0
MOVL C00499 V=100.0 PL=0
MOVL C00500 V=100.0 PL=0
MOVL C00501 V=100.0 PL=0
MOVL C00502 V=100.0 PL=0
MOVL C00503 V=100.0 PL=0
MOVL C00504 V=100.0 PL=0
MOVL C00505 V=100.0 PL=0
MOVL C00506 V=100.0 PL=0
MOVL C00507 V=100.0 PL=0
MOVL C00508 V=100.0 PL=0
MOVL C00509 V=100.0 PL=0
MOVL C00510 V=100.0 PL=0
MOVL C00511 V=100.0 PL=0
MOVL C00512 V=100.0 PL=0
MOVL C00513 V=100.0 PL=0
MOVL C00514 V=100.0 PL=0
MOVL C00515 V=100.0 PL=0
MOVL C00516 V=100.0 PL=0
MOVL C00517 V=100.0 PL=0
MOVL C00518 V=100.0 PL=0
MOVL C00519 V=100.0 PL=0
MOVL C00520 V=100.0 PL=0
MOVL C00521 V=100.0 PL=0
MOVL C00522 V=100.0 PL=0
MOVL C00523 V=100.0 PL=0
MOVL C00524 V=100.0 PL=0
MOVL C00525 V=100.0 PL=0
MOVL C00526 V=100.0 PL=0
MOVL C00527 V=100.0 PL=0
MOVL C00528 V=100.0 PL=0
MOVL C00529 V=100.0 PL=0
MOVL C00530 V=100.0 PL=0
MOVL C00531 V=100.0 PL=0
MOVL C00532 V=100.0 PL=0
MOVL C00533 V=100.0 PL=0
MOVL C00534 V=100.0 PL=0
MOVL C00535 V=100.0 PL=0
MOVL C00536 V=100.0 PL=0
MOVL C00537 V=100.0 PL=0
MOVL C00538 V=100.0 PL=0
MOVL C00539 V=100.0 PL=0
MOVL C00540 V=100.0 PL=0
MOVL C00541 V=100.0 PL=0
MOVL C00542 V=100.0 PL=0
MOVL C00543 V=100.0 PL=0
MOVL C00544 V=100.0 PL=0
MOVL C00545 V=100.0 PL=0
MOVL C00546 V=100.0 PL=0
MOVL C00547 V=100.0 PL=0
MOVL C00548 V=100.0 PL=0
MOVL C00549 V=100.0 PL=0
MOVL C00550 V=100.0 PL=0
MOVL C00551 V=100.0 PL=0
MOVL C00552 V=100.0 PL=0
MOVL C00553 V=100.0 PL=0
MOVL C00554 V=100.0 PL=0
MOVL C00555 V=100.0 PL=0
MOVL C00556 V=100.0 PL=0
MOVL C00557 V=100.0 PL=0
MOVL C00558 V=100.0 PL=0
MOVL C00559 V=100.0 PL=0
MOVL C00560 V=100.0 PL=0
MOVL C00561 V=100.0 PL=0
MOVL C00562 V=100.0 PL=0
MOVL C00563 V=100.0 PL=0
MOVL C00564 V=100.0 PL=0
MOVL C00565 V=100.0 PL=0
MOVL C00566 V=100.0 PL=0
MOVL C00567 V=100.0 PL=0
MOVL C00568 V=100.0 PL=0
MOVL C00569 V=100.0 PL=0
MOVL C00570 V=100.0 PL=0
MOVL C00571 V=100.0 PL=0
MOVL C00572 V=100.0 PL=0
MOVL C00573 V=100.0 PL=0
MOVL C00574 V=100.0 PL=0
MOVL C00575 V=100.0 PL=0
MOVL C00576 V=100.0 PL=0
MOVL C00577 V=100.0 PL=0
MOVL C00578 V=100.0 PL=0
MOVL C00579 V=100.0 PL=0
MOVL C00580 V=100.0 PL=0
MOVL C00581 V=100.0 PL=0
MOVL C00582 V=100.0 PL=0
MOVL C00583 V=100.0 PL=0
MOVL C00584 V=100.0 PL=0
MOVL C00585 V=100.0 PL=0
MOVL C00586 V=100.0 PL=0
MOVL C00587 V=100.0 PL=0
MOVL C00588 V=100.0 PL=0
MOVL C00589 V=100.0 PL=0
MOVL C00590 V=100.0 PL=0
MOVL C00591 V=100.0 PL=0
MOVL C00592 V=100.0 PL=0
MOVL C00593 V=100.0 PL=0
MOVL C00594 V=100.0 PL=0
MOVL C00595 V=100.0 PL=0
MOVL C00596 V=100.0 PL=0
MOVL C00597 V=100.0 PL=0
MOVL C00598 V=100.0 PL=0
MOVL C00599 V=100.0 PL=0
MOVL C00600 V=100.0 PL=0
MOVL C00601 V=100.0 PL=0
MOVL C00602 V=100.0 PL=0
MOVL C00603 V=100.0 PL=0
MOVL C00604 V=100.0 PL=0
MOVL C00605 V=100.0 PL=0
MOVL C00606 V=100.0 PL=0
MOVL C00607 V=100.0 PL=0
MOVL C00608 V=100.0 PL=0
MOVL C00609 V=100.0 PL=0
MOVL C00610 V=100.0 PL=0
MOVL C00611 V=100.0 PL=0
MOVL C00612 V=100.0 PL=0
MOVL C00613 V=100.0 PL=0
MOVL C00614 V=100.0 PL=0
MOVL C00615 V=100.0 PL=0
MOVL C00616 V=100.0 PL=0
MOVL C00617 V=100.0 PL=0
MOVL C00618 V=100.0 PL=0
END