;FLAVOR:Marlin
;TIME:869
;Filament used: 15.9397m
;Layer height: 1.2
;MINX:442.672
;MINY:452.295
;MINZ:1.2
;MAXX:557.334
;MAXY:547.705
;MAXZ:196.267
;Generated with Cura_SteamEngine 5.2.1
M104 S200
M105
M109 S200
M82 ;absolute extrusion mode

G92 E0
G92 E0
;LAYER_COUNT:163
;LAYER:0
M107
G0 F7200 X452.64 Y478.81 Z1.2
;TYPE:SKIRT
G1 X453.553 Y477.974 E0.46572
G1 X454.517 Y477.14 E0.94528
G1 X455.356 Y476.453 E1.35323
G1 X456.06 Y475.901 E1.6898
G1 X456.998 Y475.202 E2.12989
G1 X457.901 Y474.56 E2.54672
G1 X458.981 Y473.832 E3.03671
G1 X459.898 Y473.242 E3.44694
G1 X460.64 Y472.784 E3.77498
G1 X461.664 Y472.182 E4.22186
G1 X462.864 Y471.51 E4.73928
G1 X463.602 Y471.115 E5.05419
G1 X464.931 Y470.44 E5.61497
G1 X465.77 Y470.033 E5.96579
G1 X466.962 Y469.483 E6.45967
G1 X467.894 Y469.073 E6.84273
G1 X469.294 Y468.487 E7.4137
G1 X470.134 Y468.156 E7.75337
G1 X471.551 Y467.624 E8.32279
G1 X472.338 Y467.342 E8.6373
G1 X473.892 Y466.818 E9.25428
G1 X474.773 Y466.537 E9.60217
G1 X476.294 Y466.081 E10.19955
G1 X477.418 Y465.766 E10.6387
G1 X478.641 Y465.445 E11.11439
G1 X480.028 Y465.106 E11.65156
G1 X481.144 Y464.851 E12.08223
G1 X482.739 Y464.516 E12.69538
G1 X483.385 Y464.391 E12.94292
G1 X486.336 Y463.882 E14.06951
G1 X488.994 Y463.514 E15.07902
G1 X492.188 Y463.181 E16.28715
G1 X494.365 Y463.027 E17.10821
G1 X496.292 Y462.929 E17.83411
G1 X497.288 Y462.893 E18.20906
G1 X499.961 Y462.853 E19.21478
G1 X502.914 Y462.9 E20.32587
G1 X505.633 Y463.026 E21.34989
G1 X507.554 Y463.162 E22.0744
G1 X509.092 Y463.3 E22.65534
G1 X510.455 Y463.449 E23.17117
G1 X511.932 Y463.635 E23.73122
G1 X513.561 Y463.867 E24.35025
G1 X516.19 Y464.312 E25.35338
G1 X517.093 Y464.487 E25.69942
G1 X518.999 Y464.883 E26.43179
G1 X520.702 Y465.281 E27.08974
G1 X522.407 Y465.72 E27.7521
G1 X523.694 Y466.078 E28.25467
G1 X525.141 Y466.51 E28.82279
G1 X526.22 Y466.853 E29.24874
G1 X527.524 Y467.293 E29.76649
G1 X528.445 Y467.621 E30.1343
G1 X530.091 Y468.244 E30.79642
G1 X531.933 Y468.997 E31.54506
G1 X532.85 Y469.398 E31.92159
G1 X533.98 Y469.915 E32.38909
G1 X535.022 Y470.417 E32.82423
G1 X536.215 Y471.021 E33.32729
G1 X537.2 Y471.546 E33.74721
G1 X538.118 Y472.056 E34.14229
G1 X539.169 Y472.671 E34.60041
G1 X540.078 Y473.227 E35.00128
G1 X541.145 Y473.913 E35.4785
G1 X541.981 Y474.478 E35.85811
G1 X543.017 Y475.213 E36.33599
G1 X543.898 Y475.871 E36.74967
G1 X544.768 Y476.553 E37.16555
G1 X545.564 Y477.207 E37.55313
G1 X546.315 Y477.855 E37.9263
G1 X547.11 Y478.577 E38.33032
G1 X547.875 Y479.305 E38.72762
G1 X548.77 Y480.213 E39.20726
G1 X549.508 Y481.007 E39.61508
G1 X550.207 Y481.806 E40.01447
G1 X550.885 Y482.628 E40.41534
G1 X551.53 Y483.461 E40.81168
G1 X552.021 Y484.132 E41.12449
G1 X552.752 Y485.203 E41.61232
G1 X553.324 Y486.113 E42.01668
G1 X553.715 Y486.776 E42.30626
G1 X554.218 Y487.693 E42.69973
G1 X554.689 Y488.631 E43.09461
G1 X555.223 Y489.813 E43.58256
G1 X555.52 Y490.538 E43.87732
G1 X556.02 Y491.896 E44.42174
G1 X556.478 Y493.43 E45.02402
G1 X556.744 Y494.57 E45.46442
G1 X556.947 Y495.6 E45.85937
G1 X557.131 Y496.799 E46.31573
G1 X557.252 Y498.006 E46.77209
G1 X557.301 Y498.78 E47.06387
G1 X557.334 Y500 E47.52301
G1 X557.301 Y501.221 E47.98253
G1 X557.228 Y502.282 E48.38264
G1 X557.109 Y503.348 E48.78617
G1 X556.948 Y504.395 E49.18469
G1 X556.803 Y505.154 E49.4754
G1 X556.482 Y506.556 E50.0165
G1 X556.021 Y508.098 E50.62198
G1 X555.524 Y509.451 E51.16425
G1 X555.125 Y510.417 E51.55745
G1 X554.686 Y511.376 E51.95424
G1 X554.222 Y512.298 E52.34256
G1 X553.84 Y513.003 E52.64422
G1 X553.306 Y513.917 E53.04246
G1 X552.62 Y514.997 E53.52381
G1 X552.021 Y515.869 E53.92181
G1 X551.528 Y516.542 E54.23566
G1 X550.75 Y517.54 E54.71173
G1 X550.07 Y518.354 E55.11076
G1 X549.372 Y519.142 E55.50679
G1 X548.778 Y519.779 E55.83446
G1 X547.879 Y520.69 E56.31597
G1 X547.11 Y521.423 E56.71565
G1 X546.301 Y522.157 E57.12661
G1 X545.61 Y522.753 E57.46991
G1 X544.765 Y523.449 E57.88176
G1 X543.774 Y524.225 E58.35528
G1 X543.078 Y524.744 E58.68191
G1 X541.965 Y525.533 E59.19517
G1 X541.163 Y526.074 E59.55913
G1 X540.067 Y526.78 E60.04959
G1 X539.24 Y527.287 E60.41453
G1 X538.205 Y527.893 E60.86575
G1 X537.142 Y528.486 E61.32368
G1 X536.261 Y528.957 E61.69951
G1 X535.173 Y529.509 E62.1585
G1 X534.351 Y529.909 E62.50241
G1 X533.042 Y530.515 E63.04509
G1 X532.101 Y530.929 E63.43185
G1 X530.709 Y531.511 E63.99946
G1 X529.863 Y531.845 E64.34165
G1 X528.451 Y532.375 E64.90904
G1 X527.534 Y532.703 E65.27543
G1 X526.216 Y533.147 E65.79866
G1 X525.106 Y533.501 E66.23698
G1 X523.821 Y533.886 E66.74164
G1 X522.583 Y534.233 E67.22534
G1 X521.362 Y534.554 E67.7003
G1 X519.973 Y534.894 E68.23829
G1 X518.859 Y535.149 E68.66823
G1 X517.269 Y535.482 E69.27938
G1 X516.623 Y535.608 E69.52699
G1 X513.664 Y536.118 E70.65661
G1 X511.006 Y536.487 E71.66617
G1 X507.81 Y536.819 E72.87501
G1 X505.636 Y536.973 E73.69495
G1 X503.704 Y537.071 E74.42272
G1 X502.71 Y537.107 E74.79692
G1 X500.535 Y537.145 E75.6153
G1 X497.867 Y537.122 E76.61907
G1 X497.091 Y537.101 E76.91112
G1 X494.538 Y536.984 E77.87259
G1 X491.655 Y536.773 E78.96011
G1 X488.457 Y536.419 E80.17058
G1 X486.327 Y536.117 E80.97993
G1 X485.572 Y535.996 E81.26759
G1 X484.126 Y535.745 E81.81973
G1 X482.194 Y535.373 E82.55992
G1 X481.31 Y535.183 E82.90008
G1 X479.445 Y534.754 E83.62004
G1 X478.026 Y534.391 E84.17108
G1 X475.949 Y533.819 E84.98156
G1 X474.425 Y533.353 E85.58111
G1 X472.776 Y532.809 E86.23437
G1 X471.586 Y532.39 E86.709
G1 X470.359 Y531.931 E87.20185
G1 X469.171 Y531.464 E87.68208
G1 X468.134 Y531.031 E88.10485
G1 X467.086 Y530.573 E88.53513
G1 X465.93 Y530.042 E89.01372
G1 X464.826 Y529.508 E89.47509
G1 X463.695 Y528.933 E89.95242
G1 X462.875 Y528.496 E90.30198
G1 X461.809 Y527.901 E90.76127
G1 X460.759 Y527.286 E91.21906
G1 X459.851 Y526.728 E91.62001
G1 X458.973 Y526.165 E92.0124
G1 X458.03 Y525.53 E92.4401
G1 X456.859 Y524.697 E92.98073
G1 X456.101 Y524.129 E93.33708
G1 X455.365 Y523.554 E93.68846
G1 X454.52 Y522.863 E94.09911
G1 X453.695 Y522.153 E94.5086
G1 X452.739 Y521.282 E94.99515
G1 X451.969 Y520.54 E95.39744
G1 X451.206 Y519.762 E95.8074
G1 X450.639 Y519.157 E96.11934
G1 X449.796 Y518.199 E96.59942
G1 X449.113 Y517.372 E97.00294
G1 X448.468 Y516.539 E97.39928
G1 X447.977 Y515.868 E97.71209
G1 X447.38 Y515 E98.10842
G1 X446.607 Y513.788 E98.64923
G1 X445.819 Y512.395 E99.25133
G1 X445.134 Y511.011 E99.83229
G1 X444.571 Y509.692 E100.37183
G1 X444.145 Y508.589 E100.81667
G1 X443.787 Y507.468 E101.25938
G1 X443.404 Y506.107 E101.79129
G1 X443.067 Y504.532 E102.39724
G1 X442.828 Y502.922 E103.00957
G1 X442.711 Y501.464 E103.55985
G1 X442.678 Y500.689 E103.85168
G1 X442.672 Y499.61 E104.25762
G1 X442.711 Y498.537 E104.66156
G1 X442.828 Y497.079 E105.21184
G1 X443.003 Y495.894 E105.66249
G1 X443.224 Y494.698 E106.12005
G1 X443.504 Y493.533 E106.57082
G1 X443.788 Y492.531 E106.96263
G1 X444.15 Y491.4 E107.40939
G1 X444.674 Y490.057 E107.95174
G1 X445.136 Y488.986 E108.39055
G1 X445.831 Y487.584 E108.97925
G1 X446.618 Y486.194 E109.58018
G1 X447.408 Y484.961 E110.1311
G1 X448.006 Y484.094 E110.52733
G1 X448.5 Y483.421 E110.84141
G1 X449.279 Y482.423 E111.31771
G1 X449.824 Y481.768 E111.63827
G1 X450.537 Y480.959 E112.04396
G1 X451.357 Y480.081 E112.49593
G1 X452.105 Y479.325 E112.89603
G1 X452.64 Y478.81 E113.1754
G0 X454.125 Y480.159
G1 X454.901 Y479.451 E113.57059
G1 X455.787 Y478.685 E114.01122
G1 X456.5 Y478.099 E114.35843
G1 X457.294 Y477.475 E114.73835
G1 X458.278 Y476.744 E115.19951
G1 X459.159 Y476.121 E115.60545
G1 X459.984 Y475.566 E115.97952
G1 X460.949 Y474.944 E116.41145
G1 X461.691 Y474.486 E116.73949
G1 X462.762 Y473.858 E117.20657
G1 X463.725 Y473.319 E117.62175
G1 X464.641 Y472.829 E118.01257
G1 X465.806 Y472.238 E118.50403
G1 X466.608 Y471.849 E118.83937
G1 X467.882 Y471.262 E119.36709
G1 X468.668 Y470.917 E119.69002
G1 X469.934 Y470.386 E120.2065
G1 X470.838 Y470.028 E120.57229
G1 X472.225 Y469.507 E121.1297
G1 X473.012 Y469.225 E121.44421
G1 X474.5 Y468.723 E122.03501
G1 X475.465 Y468.416 E122.41598
G1 X476.835 Y468.006 E122.95398
G1 X477.842 Y467.723 E123.3475
G1 X479.23 Y467.359 E123.88734
G1 X480.399 Y467.073 E124.3401
G1 X481.678 Y466.781 E124.83365
G1 X483.119 Y466.48 E125.38747
G1 X483.765 Y466.355 E125.63502
G1 X486.61 Y465.863 E126.72122
G1 X489.268 Y465.495 E127.73073
G1 X492.329 Y465.176 E128.88855
G1 X494.605 Y465.016 E129.74692
G1 X496.367 Y464.927 E130.41065
G1 X497.225 Y464.895 E130.73366
G1 X499.438 Y464.856 E131.56635
G1 X499.972 Y464.853 E131.76725
G1 X502.881 Y464.9 E132.86179
G1 X505.493 Y465.021 E133.8455
G1 X507.286 Y465.147 E134.52171
G1 X508.874 Y465.289 E135.12152
G1 X510.322 Y465.448 E135.66955
G1 X511.751 Y465.629 E136.21145
G1 X513.227 Y465.839 E136.77233
G1 X515.856 Y466.284 E137.77546
G1 X516.686 Y466.446 E138.09361
G1 X518.713 Y466.868 E138.87254
G1 X520.095 Y467.191 E139.40647
G1 X522.006 Y467.683 E140.14886
G1 X523.243 Y468.029 E140.63209
G1 X524.536 Y468.416 E141.13985
G1 X525.581 Y468.748 E141.55236
G1 X526.885 Y469.188 E142.07011
G1 X527.855 Y469.535 E142.45768
G1 X529.336 Y470.096 E143.05349
G1 X531.016 Y470.781 E143.73604
G1 X532.128 Y471.267 E144.1926
G1 X533.239 Y471.777 E144.6525
G1 X534.236 Y472.259 E145.06912
G1 X535.188 Y472.741 E145.47056
G1 X536.228 Y473.294 E145.91369
G1 X537.146 Y473.804 E146.30877
G1 X538.125 Y474.378 E146.73572
G1 X539.133 Y474.996 E147.18054
G1 X540.161 Y475.66 E147.64095
G1 X540.941 Y476.19 E147.99572
G1 X541.727 Y476.747 E148.35815
G1 X542.666 Y477.447 E148.79877
G1 X543.498 Y478.099 E149.19644
G1 X544.395 Y478.838 E149.63367
G1 X545.004 Y479.366 E149.93691
G1 X545.848 Y480.135 E150.36646
G1 X546.604 Y480.86 E150.76053
G1 X547.222 Y481.488 E151.092
G1 X548.007 Y482.328 E151.52453
G1 X548.576 Y482.975 E151.84868
G1 X549.308 Y483.857 E152.27989
G1 X549.826 Y484.522 E152.59701
G1 X550.407 Y485.313 E152.96624
G1 X551.062 Y486.273 E153.40346
G1 X551.601 Y487.129 E153.78402
G1 X551.992 Y487.792 E154.07359
G1 X552.544 Y488.809 E154.50893
G1 X552.981 Y489.695 E154.88059
G1 X553.305 Y490.415 E155.17762
G1 X553.669 Y491.297 E155.53659
G1 X554.122 Y492.531 E156.03113
G1 X554.547 Y493.955 E156.5902
G1 X554.838 Y495.219 E157.07817
G1 X554.983 Y495.976 E157.36814
G1 X555.131 Y496.947 E157.73766
G1 X555.256 Y498.132 E158.18595
G1 X555.314 Y499.113 E158.55565
G1 X555.331 Y500.109 E158.93041
G1 X555.305 Y501.095 E159.30149
G1 X555.239 Y502.073 E159.67026
G1 X555.158 Y502.843 E159.96154
G1 X555.018 Y503.815 E160.33099
G1 X554.838 Y504.778 E160.69956
G1 X554.543 Y506.057 E161.19336
G1 X554.126 Y507.453 E161.74148
G1 X553.672 Y508.696 E162.23933
G1 X553.376 Y509.422 E162.53429
G1 X552.896 Y510.484 E162.97274
G1 X552.542 Y511.194 E163.27121
G1 X551.993 Y512.206 E163.70435
G1 X551.495 Y513.046 E164.07173
G1 X550.968 Y513.87 E164.43971
G1 X550.408 Y514.687 E164.81234
G1 X549.915 Y515.36 E165.1262
G1 X549.311 Y516.139 E165.49704
G1 X548.571 Y517.031 E165.93307
G1 X548.002 Y517.676 E166.25665
G1 X547.315 Y518.415 E166.63625
G1 X546.601 Y519.142 E167.0196
G1 X545.763 Y519.944 E167.45598
G1 X544.995 Y520.642 E167.84641
G1 X544.21 Y521.317 E168.2359
G1 X543.405 Y521.976 E168.62729
G1 X542.67 Y522.551 E168.97837
G1 X541.786 Y523.21 E169.39318
G1 X540.846 Y523.875 E169.82637
G1 X539.955 Y524.475 E170.23049
G1 X539.021 Y525.075 E170.64813
G1 X538.194 Y525.582 E171.01307
G1 X537.229 Y526.147 E171.43376
G1 X536.196 Y526.724 E171.8789
G1 X535.356 Y527.173 E172.23723
G1 X534.189 Y527.764 E172.72936
G1 X533.393 Y528.15 E173.06218
G1 X532.203 Y528.7 E173.55537
G1 X531.328 Y529.085 E173.91501
G1 X530.063 Y529.615 E174.431
G1 X529.159 Y529.973 E174.79679
G1 X527.776 Y530.492 E175.35252
G1 X526.895 Y530.807 E175.70451
G1 X525.501 Y531.276 E176.25784
G1 X524.532 Y531.585 E176.64047
G1 X523.247 Y531.97 E177.14514
G1 X522.074 Y532.299 E177.60346
G1 X520.853 Y532.62 E178.07842
G1 X519.527 Y532.944 E178.59196
G1 X518.413 Y533.199 E179.0219
G1 X516.886 Y533.519 E179.60885
G1 X516.24 Y533.645 E179.85646
G1 X513.389 Y534.137 E180.94489
G1 X510.731 Y534.506 E181.95445
G1 X507.668 Y534.824 E183.11298
G1 X505.494 Y534.978 E183.93291
G1 X503.695 Y535.07 E184.6106
G1 X502.675 Y535.107 E184.99459
G1 X500.5 Y535.145 E185.81297
G1 X498.014 Y535.124 E186.74827
G1 X497.182 Y535.103 E187.06137
G1 X494.629 Y534.986 E188.02285
G1 X491.62 Y534.761 E189.15803
G1 X488.737 Y534.439 E190.24939
G1 X486.642 Y534.142 E191.04543
G1 X485.913 Y534.025 E191.3232
G1 X484.505 Y533.781 E191.8608
G1 X482.573 Y533.409 E192.60099
G1 X481.758 Y533.234 E192.91459
G1 X479.893 Y532.805 E193.63455
G1 X478.447 Y532.434 E194.19617
G1 X476.666 Y531.945 E194.891
G1 X475.05 Y531.453 E195.52651
G1 X473.539 Y530.956 E196.12492
G1 X472.159 Y530.47 E196.67535
G1 X471.089 Y530.069 E197.10524
G1 X469.941 Y529.618 E197.56926
G1 X468.825 Y529.151 E198.02439
G1 X467.889 Y528.741 E198.40882
G1 X466.679 Y528.184 E198.90996
G1 X465.731 Y527.725 E199.30621
G1 X464.635 Y527.168 E199.76873
G1 X463.815 Y526.731 E200.1183
G1 X462.701 Y526.107 E200.59866
G1 X461.893 Y525.634 E200.9509
G1 X460.931 Y525.044 E201.37546
G1 X459.952 Y524.415 E201.81324
G1 X459.15 Y523.873 E202.1774
G1 X458.055 Y523.094 E202.68296
G1 X457.42 Y522.62 E202.98107
G1 X456.503 Y521.903 E203.41899
G1 X455.789 Y521.317 E203.76649
G1 X455.003 Y520.64 E204.15676
G1 X454.214 Y519.923 E204.55785
G1 X453.395 Y519.138 E204.98464
G1 X452.749 Y518.481 E205.33128
G1 X451.992 Y517.672 E205.7481
G1 X451.423 Y517.025 E206.07224
G1 X450.69 Y516.143 E206.50369
G1 X450.172 Y515.478 E206.82082
G1 X449.591 Y514.687 E207.19005
G1 X448.937 Y513.729 E207.62644
G1 X448.382 Y512.853 E208.01657
G1 X447.593 Y511.47 E208.61559
G1 X446.952 Y510.176 E209.15886
G1 X446.437 Y508.972 E209.65152
G1 X446.032 Y507.922 E210.0749
G1 X445.692 Y506.859 E210.49478
G1 X445.347 Y505.625 E210.97682
G1 X445.034 Y504.167 E211.53784
G1 X444.818 Y502.712 E212.09122
G1 X444.723 Y501.587 E212.51597
G1 X444.677 Y500.604 E212.88619
G1 X444.672 Y499.61 E213.26014
G1 X444.71 Y498.622 E213.63212
G1 X444.816 Y497.31 E214.12731
G1 X444.982 Y496.186 E214.55476
G1 X445.204 Y495.017 E215.00241
G1 X445.431 Y494.069 E215.36914
G1 X445.693 Y493.141 E215.73191
G1 X446.038 Y492.062 E216.15809
G1 X446.51 Y490.849 E216.64777
G1 X446.951 Y489.826 E217.06687
G1 X447.599 Y488.52 E217.61535
G1 X448.327 Y487.234 E218.1713
G1 X449.059 Y486.09 E218.68225
G1 X449.618 Y485.277 E219.05344
G1 X450.112 Y484.604 E219.36751
G1 X450.816 Y483.702 E219.79798
G1 X451.463 Y482.928 E220.1775
G1 X452.033 Y482.285 E220.50077
G1 X452.781 Y481.485 E220.9128
G1 X453.492 Y480.766 E221.29322
G1 X454.125 Y480.159 E221.62316
G0 X455.414 Y481.692
G1 X456.249 Y480.929 E222.04869
G1 X457.057 Y480.23 E222.45064
G1 X457.824 Y479.601 E222.82381
G1 X458.528 Y479.049 E223.16037
G1 X459.382 Y478.414 E223.56074
G1 X460.275 Y477.781 E223.97254
G1 X461.149 Y477.194 E224.36862
G1 X461.999 Y476.646 E224.7491
G1 X462.741 Y476.188 E225.07714
G1 X463.739 Y475.603 E225.51235
G1 X464.751 Y475.037 E225.94858
G1 X465.547 Y474.612 E226.28805
G1 X466.681 Y474.036 E226.76656
G1 X467.39 Y473.691 E227.06319
G1 X468.687 Y473.093 E227.60051
G1 X469.442 Y472.761 E227.91079
G1 X470.765 Y472.207 E228.4504
G1 X471.543 Y471.9 E228.76505
G1 X472.9 Y471.39 E229.31044
G1 X473.741 Y471.089 E229.64648
G1 X475.107 Y470.629 E230.18874
G1 X476.039 Y470.332 E230.55675
G1 X477.376 Y469.932 E231.08177
G1 X478.433 Y469.635 E231.49482
G1 X479.705 Y469.302 E231.98949
G1 X480.919 Y469.005 E232.45968
G1 X482.035 Y468.75 E232.89035
G1 X483.499 Y468.444 E233.45303
G1 X484.202 Y468.308 E233.72241
G1 X486.885 Y467.844 E234.74677
G1 X489.543 Y467.476 E235.75627
G1 X492.47 Y467.171 E236.86341
G1 X494.647 Y467.017 E237.68446
G1 X496.441 Y466.926 E238.36025
G1 X497.358 Y466.892 E238.70548
G1 X499.449 Y466.856 E239.49225
G1 X500.049 Y466.853 E239.71798
G1 X502.848 Y466.899 E240.77114
G1 X505.352 Y467.016 E241.7142
G1 X507.145 Y467.142 E242.39041
G1 X508.657 Y467.277 E242.9615
G1 X510.071 Y467.432 E243.49665
G1 X511.472 Y467.609 E244.02791
G1 X512.812 Y467.798 E244.53703
G1 X515.6 Y468.27 E245.60083
G1 X516.279 Y468.404 E245.8612
G1 X518.258 Y468.816 E246.62169
