;FLAVOR:Marlin
;TIME:483
;Filament used: 20.3945m
;Layer height: 1.2
;MINX:384.459
;MINY:378.872
;MINZ:1.2
;MAXX:615.54
;MAXY:621.127
;MAXZ:30.667
;Generated with Cura_SteamEngine 5.2.1
M104 S200
M105
M109 S200
M82 ;absolute extrusion mode

G92 E0
G92 E0
;LAYER_COUNT:25
;LAYER:0
M107
G0 F7200 X386.867 Y424.181 Z1.2
;TYPE:SKIRT
G1 X387.457 Y423.722 E0.28122
G1 X388.093 Y423.327 E0.56289
G1 X388.767 Y423.003 E0.84423
G1 X389.296 Y422.808 E1.05633
G1 X523.46 Y379.215 E54.12788
G1 X524.183 Y379.022 E54.40941
G1 X524.922 Y378.907 E54.69077
G1 X525.669 Y378.872 E54.97211
G1 X526.416 Y378.917 E55.25365
G1 X527.154 Y379.041 E55.53519
G1 X527.874 Y379.244 E55.81662
G1 X528.568 Y379.522 E56.09788
G1 X529.229 Y379.872 E56.37926
G1 X529.849 Y380.291 E56.66078
G1 X530.42 Y380.774 E56.94215
G1 X530.937 Y381.315 E57.22367
G1 X531.286 Y381.758 E57.43584
G1 X614.204 Y495.886 E110.50774
G1 X614.611 Y496.513 E110.78897
G1 X614.948 Y497.181 E111.07044
G1 X615.213 Y497.881 E111.35203
G1 X615.401 Y498.605 E111.63344
G1 X615.51 Y499.345 E111.91484
G1 X615.54 Y500.092 E112.1961
G1 X615.491 Y500.839 E112.47773
G1 X615.361 Y501.576 E112.75928
G1 X615.154 Y502.294 E113.0404
G1 X614.872 Y502.987 E113.32187
G1 X614.517 Y503.646 E113.60348
G1 X614.204 Y504.114 E113.8153
G1 X531.286 Y618.242 E166.8872
G1 X530.815 Y618.823 E167.16858
G1 X530.284 Y619.351 E167.4503
G1 X529.7 Y619.818 E167.73161
G1 X529.07 Y620.221 E168.01297
G1 X528.4 Y620.554 E168.29445
G1 X527.698 Y620.813 E168.57595
G1 X526.973 Y620.997 E168.85735
G1 X526.232 Y621.101 E169.13886
G1 X525.485 Y621.127 E169.42006
G1 X524.739 Y621.072 E169.70147
G1 X524.003 Y620.938 E169.98291
G1 X523.46 Y620.785 E170.19515
G1 X389.296 Y577.192 E223.2667
G1 X388.598 Y576.924 E223.54799
G1 X387.932 Y576.582 E223.82965
G1 X387.307 Y576.171 E224.11106
G1 X386.73 Y575.696 E224.39223
G1 X386.206 Y575.161 E224.67396
G1 X385.742 Y574.574 E224.95546
G1 X385.344 Y573.941 E225.23676
G1 X385.015 Y573.269 E225.51825
G1 X384.76 Y572.566 E225.79959
G1 X384.582 Y571.84 E226.08081
G1 X384.482 Y571.098 E226.36248
G1 X384.459 Y570.535 E226.57446
G1 X384.459 Y429.465 E279.64657
G1 X384.499 Y428.718 E279.928
G1 X384.618 Y427.98 E280.20923
G1 X384.816 Y427.258 E280.49088
G1 X385.089 Y426.562 E280.77215
G1 X385.436 Y425.899 E281.05367
G1 X385.851 Y425.276 E281.33529
G1 X386.33 Y424.702 E281.61655
G1 X386.867 Y424.181 E281.89803
G0 X388.295 Y425.594
G1 X388.809 Y425.225 E282.13608
G1 X389.365 Y424.925 E282.37376
G1 X389.914 Y424.71 E282.59557
G1 X524.078 Y381.117 E335.66712
G1 X524.69 Y380.96 E335.90481
G1 X525.318 Y380.881 E336.14294
G1 X525.95 Y380.883 E336.3807
G1 X526.577 Y380.964 E336.61855
G1 X527.188 Y381.123 E336.85607
G1 X527.775 Y381.359 E337.09408
G1 X528.327 Y381.666 E337.33171
G1 X528.836 Y382.041 E337.56956
G1 X529.294 Y382.477 E337.80745
G1 X529.668 Y382.933 E338.02933
G1 X612.586 Y497.061 E391.10123
G1 X612.925 Y497.595 E391.33919
G1 X613.193 Y498.167 E391.57683
G1 X613.387 Y498.769 E391.81478
G1 X613.504 Y499.39 E392.05252
G1 X613.541 Y500.021 E392.29032
G1 X613.498 Y500.652 E392.52826
G1 X613.376 Y501.272 E392.76598
G1 X613.177 Y501.872 E393.0038
G1 X612.904 Y502.442 E393.24156
G1 X612.586 Y502.939 E393.46354
G1 X529.668 Y617.067 E446.53544
G1 X529.265 Y617.554 E446.77326
G1 X528.804 Y617.986 E447.01094
G1 X528.291 Y618.356 E447.2489
G1 X527.737 Y618.659 E447.48645
G1 X527.148 Y618.89 E447.72447
G1 X526.535 Y619.044 E447.96226
G1 X525.907 Y619.12 E448.20024
G1 X525.275 Y619.116 E448.43801
G1 X524.649 Y619.032 E448.67563
G1 X524.078 Y618.883 E448.89764
G1 X389.914 Y575.29 E501.96919
G1 X389.326 Y575.057 E502.20714
G1 X388.773 Y574.752 E502.44473
G1 X388.262 Y574.379 E502.68274
G1 X387.803 Y573.945 E502.92039
G1 X387.401 Y573.457 E503.15825
G1 X387.065 Y572.921 E503.39624
G1 X386.799 Y572.348 E503.63391
G1 X386.608 Y571.746 E503.87151
G1 X386.494 Y571.124 E504.10941
G1 X386.459 Y570.535 E504.33139
G1 X386.459 Y429.465 E557.4035
G1 X386.499 Y428.834 E557.64136
G1 X386.618 Y428.213 E557.87924
G1 X386.815 Y427.613 E558.11682
G1 X387.086 Y427.041 E558.35495
G1 X387.426 Y426.509 E558.59247
G1 X387.832 Y426.024 E558.83043
G1 X388.295 Y425.594 E559.06815
G0 X389.405 Y427.278
G1 X389.788 Y426.973 E559.25234
G1 X390.304 Y426.686 E559.47447
G1 X524.696 Y383.019 E612.6362
G1 X525.172 Y382.906 E612.82026
G1 X525.661 Y382.872 E613.00467
G1 X526.148 Y382.918 E613.1887
G1 X526.621 Y383.043 E613.37276
G1 X527.068 Y383.243 E613.55699
G1 X527.476 Y383.513 E613.74105
G1 X527.908 Y383.914 E613.9628
G1 X610.968 Y498.237 E667.12545
G1 X611.223 Y498.655 E667.30966
G1 X611.406 Y499.109 E667.49381
G1 X611.512 Y499.586 E667.67764
G1 X611.54 Y500.075 E667.86191
G1 X611.488 Y500.562 E668.04617
G1 X611.357 Y501.034 E668.23045
G1 X611.112 Y501.565 E668.45046
G1 X528.05 Y615.891 E721.61447
G1 X527.731 Y616.263 E721.79883
G1 X527.356 Y616.577 E721.98284
G1 X526.935 Y616.826 E722.16685
G1 X526.478 Y617.003 E722.35122
G1 X525.999 Y617.104 E722.53539
G1 X525.51 Y617.126 E722.71955
G1 X524.929 Y617.057 E722.93966
G1 X390.532 Y573.388 E776.10341
G1 X390.08 Y573.199 E776.28773
G1 X389.665 Y572.94 E776.47176
G1 X389.298 Y572.616 E776.65594
G1 X388.989 Y572.237 E776.83991
G1 X388.745 Y571.813 E777.02395
G1 X388.573 Y571.354 E777.20836
G1 X388.459 Y570.778 E777.42926
G1 X388.459 Y429.465 E830.59278
G1 X388.499 Y428.977 E830.77699
G1 X388.618 Y428.502 E830.96121
G1 X388.812 Y428.053 E831.14522
G1 X389.077 Y427.641 E831.32952
G1 X389.405 Y427.278 E831.51357
G0 X390.798 Y428.714
G1 X391.15 Y428.514 E831.66588
G1 X525.314 Y384.921 E884.73743
G1 X525.592 Y384.872 E884.84363
G1 X525.872 Y384.904 E884.94965
G1 X526.133 Y385.012 E885.05592
G1 X526.432 Y385.284 E885.20799
G1 X609.35 Y499.412 E938.27989
G1 X609.482 Y499.662 E938.38625
G1 X609.539 Y499.938 E938.49228
G1 X609.517 Y500.219 E938.59831
G1 X609.35 Y500.588 E938.75069
G1 X526.432 Y614.716 E991.8226
G1 X526.236 Y614.918 E991.92848
G1 X525.991 Y615.058 E992.03464
G1 X525.716 Y615.124 E992.14104
G1 X525.314 Y615.079 E992.29322
G1 X391.15 Y571.486 E1045.36477
G1 X390.897 Y571.362 E1045.47077
G1 X390.688 Y571.172 E1045.57703
G1 X390.541 Y570.931 E1045.68323
G1 X390.459 Y570.535 E1045.83537
G1 X390.459 Y429.465 E1098.90748
G1 X390.499 Y429.186 E1099.01351
G1 X390.615 Y428.929 E1099.11959
G1 X390.798 Y428.714 E1099.22581
;MESH:simple_cup_or_vase_02.stl
G0 X393.35 Y430.839
G0 X395.164 Y432.158
G0 X392.46 Y430.191
;TYPE:WALL-OUTER
G1 X392.46 Y500.002 E1125.48949
G1 X392.46 Y569.809 E1151.75166
G1 X525.241 Y612.953 E1204.27617
G1 X607.305 Y500.001 E1256.8013
G1 X525.241 Y387.047 E1309.32704
G1 X392.46 Y430.191 E1361.85156
G0 X392.46 Y431.066
G0 X395.164 Y432.158
G0 X394.361 Y431.57
;TYPE:SKIN
G1 X394.361 Y568.43 E1413.33981
G1 X524.515 Y610.721 E1464.82522
G1 X604.957 Y500.002 E1516.31204
G1 X524.515 Y389.279 E1567.80007
G92 E0
G1 X394.361 Y431.57 E51.48541
G0 X395.164 Y432.158
G0 X523.573 Y390.637
G1 X526.101 Y393.165 E52.83042
G0 X521.438 Y391.33
G1 X533.615 Y403.507 E59.3091
G1 X533.968 Y403.86
G0 X541.129 Y413.849
G1 X519.303 Y392.024 E70.92121
G0 X517.168 Y392.717
G1 X548.643 Y424.192 E87.66726
G1 X548.996 Y424.545
G0 X556.157 Y434.534
G1 X515.033 Y393.411 E109.54672
G0 X512.899 Y394.105
G1 X563.671 Y444.877 E136.5596
G1 X564.024 Y445.23
G0 X571.185 Y455.219
G1 X510.764 Y394.798 E168.70617
G0 X508.629 Y395.492
G1 X578.699 Y465.562 E205.98641
G1 X579.052 Y465.915
G0 X586.213 Y475.904
G1 X506.494 Y396.186 E248.40007
G0 X504.36 Y396.879
G1 X593.727 Y486.246 E295.94715
G1 X594.08 Y486.599
G0 X601.241 Y496.589
G1 X502.225 Y397.573 E348.62791
G0 X500.09 Y398.267
G1 X602.923 Y501.1 E403.33947
G0 X601.733 Y502.738
G1 X497.955 Y398.96 E458.55382
G0 X495.821 Y399.654
G1 X600.542 Y504.376 E514.27015
G0 X599.352 Y506.014
G1 X493.686 Y400.348 E570.48899
G0 X491.551 Y401.041
G1 X598.162 Y507.653 E627.21088
G0 X596.972 Y509.291
G1 X489.416 Y401.735 E684.43528
G0 X487.282 Y402.429
G1 X595.782 Y510.929 E742.16194
G0 X594.591 Y512.567
G1 X485.147 Y403.122 E800.3911
G0 X483.012 Y403.816
G1 X593.401 Y514.205 E859.12279
G0 X592.211 Y515.844
G1 X480.877 Y404.51 E918.35725
G0 X478.743 Y405.204
G1 X591.021 Y517.481 E978.09369
G0 X589.831 Y519.12
G1 X476.608 Y405.897 E1038.33318
G0 X474.473 Y406.591
G1 X588.64 Y520.758 E1099.07492
G0 X587.45 Y522.397
G1 X472.338 Y407.285 E1160.31944
G0 X470.204 Y407.978
G1 X586.26 Y524.034 E1222.06621
G0 X585.07 Y525.673
G1 X468.068 Y408.671 E1284.3163
G0 X465.933 Y409.365
G1 X583.879 Y527.311 E1347.06862
G0 X582.689 Y528.949
G1 X463.799 Y410.059 E1410.3232
G0 X461.664 Y410.752
G1 X581.499 Y530.587 E1474.08056
G0 X580.309 Y532.225
G1 X459.529 Y411.446 E1538.34044
G0 X457.394 Y412.14
G1 X579.119 Y533.864 E1603.10309
G0 X577.928 Y535.502
G92 E0
G1 X455.26 Y412.833 E65.2649
G0 X453.125 Y413.527
G1 X576.738 Y537.14 E131.03232
G0 X575.548 Y538.778
G1 X450.99 Y414.221 E197.30225
G0 X448.855 Y414.914
G1 X574.358 Y540.416 E264.07496
G0 X573.168 Y542.055
G1 X446.721 Y415.608 E331.35019
G0 X444.586 Y416.302
G1 X571.977 Y543.693 E399.12766
G0 X570.787 Y545.331
G1 X442.451 Y416.995 E467.40792
G0 X440.316 Y417.689
G1 X569.597 Y546.969 E536.19069
G0 X568.407 Y548.608
G1 X438.182 Y418.383 E605.47597
G0 X436.047 Y419.076
G1 X567.217 Y550.246 E675.26404
G0 X566.026 Y551.884
G1 X433.912 Y419.77 E745.55435
G0 X431.777 Y420.464
G1 X564.836 Y553.522 E816.34718
G0 X563.646 Y555.16
G1 X429.643 Y421.157 E887.64252
G0 X427.508 Y421.851
G1 X562.456 Y556.799 E959.44065
G0 X561.265 Y558.436
G1 X425.373 Y422.545 E1031.74075
G0 X423.238 Y423.238
G1 X560.075 Y560.075 E1104.5439
G0 X558.885 Y561.713
G1 X421.104 Y423.932 E1177.8493
G0 X418.969 Y424.626
G1 X557.695 Y563.351 E1251.65722
G0 X556.504 Y564.989
G1 X416.834 Y425.319 E1325.96765
G0 X414.699 Y426.012
G1 X555.314 Y566.627 E1400.78086
G0 X554.124 Y568.266
G1 X412.564 Y426.706 E1476.09685
G0 X410.429 Y427.4
G1 X552.934 Y569.904 E1551.91535
G0 X551.743 Y571.542
G1 X408.294 Y428.093 E1628.23637
G0 X406.16 Y428.787
G92 E0
G1 X550.553 Y573.18 E76.82327
G0 X549.363 Y574.819
G1 X404.025 Y429.481 E154.14932
G0 X401.89 Y430.174
G1 X548.173 Y576.457 E231.97815
G0 X546.982 Y578.095
G1 X399.755 Y430.868 E310.30922
G0 X397.62 Y431.562
G1 X545.792 Y579.733 E389.14282
G0 X544.602 Y581.371
G1 X395.486 Y432.255 E468.47892
G0 X395.361 Y434.959
G1 X543.412 Y583.01 E547.2484
G0 X542.222 Y584.648
G1 X395.361 Y437.787 E625.38475
G0 X395.361 Y440.615
G1 X541.031 Y586.286 E702.88771
G0 X539.841 Y587.924
G1 X395.361 Y443.444 E779.75726
G0 X395.361 Y446.272
G1 X538.651 Y589.563 E855.99395
G0 X537.461 Y591.201
G1 X395.361 Y449.101 E931.59725
G0 X395.361 Y451.929
G1 X536.27 Y592.839 E1006.56714
G0 X535.08 Y594.477
G1 X395.361 Y454.758 E1080.90364
G0 X395.361 Y457.586
G1 X533.89 Y596.115 E1154.60701
G0 X532.7 Y597.754
G1 X395.361 Y460.414 E1227.67751
G0 X395.361 Y463.243
G1 X531.509 Y599.391 E1300.11409
G0 X530.319 Y601.03
G1 X395.361 Y466.071 E1371.9178
G0 X395.361 Y468.9
G1 X529.129 Y602.668 E1443.08811
G0 X527.939 Y604.306
G1 X395.361 Y471.728 E1513.62529
G0 X395.361 Y474.557
G1 X526.748 Y605.944 E1583.52881
G0 X525.558 Y607.582
G92 E0
G1 X395.361 Y477.385 E69.27039
G0 X395.361 Y480.213
G1 X524.368 Y609.221 E137.90791
G0 X520.77 Y608.451
G1 X395.361 Y483.042 E204.63088
G0 X395.361 Y485.87
G1 X516.58 Y607.09 E269.12485
G1 X516.933 Y607.443
G0 X516.949 Y607.392
G0 X512.39 Y605.728
G1 X395.361 Y488.699 E331.38929
G0 X395.361 Y491.527
G1 X508.201 Y604.367 E391.42501
G1 X508.554 Y604.72
G0 X508.57 Y604.67
G0 X504.01 Y603.005
G1 X395.361 Y494.356 E449.23094
G0 X395.361 Y497.184
G1 X499.821 Y601.644 E504.80814
G1 X500.174 Y601.997
G0 X500.19 Y601.947
G0 X495.631 Y600.283
G1 X395.361 Y500.012 E558.15635
G0 X395.361 Y502.841
G1 X491.441 Y598.921 E609.27503
G1 X491.794 Y599.274
G0 X491.81 Y599.224
G0 X487.251 Y597.56
G1 X395.361 Y505.669 E658.16471
G0 X395.361 Y508.498
G1 X483.062 Y596.199 E704.82541
G1 X483.415 Y596.552
G0 X483.431 Y596.502
G0 X478.871 Y594.837
G1 X395.361 Y511.326 E749.25657
G0 X395.361 Y514.155
G1 X474.682 Y593.476 E791.45875
G1 X475.035 Y593.829
G0 X475.051 Y593.779
G0 X470.492 Y592.114
G1 X395.361 Y516.983 E831.43166
G0 X395.361 Y519.811
G1 X466.302 Y590.753 E869.17558
G1 X466.655 Y591.106
G0 X466.671 Y591.056
G0 X462.112 Y589.391
G1 X395.361 Y522.64 E904.68997
G0 X395.361 Y525.468
G1 X457.923 Y588.03 E937.97564
G1 X458.276 Y588.383
G0 X458.292 Y588.333
G0 X453.733 Y586.669
G1 X395.361 Y528.297 E969.03205
G0 X395.361 Y531.125
G1 X449.543 Y585.307 E997.8592
G1 X449.896 Y585.66
G0 X449.912 Y585.61
G0 X445.353 Y583.946
G1 X395.361 Y533.954 E1024.45708
G0 X395.361 Y536.782
G1 X441.163 Y582.585 E1048.82598
G1 X441.516 Y582.938
G0 X441.532 Y582.888
G0 X436.974 Y581.224
G1 X395.361 Y539.61 E1070.96614
G0 X395.361 Y542.439
G1 X432.783 Y579.862 E1090.87652
G1 X433.136 Y580.215
G0 X433.152 Y580.165
G0 X428.594 Y578.501
G1 X395.361 Y545.267 E1108.55817
G0 X395.361 Y548.096
G1 X424.404 Y577.139 E1124.01029
G1 X424.757 Y577.492
G0 X424.773 Y577.442
G0 X420.214 Y575.777
G1 X395.361 Y550.924 E1137.23315
G0 X395.361 Y553.752
G1 X416.024 Y574.416 E1148.22702
G1 X416.377 Y574.769
G0 X416.393 Y574.719
G0 X411.835 Y573.055
G1 X395.361 Y556.581 E1156.99189
G0 X395.361 Y559.409
G1 X407.644 Y571.693 E1163.52724
G1 X407.997 Y572.046
G0 X408.013 Y571.996
G0 X403.455 Y570.332
G1 X395.361 Y562.238 E1167.8336
G0 X395.361 Y565.066
G1 X399.265 Y568.971 E1169.91096
G1 X399.618 Y569.324
G0 X400.223 Y567.467
;MESH:NONMESH
G0 F600 X400.223 Y567.467 Z2.4
G0 F7200 X402.46 Y437.457
;TIME_ELAPSED:183.474129
;LAYER:1
;TYPE:WALL-INNER
;MESH:simple_cup_or_vase_02.stl
G1 X402.46 Y562.543 E1216.9697
G1 X521.421 Y601.197 E1264.02746
G1 X594.944 Y500.001 E1311.08584
G1 X521.421 Y398.803 E1358.14482
G1 X402.46 Y437.457 E1405.20258
G0 X400.46 Y436.004
G1 X400.46 Y563.997 E1453.35497
G1 X522.185 Y603.548 E1501.50597
G1 X597.417 Y500.001 E1549.65781
G1 X522.185 Y396.452 E1597.81026
G92 E0
G1 X400.46 Y436.004 E48.15111
G0 X398.46 Y434.551
G1 X398.46 Y565.45 E97.39677
G1 X522.949 Y605.899 E146.64112
G1 X599.889 Y500.001 E195.8862
G1 X522.949 Y394.101 E245.1319
G1 X398.46 Y434.551 E294.37636
G0 X396.46 Y433.097
G1 X396.46 Y566.903 E344.71567
G1 X523.713 Y608.251 E395.05348
G1 X602.361 Y500.001 E445.39212
G1 X523.713 Y391.75 E495.73106
G1 X396.46 Y433.097 E546.06876
G0 X395.164 Y432.158
G0 X394.46 Y431.644
G1 X394.46 Y568.356 E597.50134
G1 X524.477 Y610.602 E648.9325
G1 X604.833 Y500.001 E700.36438
G1 X524.477 Y389.398 E751.79688
G1 X394.46 Y431.644 E803.22804
G0 X395.164 Y432.158
G0 X392.46 Y430.191
;TYPE:WALL-OUTER
G1 X392.46 Y569.809 E855.75389
G1 X525.241 Y612.953 E908.2784
G1 X607.305 Y500.001 E960.80353
G1 X525.241 Y387.047 E1013.32927
G1 X392.46 Y430.191 E1065.85379
G0 X392.46 Y431.066
G0 X395.164 Y432.158
G0 X404.36 Y438.836
;TYPE:SKIN
G1 X404.36 Y499.996 E1088.86286
G1 X404.361 Y561.165 E1111.87532
G1 X520.695 Y598.965 E1157.89386
G1 X592.596 Y500.002 E1203.91392
G1 X520.695 Y401.035 E1249.9352
G1 X404.36 Y438.836 E1295.95422
G0 X405.36 Y440.339
G1 X406.512 Y439.187 E1296.56713
G0 X405.36 Y443.167
G1 X410.701 Y437.826 E1299.40877
G1 X411.054 Y437.473
G0 X414.892 Y436.464
G1 X405.36 Y445.996 E1304.4802
G0 X405.36 Y448.824
G1 X419.081 Y435.103 E1311.78036
G1 X419.434 Y434.75
G0 X423.271 Y433.742
G1 X405.36 Y451.653 E1321.30978
G0 X405.36 Y454.481
G1 X427.461 Y432.38 E1333.06846
G1 X427.814 Y432.027
G0 X431.651 Y431.019
G1 X405.36 Y457.309 E1347.05614
G0 X405.36 Y460.138
G1 X435.84 Y429.657 E1363.27307
G1 X436.193 Y429.304
G0 X440.03 Y428.296
G1 X405.36 Y462.966 E1381.719
G0 X405.36 Y465.795
G1 X444.22 Y426.934 E1402.39445
G1 X444.573 Y426.581
G0 X448.41 Y425.573
G1 X405.36 Y468.623 E1425.2989
G0 X405.36 Y471.452
G1 X452.599 Y424.212 E1450.43234
G1 X452.952 Y423.859
G0 X456.79 Y422.85
G1 X405.36 Y474.28 E1477.7953
G0 X405.36 Y477.108
G1 X460.979 Y421.489 E1507.38699
G1 X461.332 Y421.136
G0 X465.169 Y420.128
G1 X405.36 Y479.936 E1539.20768
G0 X405.36 Y482.765
G1 X469.359 Y418.766 E1573.25789
G92 E0
G1 X469.712 Y418.413
G0 X473.549 Y417.405
G1 X405.36 Y485.593 E36.27921
G0 X405.36 Y488.421
G1 X477.739 Y416.043 E74.78767
G1 X478.092 Y415.69
G0 X481.929 Y414.682
G1 X405.36 Y491.25 E115.5254
