/JOB
//NAME output
//POS
///NPOS 1745,0,0,0,0,0
///TOOL 10
///POSTYPE PULSE
///PULSE
///TOOL 10
///POSTYPE BASE
///RECTAN
///RCONF 0,0,0,0,0,0,0,0
C00000=500.000,500.000,500.000,-180.00,0.00,0.00
C00001=921.002,1000.001,1.200,-180.00,0.00,0.00
C00002=921.465,1008.539,1.200,-180.00,0.00,0.00
C00003=922.849,1016.981,1.200,-180.00,0.00,0.00
C00004=925.134,1025.210,1.200,-180.00,0.00,0.00
C00005=928.303,1033.169,1.200,-180.00,0.00,0.00
C00006=932.309,1040.726,1.200,-180.00,0.00,0.00
C00007=937.109,1047.806,1.200,-180.00,0.00,0.00
C00008=948.858,1060.208,1.200,-180.00,0.00,0.00
C00009=962.997,1069.795,1.200,-180.00,0.00,0.00
C00010=970.762,1073.387,1.200,-180.00,0.00,0.00
C00011=978.864,1076.118,1.200,-180.00,0.00,0.00
C00012=987.220,1077.957,1.200,-180.00,0.00,0.00
C00013=995.725,1078.883,1.200,-180.00,0.00,0.00
C00014=1029.238,1073.387,1.200,-180.00,0.00,0.00
C00015=1057.352,1054.326,1.200,-180.00,0.00,0.00
C00016=1062.891,1047.806,1.200,-180.00,0.00,0.00
C00017=1077.151,1016.981,1.200,-180.00,0.00,0.00
C00018=1074.866,974.790,1.200,-180.00,0.00,0.00
C00019=1071.697,966.831,1.200,-180.00,0.00,0.00
C00020=1067.689,959.272,1.200,-180.00,0.00,0.00
C00021=1062.889,952.192,1.200,-180.00,0.00,0.00
C00022=1051.140,939.790,1.200,-180.00,0.00,0.00
C00023=1037.003,930.205,1.200,-180.00,0.00,0.00
C00024=1029.238,926.613,1.200,-180.00,0.00,0.00
C00025=1021.136,923.882,1.200,-180.00,0.00,0.00
C00026=1012.780,922.043,1.200,-180.00,0.00,0.00
C00027=1004.275,921.118,1.200,-180.00,0.00,0.00
C00028=970.762,926.613,1.200,-180.00,0.00,0.00
C00029=942.648,945.674,1.200,-180.00,0.00,0.00
C00030=937.109,952.194,1.200,-180.00,0.00,0.00
C00031=922.849,983.019,1.200,-180.00,0.00,0.00
C00032=923.731,1000.000,1.200,-180.00,0.00,0.00
C00033=922.905,1000.002,1.200,-180.00,0.00,0.00
C00034=924.708,1016.572,1.200,-180.00,0.00,0.00
C00035=930.030,1032.369,1.200,-180.00,0.00,0.00
C00036=933.939,1039.744,1.200,-180.00,0.00,0.00
C00037=944.029,1053.016,1.200,-180.00,0.00,0.00
C00038=950.090,1058.756,1.200,-180.00,0.00,0.00
C00039=956.740,1063.811,1.200,-180.00,0.00,0.00
C00040=963.889,1068.112,1.200,-180.00,0.00,0.00
C00041=987.529,1076.079,1.200,-180.00,0.00,0.00
C00042=1012.471,1076.079,1.200,-180.00,0.00,0.00
C00043=1020.628,1074.283,1.200,-180.00,0.00,0.00
C00044=1028.531,1071.619,1.200,-180.00,0.00,0.00
C00045=1036.111,1068.112,1.200,-180.00,0.00,0.00
C00046=1061.378,1046.653,1.200,-180.00,0.00,0.00
C00047=1077.095,999.997,1.200,-180.00,0.00,0.00
C00048=1069.969,967.631,1.200,-180.00,0.00,0.00
C00049=1066.057,960.252,1.200,-180.00,0.00,0.00
C00050=1055.971,946.983,1.200,-180.00,0.00,0.00
C00051=1049.906,941.240,1.200,-180.00,0.00,0.00
C00052=1043.261,936.189,1.200,-180.00,0.00,0.00
C00053=1036.111,931.888,1.200,-180.00,0.00,0.00
C00054=1012.471,923.921,1.200,-180.00,0.00,0.00
C00055=987.529,923.921,1.200,-180.00,0.00,0.00
C00056=979.372,925.717,1.200,-180.00,0.00,0.00
C00057=971.469,928.381,1.200,-180.00,0.00,0.00
C00058=963.889,931.888,1.200,-180.00,0.00,0.00
C00059=938.622,953.347,1.200,-180.00,0.00,0.00
C00060=922.905,1000.002,1.200,-180.00,0.00,0.00
C00061=959.881,1064.533,1.200,-180.00,0.00,0.00
C00062=935.263,1039.915,1.200,-180.00,0.00,0.00
C00063=934.910,1039.562,1.200,-180.00,0.00,0.00
C00064=931.857,1033.681,1.200,-180.00,0.00,0.00
C00065=966.302,1068.125,1.200,-180.00,0.00,0.00
C00066=966.655,1068.478,1.200,-180.00,0.00,0.00
C00067=971.565,1070.560,1.200,-180.00,0.00,0.00
C00068=929.606,1028.601,1.200,-180.00,0.00,0.00
C00069=929.253,1028.248,1.200,-180.00,0.00,0.00
C00070=929.272,1028.241,1.200,-180.00,0.00,0.00
C00071=927.799,1023.966,1.200,-180.00,0.00,0.00
C00072=975.884,1072.051,1.200,-180.00,0.00,0.00
C00073=976.250,1072.364,1.200,-180.00,0.00,0.00
C00074=980.074,1073.412,1.200,-180.00,0.00,0.00
C00075=926.711,1020.049,1.200,-180.00,0.00,0.00
C00076=926.425,1019.679,1.200,-180.00,0.00,0.00
C00077=925.653,1016.163,1.200,-180.00,0.00,0.00
C00078=983.702,1074.211,1.200,-180.00,0.00,0.00
C00079=925.099,1012.780,1.200,-180.00,0.00,0.00
C00080=924.544,1009.397,1.200,-180.00,0.00,0.00
C00081=990.548,1075.401,1.200,-180.00,0.00,0.00
C00082=993.722,1075.746,1.200,-180.00,0.00,0.00
C00083=924.246,1006.270,1.200,-180.00,0.00,0.00
C00084=924.083,1003.279,1.200,-180.00,0.00,0.00
C00085=996.786,1075.982,1.200,-180.00,0.00,0.00
C00086=999.614,1075.982,1.200,-180.00,0.00,0.00
C00087=923.921,1000.289,1.200,-180.00,0.00,0.00
C00088=924.037,997.576,1.200,-180.00,0.00,0.00
C00089=1002.443,1075.982,1.200,-180.00,0.00,0.00
C00090=1005.157,1075.868,1.200,-180.00,0.00,0.00
C00091=924.183,994.894,1.200,-180.00,0.00,0.00
C00092=924.329,992.211,1.200,-180.00,0.00,0.00
C00093=1007.708,1075.590,1.200,-180.00,0.00,0.00
C00094=1010.258,1075.312,1.200,-180.00,0.00,0.00
C00095=924.686,989.740,1.200,-180.00,0.00,0.00
C00096=925.085,987.310,1.200,-180.00,0.00,0.00
C00097=1012.764,1074.989,1.200,-180.00,0.00,0.00
C00098=1015.082,1074.479,1.200,-180.00,0.00,0.00
C00099=925.483,984.880,1.200,-180.00,0.00,0.00
C00100=925.987,982.555,1.200,-180.00,0.00,0.00
C00101=1017.399,1073.968,1.200,-180.00,0.00,0.00
C00102=1019.717,1073.457,1.200,-180.00,0.00,0.00
C00103=926.601,980.341,1.200,-180.00,0.00,0.00
C00104=927.214,978.126,1.200,-180.00,0.00,0.00
C00105=1021.889,1072.801,1.200,-180.00,0.00,0.00
C00106=1024.005,1072.088,1.200,-180.00,0.00,0.00
C00107=927.828,975.911,1.200,-180.00,0.00,0.00
C00108=928.618,973.873,1.200,-180.00,0.00,0.00
C00109=1026.120,1071.375,1.200,-180.00,0.00,0.00
C00110=1028.229,1070.655,1.200,-180.00,0.00,0.00
C00111=929.424,971.850,1.200,-180.00,0.00,0.00
C00112=930.229,969.827,1.200,-180.00,0.00,0.00
C00113=1030.163,1069.761,1.200,-180.00,0.00,0.00
C00114=1032.096,1068.865,1.200,-180.00,0.00,0.00
C00115=931.056,967.826,1.200,-180.00,0.00,0.00
C00116=932.036,965.977,1.200,-180.00,0.00,0.00
C00117=1034.030,1067.971,1.200,-180.00,0.00,0.00
C00118=1035.936,1067.048,1.200,-180.00,0.00,0.00
C00119=933.015,964.128,1.200,-180.00,0.00,0.00
C00120=933.995,962.280,1.200,-180.00,0.00,0.00
C00121=1037.702,1065.986,1.200,-180.00,0.00,0.00
C00122=1039.468,1064.923,1.200,-180.00,0.00,0.00
C00123=935.005,960.461,1.200,-180.00,0.00,0.00
C00124=936.148,958.775,1.200,-180.00,0.00,0.00
C00125=1041.233,1063.861,1.200,-180.00,0.00,0.00
C00126=1042.972,1062.771,1.200,-180.00,0.00,0.00
C00127=937.291,957.090,1.200,-180.00,0.00,0.00
C00128=938.433,955.404,1.200,-180.00,0.00,0.00
C00129=1044.579,1061.550,1.200,-180.00,0.00,0.00
C00130=1046.186,1060.329,1.200,-180.00,0.00,0.00
C00131=939.598,953.740,1.200,-180.00,0.00,0.00
C00132=940.898,952.211,1.200,-180.00,0.00,0.00
C00133=1047.793,1059.107,1.200,-180.00,0.00,0.00
C00134=1049.387,1057.872,1.200,-180.00,0.00,0.00
C00135=942.197,950.682,1.200,-180.00,0.00,0.00
C00136=943.496,949.153,1.200,-180.00,0.00,0.00
C00137=1050.839,1056.496,1.200,-180.00,0.00,0.00
C00138=1052.292,1055.121,1.200,-180.00,0.00,0.00
C00139=944.801,947.629,1.200,-180.00,0.00,0.00
C00140=946.254,946.254,1.200,-180.00,0.00,0.00
C00141=1053.745,1053.745,1.200,-180.00,0.00,0.00
C00142=1055.197,1052.369,1.200,-180.00,0.00,0.00
C00143=947.706,944.878,1.200,-180.00,0.00,0.00
C00144=949.159,943.502,1.200,-180.00,0.00,0.00
C00145=1056.502,1050.845,1.200,-180.00,0.00,0.00
C00146=1057.801,1049.316,1.200,-180.00,0.00,0.00
C00147=950.612,942.127,1.200,-180.00,0.00,0.00
C00148=952.205,940.891,1.200,-180.00,0.00,0.00
C00149=1059.101,1047.787,1.200,-180.00,0.00,0.00
C00150=1060.401,1046.259,1.200,-180.00,0.00,0.00
C00151=953.812,939.670,1.200,-180.00,0.00,0.00
C00152=955.419,938.448,1.200,-180.00,0.00,0.00
C00153=1061.565,1044.595,1.200,-180.00,0.00,0.00
C00154=1062.707,1042.908,1.200,-180.00,0.00,0.00
C00155=957.026,937.227,1.200,-180.00,0.00,0.00
C00156=958.765,936.137,1.200,-180.00,0.00,0.00
C00157=1063.850,1041.223,1.200,-180.00,0.00,0.00
C00158=1064.993,1039.537,1.200,-180.00,0.00,0.00
C00159=960.531,935.075,1.200,-180.00,0.00,0.00
C00160=962.297,934.012,1.200,-180.00,0.00,0.00
C00161=1066.002,1037.718,1.200,-180.00,0.00,0.00
C00162=1066.982,1035.870,1.200,-180.00,0.00,0.00
C00163=964.063,932.950,1.200,-180.00,0.00,0.00
C00164=965.969,932.028,1.200,-180.00,0.00,0.00
C00165=1067.962,1034.021,1.200,-180.00,0.00,0.00
C00166=1068.942,1032.172,1.200,-180.00,0.00,0.00
C00167=967.902,931.132,1.200,-180.00,0.00,0.00
C00168=969.836,930.238,1.200,-180.00,0.00,0.00
C00169=1069.768,1030.170,1.200,-180.00,0.00,0.00
C00170=1070.575,1028.148,1.200,-180.00,0.00,0.00
C00171=971.769,929.343,1.200,-180.00,0.00,0.00
C00172=973.878,928.624,1.200,-180.00,0.00,0.00
C00173=1071.381,1026.126,1.200,-180.00,0.00,0.00
C00174=1072.171,1024.087,1.200,-180.00,0.00,0.00
C00175=975.994,927.911,1.200,-180.00,0.00,0.00
C00176=978.109,927.197,1.200,-180.00,0.00,0.00
C00177=1072.784,1021.873,1.200,-180.00,0.00,0.00
C00178=1073.398,1019.658,1.200,-180.00,0.00,0.00
C00179=980.281,926.540,1.200,-180.00,0.00,0.00
C00180=982.598,926.030,1.200,-180.00,0.00,0.00
C00181=1074.012,1017.443,1.200,-180.00,0.00,0.00
C00182=1074.516,1015.119,1.200,-180.00,0.00,0.00
C00183=984.916,925.519,1.200,-180.00,0.00,0.00
C00184=987.234,925.009,1.200,-180.00,0.00,0.00
C00185=1074.914,1012.689,1.200,-180.00,0.00,0.00
C00186=1075.312,1010.258,1.200,-180.00,0.00,0.00
C00187=989.740,924.686,1.200,-180.00,0.00,0.00
C00188=992.291,924.409,1.200,-180.00,0.00,0.00
C00189=1075.669,1007.787,1.200,-180.00,0.00,0.00
C00190=1075.815,1005.104,1.200,-180.00,0.00,0.00
C00191=994.842,924.131,1.200,-180.00,0.00,0.00
C00192=997.557,924.018,1.200,-180.00,0.00,0.00
C00193=1075.961,1002.422,1.200,-180.00,0.00,0.00
C00194=1076.077,999.710,1.200,-180.00,0.00,0.00
C00195=1000.386,924.018,1.200,-180.00,0.00,0.00
C00196=1003.214,924.018,1.200,-180.00,0.00,0.00
C00197=1075.915,996.719,1.200,-180.00,0.00,0.00
C00198=1075.752,993.728,1.200,-180.00,0.00,0.00
C00199=1006.278,924.254,1.200,-180.00,0.00,0.00
C00200=1009.451,924.598,1.200,-180.00,0.00,0.00
C00201=1075.454,990.601,1.200,-180.00,0.00,0.00
C00202=1074.899,987.218,1.200,-180.00,0.00,0.00
C00203=1012.670,924.988,1.200,-180.00,0.00,0.00
C00204=1016.296,925.787,1.200,-180.00,0.00,0.00
C00205=1074.346,983.836,1.200,-180.00,0.00,0.00
C00206=1074.699,984.189,1.200,-180.00,0.00,0.00
C00207=1074.586,984.207,1.200,-180.00,0.00,0.00
C00208=1073.288,979.950,1.200,-180.00,0.00,0.00
C00209=1019.924,926.586,1.200,-180.00,0.00,0.00
C00210=1019.551,926.321,1.200,-180.00,0.00,0.00
C00211=1024.114,927.948,1.200,-180.00,0.00,0.00
C00212=1072.200,976.034,1.200,-180.00,0.00,0.00
C00213=1072.487,976.404,1.200,-180.00,0.00,0.00
C00214=1070.391,971.396,1.200,-180.00,0.00,0.00
C00215=1028.433,929.438,1.200,-180.00,0.00,0.00
C00216=1028.077,929.094,1.200,-180.00,0.00,0.00
C00217=1033.696,931.873,1.200,-180.00,0.00,0.00
C00218=1068.140,966.317,1.200,-180.00,0.00,0.00
C00219=1064.731,960.079,1.200,-180.00,0.00,0.00
C00220=1040.117,935.466,1.200,-180.00,0.00,0.00
C00221=1039.764,935.113,1.200,-180.00,0.00,0.00
C00222=1053.533,946.052,1.200,-180.00,0.00,0.00
C00223=1055.754,948.273,1.200,-180.00,0.00,0.00
C00224=1054.440,949.387,1.200,-180.00,0.00,0.00
C00225=931.017,1000.001,1.200,-180.00,0.00,0.00
C00226=931.421,1007.457,1.200,-180.00,0.00,0.00
C00227=932.629,1014.828,1.200,-180.00,0.00,0.00
C00228=934.624,1022.013,1.200,-180.00,0.00,0.00
C00229=937.393,1028.965,1.200,-180.00,0.00,0.00
C00230=940.890,1035.564,1.200,-180.00,0.00,0.00
C00231=949.918,1047.438,1.200,-180.00,0.00,0.00
C00232=961.290,1057.096,1.200,-180.00,0.00,0.00
C00233=967.688,1060.947,1.200,-180.00,0.00,0.00
C00234=974.469,1064.084,1.200,-180.00,0.00,0.00
C00235=981.544,1066.468,1.200,-180.00,0.00,0.00
C00236=988.840,1068.075,1.200,-180.00,0.00,0.00
C00237=1018.456,1066.468,1.200,-180.00,0.00,0.00
C00238=1044.659,1052.575,1.200,-180.00,0.00,0.00
C00239=1050.082,1047.438,1.200,-180.00,0.00,0.00
C00240=1065.378,1022.013,1.200,-180.00,0.00,0.00
C00241=1065.376,977.988,1.200,-180.00,0.00,0.00
C00242=1062.607,971.035,1.200,-180.00,0.00,0.00
C00243=1059.108,964.435,1.200,-180.00,0.00,0.00
C00244=1050.082,952.562,1.200,-180.00,0.00,0.00
C00245=1038.711,942.904,1.200,-180.00,0.00,0.00
C00246=1032.312,939.054,1.200,-180.00,0.00,0.00
C00247=1025.531,935.916,1.200,-180.00,0.00,0.00
C00248=1018.456,933.532,1.200,-180.00,0.00,0.00
C00249=1011.160,931.926,1.200,-180.00,0.00,0.00
C00250=981.544,933.532,1.200,-180.00,0.00,0.00
C00251=955.341,947.425,1.200,-180.00,0.00,0.00
C00252=949.918,952.562,1.200,-180.00,0.00,0.00
C00253=934.622,977.987,1.200,-180.00,0.00,0.00
C00254=930.673,1015.259,1.200,-180.00,0.00,0.00
C00255=935.575,1029.806,1.200,-180.00,0.00,0.00
C00256=939.174,1036.596,1.200,-180.00,0.00,0.00
C00257=948.464,1048.816,1.200,-180.00,0.00,0.00
C00258=954.044,1054.102,1.200,-180.00,0.00,0.00
C00259=960.166,1058.754,1.200,-180.00,0.00,0.00
C00260=966.750,1062.716,1.200,-180.00,0.00,0.00
C00261=988.516,1070.051,1.200,-180.00,0.00,0.00
C00262=1011.484,1070.051,1.200,-180.00,0.00,0.00
C00263=1018.992,1068.398,1.200,-180.00,0.00,0.00
C00264=1026.272,1065.944,1.200,-180.00,0.00,0.00
C00265=1033.250,1062.716,1.200,-180.00,0.00,0.00
C00266=1039.834,1058.754,1.200,-180.00,0.00,0.00
C00267=1064.425,1029.805,1.200,-180.00,0.00,0.00
C00268=1067.274,977.348,1.200,-180.00,0.00,0.00
C00269=1064.425,970.194,1.200,-180.00,0.00,0.00
C00270=1060.824,963.402,1.200,-180.00,0.00,0.00
C00271=1051.536,951.184,1.200,-180.00,0.00,0.00
C00272=1045.954,945.896,1.200,-180.00,0.00,0.00
C00273=1039.835,941.246,1.200,-180.00,0.00,0.00
C00274=1033.251,937.284,1.200,-180.00,0.00,0.00
C00275=1011.484,929.949,1.200,-180.00,0.00,0.00
C00276=988.516,929.949,1.200,-180.00,0.00,0.00
C00277=981.008,931.602,1.200,-180.00,0.00,0.00
C00278=973.728,934.056,1.200,-180.00,0.00,0.00
C00279=966.750,937.284,1.200,-180.00,0.00,0.00
C00280=960.166,941.246,1.200,-180.00,0.00,0.00
C00281=935.575,970.195,1.200,-180.00,0.00,0.00
C00282=928.717,1015.690,1.200,-180.00,0.00,0.00
C00283=933.757,1030.647,1.200,-180.00,0.00,0.00
C00284=937.458,1037.629,1.200,-180.00,0.00,0.00
C00285=947.010,1050.193,1.200,-180.00,0.00,0.00
C00286=952.748,1055.628,1.200,-180.00,0.00,0.00
C00287=959.042,1060.412,1.200,-180.00,0.00,0.00
C00288=965.811,1064.486,1.200,-180.00,0.00,0.00
C00289=988.192,1072.028,1.200,-180.00,0.00,0.00
C00290=1011.808,1072.028,1.200,-180.00,0.00,0.00
C00291=1019.528,1070.328,1.200,-180.00,0.00,0.00
C00292=1027.014,1067.805,1.200,-180.00,0.00,0.00
C00293=1034.189,1064.486,1.200,-180.00,0.00,0.00
C00294=1040.958,1060.412,1.200,-180.00,0.00,0.00
C00295=1066.243,1030.646,1.200,-180.00,0.00,0.00
C00296=1069.172,976.709,1.200,-180.00,0.00,0.00
C00297=1066.243,969.353,1.200,-180.00,0.00,0.00
C00298=1062.541,962.370,1.200,-180.00,0.00,0.00
C00299=1052.990,949.807,1.200,-180.00,0.00,0.00
C00300=1047.250,944.370,1.200,-180.00,0.00,0.00
C00301=1040.959,939.588,1.200,-180.00,0.00,0.00
C00302=1034.189,935.514,1.200,-180.00,0.00,0.00
C00303=1011.808,927.972,1.200,-180.00,0.00,0.00
C00304=988.192,927.972,1.200,-180.00,0.00,0.00
C00305=980.472,929.672,1.200,-180.00,0.00,0.00
C00306=972.986,932.195,1.200,-180.00,0.00,0.00
C00307=965.811,935.514,1.200,-180.00,0.00,0.00
C00308=959.042,939.588,1.200,-180.00,0.00,0.00
C00309=933.757,969.354,1.200,-180.00,0.00,0.00
C00310=926.761,1016.120,1.200,-180.00,0.00,0.00
C00311=931.939,1031.488,1.200,-180.00,0.00,0.00
C00312=935.741,1038.661,1.200,-180.00,0.00,0.00
C00313=945.556,1051.571,1.200,-180.00,0.00,0.00
C00314=951.451,1057.155,1.200,-180.00,0.00,0.00
C00315=957.918,1062.070,1.200,-180.00,0.00,0.00
C00316=964.873,1066.255,1.200,-180.00,0.00,0.00
C00317=987.868,1074.004,1.200,-180.00,0.00,0.00
C00318=1012.132,1074.004,1.200,-180.00,0.00,0.00
C00319=1020.064,1072.258,1.200,-180.00,0.00,0.00
C00320=1027.755,1069.666,1.200,-180.00,0.00,0.00
C00321=1035.127,1066.255,1.200,-180.00,0.00,0.00
C00322=1059.702,1045.382,1.200,-180.00,0.00,0.00
C00323=1074.992,999.998,1.200,-180.00,0.00,0.00
C00324=1068.061,968.513,1.200,-180.00,0.00,0.00
C00325=1064.257,961.337,1.200,-180.00,0.00,0.00
C00326=1054.444,948.429,1.200,-180.00,0.00,0.00
C00327=1048.547,942.843,1.200,-180.00,0.00,0.00
C00328=1042.083,937.930,1.200,-180.00,0.00,0.00
C00329=1035.127,933.745,1.200,-180.00,0.00,0.00
C00330=1012.132,925.996,1.200,-180.00,0.00,0.00
C00331=987.868,925.996,1.200,-180.00,0.00,0.00
C00332=979.936,927.742,1.200,-180.00,0.00,0.00
C00333=972.245,930.334,1.200,-180.00,0.00,0.00
C00334=964.873,933.745,1.200,-180.00,0.00,0.00
C00335=940.298,954.618,1.200,-180.00,0.00,0.00
C00336=925.008,1000.001,1.200,-180.00,0.00,0.00
C00337=924.805,1016.551,1.200,-180.00,0.00,0.00
C00338=927.032,1024.570,1.200,-180.00,0.00,0.00
C00339=930.121,1032.328,1.200,-180.00,0.00,0.00
C00340=543.000,1032.328,1.200,-180.00,0.00,0.00
C00341=944.102,1052.948,1.200,-180.00,0.00,0.00
C00342=950.154,1058.682,1.200,-180.00,0.00,0.00
C00343=956.794,1063.728,1.200,-180.00,0.00,0.00
C00344=963.935,1068.025,1.200,-180.00,0.00,0.00
C00345=971.504,1071.526,1.200,-180.00,0.00,0.00
C00346=979.400,1074.188,1.200,-180.00,0.00,0.00
C00347=987.544,1075.981,1.200,-180.00,0.00,0.00
C00348=995.833,1076.883,1.200,-180.00,0.00,0.00
C00349=1028.496,1071.526,1.200,-180.00,0.00,0.00
C00350=1055.898,1052.948,1.200,-180.00,0.00,0.00
C00351=1061.297,1046.594,1.200,-180.00,0.00,0.00
C00352=1075.195,1016.551,1.200,-180.00,0.00,0.00
C00353=1072.968,975.430,1.200,-180.00,0.00,0.00
C00354=1069.879,967.672,1.200,-180.00,0.00,0.00
C00355=1065.973,960.304,1.200,-180.00,0.00,0.00
C00356=1055.898,947.052,1.200,-180.00,0.00,0.00
C00357=1049.844,941.316,1.200,-180.00,0.00,0.00
C00358=1043.207,936.272,1.200,-180.00,0.00,0.00
C00359=1036.065,931.975,1.200,-180.00,0.00,0.00
C00360=1012.456,924.019,1.200,-180.00,0.00,0.00
C00361=987.544,924.019,1.200,-180.00,0.00,0.00
C00362=979.400,925.812,1.200,-180.00,0.00,0.00
C00363=971.504,928.474,1.200,-180.00,0.00,0.00
C00364=963.935,931.975,1.200,-180.00,0.00,0.00
C00365=938.703,953.406,1.200,-180.00,0.00,0.00
C00366=923.005,1000.001,1.200,-180.00,0.00,0.00
C00367=922.849,1016.981,1.200,-180.00,0.00,0.00
C00368=925.134,1025.210,1.200,-180.00,0.00,0.00
C00369=928.303,1033.169,1.200,-180.00,0.00,0.00
C00370=932.309,1040.726,1.200,-180.00,0.00,0.00
C00371=937.109,1047.806,1.200,-180.00,0.00,0.00
C00372=948.858,1060.208,1.200,-180.00,0.00,0.00
C00373=962.997,1069.795,1.200,-180.00,0.00,0.00
C00374=970.762,1073.387,1.200,-180.00,0.00,0.00
C00375=978.864,1076.118,1.200,-180.00,0.00,0.00
C00376=987.220,1077.957,1.200,-180.00,0.00,0.00
C00377=995.725,1078.883,1.200,-180.00,0.00,0.00
C00378=1029.238,1073.387,1.200,-180.00,0.00,0.00
C00379=1057.352,1054.326,1.200,-180.00,0.00,0.00
C00380=1062.891,1047.806,1.200,-180.00,0.00,0.00
C00381=1077.151,1016.981,1.200,-180.00,0.00,0.00
C00382=1074.866,974.790,1.200,-180.00,0.00,0.00
C00383=1071.697,966.831,1.200,-180.00,0.00,0.00
C00384=1067.689,959.272,1.200,-180.00,0.00,0.00
C00385=1062.889,952.192,1.200,-180.00,0.00,0.00
C00386=1051.140,939.790,1.200,-180.00,0.00,0.00
C00387=1037.003,930.205,1.200,-180.00,0.00,0.00
C00388=1029.238,926.613,1.200,-180.00,0.00,0.00
C00389=1021.136,923.882,1.200,-180.00,0.00,0.00
C00390=1012.780,922.043,1.200,-180.00,0.00,0.00
C00391=1004.275,921.118,1.200,-180.00,0.00,0.00
C00392=970.762,926.613,1.200,-180.00,0.00,0.00
C00393=942.648,945.674,1.200,-180.00,0.00,0.00
C00394=937.109,952.194,1.200,-180.00,0.00,0.00
C00395=922.849,983.019,1.200,-180.00,0.00,0.00
C00396=932.920,1000.002,1.200,-180.00,0.00,0.00
C00397=933.313,1007.248,1.200,-180.00,0.00,0.00
C00398=936.428,1021.405,1.200,-180.00,0.00,0.00
C00399=939.120,1028.165,1.200,-180.00,0.00,0.00
C00400=942.521,1034.582,1.200,-180.00,0.00,0.00
C00401=951.299,1046.128,1.200,-180.00,0.00,0.00
C00402=962.360,1055.522,1.200,-180.00,0.00,0.00
C00403=968.580,1059.264,1.200,-180.00,0.00,0.00
C00404=975.176,1062.315,1.200,-180.00,0.00,0.00
C00405=982.052,1064.633,1.200,-180.00,0.00,0.00
C00406=989.149,1066.196,1.200,-180.00,0.00,0.00
C00407=1017.948,1064.633,1.200,-180.00,0.00,0.00
C00408=1043.427,1051.123,1.200,-180.00,0.00,0.00
C00409=1048.701,1046.128,1.200,-180.00,0.00,0.00
C00410=1063.579,1021.391,1.200,-180.00,0.00,0.00
C00411=1063.572,978.595,1.200,-180.00,0.00,0.00
C00412=1060.880,971.836,1.200,-180.00,0.00,0.00
C00413=1057.476,965.415,1.200,-180.00,0.00,0.00
C00414=1048.700,953.871,1.200,-180.00,0.00,0.00
C00415=1037.641,944.479,1.200,-180.00,0.00,0.00
C00416=1031.420,940.736,1.200,-180.00,0.00,0.00
C00417=1024.824,937.685,1.200,-180.00,0.00,0.00
C00418=1017.948,935.367,1.200,-180.00,0.00,0.00
C00419=1010.851,933.804,1.200,-180.00,0.00,0.00
C00420=982.052,935.367,1.200,-180.00,0.00,0.00
C00421=956.573,948.877,1.200,-180.00,0.00,0.00
C00422=951.299,953.872,1.200,-180.00,0.00,0.00
C00423=936.420,978.609,1.200,-180.00,0.00,0.00
C00424=962.012,945.912,1.200,-180.00,0.00,0.00
C00425=969.206,941.547,1.200,-180.00,0.00,0.00
C00426=941.753,968.999,1.200,-180.00,0.00,0.00
C00427=941.400,969.352,1.200,-180.00,0.00,0.00
C00428=939.168,974.413,1.200,-180.00,0.00,0.00
C00429=974.467,939.114,1.200,-180.00,0.00,0.00
C00430=974.820,938.761,1.200,-180.00,0.00,0.00
C00431=978.938,937.471,1.200,-180.00,0.00,0.00
C00432=937.325,979.084,1.200,-180.00,0.00,0.00
C00433=936.972,979.437,1.200,-180.00,0.00,0.00
C00434=936.241,982.997,1.200,-180.00,0.00,0.00
C00435=983.072,936.166,1.200,-180.00,0.00,0.00
C00436=986.700,935.367,1.200,-180.00,0.00,0.00
C00437=935.308,986.758,1.200,-180.00,0.00,0.00
C00438=934.754,990.140,1.200,-180.00,0.00,0.00
C00439=990.200,934.695,1.200,-180.00,0.00,0.00
C00440=993.374,934.349,1.200,-180.00,0.00,0.00
C00441=934.277,993.446,1.200,-180.00,0.00,0.00
C00442=934.114,996.437,1.200,-180.00,0.00,0.00
C00443=996.534,934.017,1.200,-180.00,0.00,0.00
C00444=999.363,934.017,1.200,-180.00,0.00,0.00
C00445=933.952,999.428,1.200,-180.00,0.00,0.00
C00446=934.039,1002.170,1.200,-180.00,0.00,0.00
C00447=1002.190,934.018,1.200,-180.00,0.00,0.00
C00448=1004.877,934.160,1.200,-180.00,0.00,0.00
C00449=934.184,1004.853,1.200,-180.00,0.00,0.00
C00450=934.367,1007.498,1.200,-180.00,0.00,0.00
C00451=1007.428,934.437,1.200,-180.00,0.00,0.00
C00452=1009.979,934.715,1.200,-180.00,0.00,0.00
C00453=934.766,1009.928,1.200,-180.00,0.00,0.00
C00454=935.164,1012.358,1.200,-180.00,0.00,0.00
C00455=1012.362,935.160,1.200,-180.00,0.00,0.00
C00456=1014.680,935.671,1.200,-180.00,0.00,0.00
C00457=935.614,1014.736,1.200,-180.00,0.00,0.00
C00458=936.229,1016.950,1.200,-180.00,0.00,0.00
C00459=1016.998,936.181,1.200,-180.00,0.00,0.00
C00460=1019.173,936.835,1.200,-180.00,0.00,0.00
C00461=936.844,1019.164,1.200,-180.00,0.00,0.00
C00462=937.484,1021.352,1.200,-180.00,0.00,0.00
C00463=1021.288,937.548,1.200,-180.00,0.00,0.00
C00464=1023.403,938.261,1.200,-180.00,0.00,0.00
C00465=938.289,1023.375,1.200,-180.00,0.00,0.00
C00466=939.095,1025.398,1.200,-180.00,0.00,0.00
C00467=1025.427,939.065,1.200,-180.00,0.00,0.00
C00468=1027.361,939.960,1.200,-180.00,0.00,0.00
C00469=939.901,1027.421,1.200,-180.00,0.00,0.00
C00470=940.852,1029.297,1.200,-180.00,0.00,0.00
C00471=1029.295,940.854,1.200,-180.00,0.00,0.00
C00472=1031.204,941.774,1.200,-180.00,0.00,0.00
C00473=941.832,1031.146,1.200,-180.00,0.00,0.00
C00474=942.812,1032.995,1.200,-180.00,0.00,0.00
C00475=1032.971,942.836,1.200,-180.00,0.00,0.00
C00476=1034.736,943.899,1.200,-180.00,0.00,0.00
C00477=943.860,1034.774,1.200,-180.00,0.00,0.00
C00478=945.003,1036.460,1.200,-180.00,0.00,0.00
C00479=1036.502,944.961,1.200,-180.00,0.00,0.00
C00480=1038.162,946.130,1.200,-180.00,0.00,0.00
C00481=946.146,1038.146,1.200,-180.00,0.00,0.00
C00482=947.288,1039.832,1.200,-180.00,0.00,0.00
C00483=1039.769,947.351,1.200,-180.00,0.00,0.00
C00484=1041.376,948.572,1.200,-180.00,0.00,0.00
C00485=948.574,1041.375,1.200,-180.00,0.00,0.00
C00486=949.874,1042.903,1.200,-180.00,0.00,0.00
C00487=1042.963,949.813,1.200,-180.00,0.00,0.00
C00488=1044.415,951.190,1.200,-180.00,0.00,0.00
C00489=951.173,1044.433,1.200,-180.00,0.00,0.00
C00490=952.524,1045.910,1.200,-180.00,0.00,0.00
C00491=1045.868,952.566,1.200,-180.00,0.00,0.00
C00492=1047.320,953.942,1.200,-180.00,0.00,0.00
C00493=953.976,1047.286,1.200,-180.00,0.00,0.00
C00494=955.429,1048.662,1.200,-180.00,0.00,0.00
C00495=1048.687,955.403,1.200,-180.00,0.00,0.00
C00496=1049.987,956.932,1.200,-180.00,0.00,0.00
C00497=956.881,1050.038,1.200,-180.00,0.00,0.00
C00498=958.452,1051.295,1.200,-180.00,0.00,0.00
C00499=1051.286,958.461,1.200,-180.00,0.00,0.00
C00500=1052.586,959.990,1.200,-180.00,0.00,0.00
C00501=960.059,1052.516,1.200,-180.00,0.00,0.00
C00502=961.666,1053.738,1.200,-180.00,0.00,0.00
C00503=1053.731,961.674,1.200,-180.00,0.00,0.00
C00504=1054.873,963.360,1.200,-180.00,0.00,0.00
C00505=963.308,1054.925,1.200,-180.00,0.00,0.00
C00506=965.074,1055.987,1.200,-180.00,0.00,0.00
C00507=1056.016,965.045,1.200,-180.00,0.00,0.00
C00508=1057.082,966.808,1.200,-180.00,0.00,0.00
C00509=966.840,1057.050,1.200,-180.00,0.00,0.00
C00510=968.606,1058.112,1.200,-180.00,0.00,0.00
C00511=1058.062,968.656,1.200,-180.00,0.00,0.00
C00512=1059.041,970.506,1.200,-180.00,0.00,0.00
C00513=970.498,1059.049,1.200,-180.00,0.00,0.00
C00514=972.432,1059.943,1.200,-180.00,0.00,0.00
C00515=1060.012,972.363,1.200,-180.00,0.00,0.00
C00516=1060.817,974.386,1.200,-180.00,0.00,0.00
C00517=974.366,1060.838,1.200,-180.00,0.00,0.00
C00518=976.370,1061.661,1.200,-180.00,0.00,0.00
C00519=1061.623,976.408,1.200,-180.00,0.00,0.00
C00520=1062.429,978.431,1.200,-180.00,0.00,0.00
C00521=978.485,1062.375,1.200,-180.00,0.00,0.00
C00522=980.601,1063.088,1.200,-180.00,0.00,0.00
C00523=1063.089,980.599,1.200,-180.00,0.00,0.00
C00524=1063.704,982.813,1.200,-180.00,0.00,0.00
C00525=982.754,1063.763,1.200,-180.00,0.00,0.00
C00526=985.072,1064.274,1.200,-180.00,0.00,0.00
C00527=1064.320,985.026,1.200,-180.00,0.00,0.00
C00528=1064.793,987.381,1.200,-180.00,0.00,0.00
C00529=987.390,1064.784,1.200,-180.00,0.00,0.00
C00530=989.747,1065.255,1.200,-180.00,0.00,0.00
C00531=1065.191,989.812,1.200,-180.00,0.00,0.00
C00532=1065.589,992.242,1.200,-180.00,0.00,0.00
C00533=992.298,1065.533,1.200,-180.00,0.00,0.00
C00534=994.848,1065.811,1.200,-180.00,0.00,0.00
C00535=1065.799,994.860,1.200,-180.00,0.00,0.00
C00536=1065.944,997.543,1.200,-180.00,0.00,0.00
C00537=997.506,1065.982,1.200,-180.00,0.00,0.00
C00538=1000.334,1065.982,1.200,-180.00,0.00,0.00
C00539=1066.064,1000.252,1.200,-180.00,0.00,0.00
C00540=1065.901,1003.243,1.200,-180.00,0.00,0.00
C00541=1003.163,1065.982,1.200,-180.00,0.00,0.00
C00542=1006.286,1065.687,1.200,-180.00,0.00,0.00
C00543=1065.739,1006.234,1.200,-180.00,0.00,0.00
C00544=1065.303,1009.498,1.200,-180.00,0.00,0.00
C00545=1009.460,1065.341,1.200,-180.00,0.00,0.00
C00546=1012.912,1064.718,1.200,-180.00,0.00,0.00
C00547=1064.748,1012.882,1.200,-180.00,0.00,0.00
C00548=1063.871,1016.587,1.200,-180.00,0.00,0.00
C00549=1016.540,1063.918,1.200,-180.00,0.00,0.00
C00550=1016.187,1064.271,1.200,-180.00,0.00,0.00
C00551=1020.606,1062.680,1.200,-180.00,0.00,0.00
C00552=1062.786,1020.500,1.200,-180.00,0.00,0.00
C00553=1063.139,1020.147,1.200,-180.00,0.00,0.00
C00554=1061.028,1025.087,1.200,-180.00,0.00,0.00
C00555=1024.971,1061.144,1.200,-180.00,0.00,0.00
C00556=1024.618,1061.497,1.200,-180.00,0.00,0.00
C00557=1030.234,1058.709,1.200,-180.00,0.00,0.00
C00558=1058.583,1030.361,1.200,-180.00,0.00,0.00
C00559=1058.936,1030.008,1.200,-180.00,0.00,0.00
C00560=1054.336,1037.436,1.200,-180.00,0.00,0.00
C00561=1037.089,1054.683,1.200,-180.00,0.00,0.00
C00562=1036.736,1055.036,1.200,-180.00,0.00,0.00
C00563=1036.736,1055.036,3.600,-180.00,0.00,0.00
C00564=939.278,953.848,3.600,-180.00,0.00,0.00
C00565=937.113,952.188,3.600,-180.00,0.00,0.00
C00566=942.643,945.677,3.600,-180.00,0.00,0.00
C00567=948.860,939.788,3.600,-180.00,0.00,0.00
C00568=955.663,934.617,3.600,-180.00,0.00,0.00
C00569=962.996,930.205,3.600,-180.00,0.00,0.00
C00570=970.762,926.612,3.600,-180.00,0.00,0.00
C00571=978.865,923.882,3.600,-180.00,0.00,0.00
C00572=987.224,922.042,3.600,-180.00,0.00,0.00
C00573=995.722,921.117,3.600,-180.00,0.00,0.00
C00574=1029.238,926.612,3.600,-180.00,0.00,0.00
C00575=1057.357,945.677,3.600,-180.00,0.00,0.00
C00576=1062.887,952.188,3.600,-180.00,0.00,0.00
C00577=1077.152,983.021,3.600,-180.00,0.00,0.00
C00578=1074.861,1025.229,3.600,-180.00,0.00,0.00
C00579=1071.698,1033.168,3.600,-180.00,0.00,0.00
C00580=1067.690,1040.728,3.600,-180.00,0.00,0.00
C00581=1062.887,1047.812,3.600,-180.00,0.00,0.00
C00582=1051.140,1060.212,3.600,-180.00,0.00,0.00
C00583=1037.004,1069.795,3.600,-180.00,0.00,0.00
C00584=1029.238,1073.388,3.600,-180.00,0.00,0.00
C00585=1021.135,1076.118,3.600,-180.00,0.00,0.00
C00586=1012.776,1077.958,3.600,-180.00,0.00,0.00
C00587=1004.278,1078.883,3.600,-180.00,0.00,0.00
C00588=970.762,1073.388,3.600,-180.00,0.00,0.00
C00589=942.643,1054.323,3.600,-180.00,0.00,0.00
C00590=937.113,1047.812,3.600,-180.00,0.00,0.00
C00591=922.848,1016.979,3.600,-180.00,0.00,0.00
C00592=925.139,974.771,3.600,-180.00,0.00,0.00
C00593=932.310,959.272,3.600,-180.00,0.00,0.00
C00594=942.643,945.677,3.621,-180.00,0.00,0.00
C00595=948.860,939.788,3.641,-180.00,0.00,0.00
C00596=955.663,934.617,3.662,-180.00,0.00,0.00
C00597=978.865,923.882,3.724,-180.00,0.00,0.00
C00598=1004.278,921.117,3.786,-180.00,0.00,0.00
C00599=1012.776,922.042,3.807,-180.00,0.00,0.00
C00600=1021.135,923.882,3.828,-180.00,0.00,0.00
C00601=1029.238,926.612,3.848,-180.00,0.00,0.00
C00602=1057.357,945.677,3.931,-180.00,0.00,0.00
C00603=1078.535,991.456,4.055,-180.00,0.00,0.00
C00604=1074.861,1025.229,4.138,-180.00,0.00,0.00
C00605=1071.698,1033.168,4.159,-180.00,0.00,0.00
C00606=1067.690,1040.728,4.179,-180.00,0.00,0.00
C00607=1062.887,1047.812,4.200,-180.00,0.00,0.00
C00608=1051.140,1060.212,4.241,-180.00,0.00,0.00
C00609=1037.004,1069.795,4.283,-180.00,0.00,0.00
C00610=1029.238,1073.388,4.303,-180.00,0.00,0.00
C00611=1021.135,1076.118,4.324,-180.00,0.00,0.00
C00612=1012.776,1077.958,4.345,-180.00,0.00,0.00
C00613=1004.278,1078.883,4.366,-180.00,0.00,0.00
C00614=970.762,1073.388,4.448,-180.00,0.00,0.00
C00615=942.643,1054.323,4.531,-180.00,0.00,0.00
C00616=937.113,1047.812,4.552,-180.00,0.00,0.00
C00617=922.848,1016.979,4.634,-180.00,0.00,0.00
C00618=925.139,974.771,4.738,-180.00,0.00,0.00
C00619=932.310,959.272,4.779,-180.00,0.00,0.00
C00620=942.643,945.677,4.821,-180.00,0.00,0.00
C00621=948.860,939.788,4.841,-180.00,0.00,0.00
C00622=955.663,934.617,4.862,-180.00,0.00,0.00
C00623=978.865,923.882,4.924,-180.00,0.00,0.00
C00624=1004.278,921.117,4.986,-180.00,0.00,0.00
C00625=1012.776,922.042,5.007,-180.00,0.00,0.00
C00626=1021.135,923.882,5.028,-180.00,0.00,0.00
C00627=1029.238,926.612,5.048,-180.00,0.00,0.00
C00628=1057.357,945.677,5.131,-180.00,0.00,0.00
C00629=1078.535,991.456,5.255,-180.00,0.00,0.00
C00630=1074.861,1025.229,5.338,-180.00,0.00,0.00
C00631=1071.698,1033.168,5.359,-180.00,0.00,0.00
C00632=1067.690,1040.728,5.379,-180.00,0.00,0.00
C00633=1062.887,1047.812,5.400,-180.00,0.00,0.00
C00634=1051.140,1060.212,5.441,-180.00,0.00,0.00
C00635=1037.004,1069.795,5.483,-180.00,0.00,0.00
C00636=1029.238,1073.388,5.503,-180.00,0.00,0.00
C00637=1021.135,1076.118,5.524,-180.00,0.00,0.00
C00638=1012.776,1077.958,5.545,-180.00,0.00,0.00
C00639=1004.278,1078.883,5.566,-180.00,0.00,0.00
C00640=970.762,1073.388,5.648,-180.00,0.00,0.00
C00641=942.643,1054.323,5.731,-180.00,0.00,0.00
C00642=937.113,1047.812,5.752,-180.00,0.00,0.00
C00643=922.848,1016.979,5.834,-180.00,0.00,0.00
C00644=925.139,974.771,5.938,-180.00,0.00,0.00
C00645=932.310,959.272,5.979,-180.00,0.00,0.00
C00646=942.643,945.677,6.021,-180.00,0.00,0.00
C00647=948.860,939.788,6.041,-180.00,0.00,0.00
C00648=955.663,934.617,6.062,-180.00,0.00,0.00
C00649=978.865,923.882,6.124,-180.00,0.00,0.00
C00650=1004.278,921.117,6.186,-180.00,0.00,0.00
C00651=1012.776,922.042,6.207,-180.00,0.00,0.00
C00652=1021.135,923.882,6.228,-180.00,0.00,0.00
C00653=1029.238,926.612,6.248,-180.00,0.00,0.00
C00654=1057.357,945.677,6.331,-180.00,0.00,0.00
C00655=1078.998,1000.000,6.476,-180.00,0.00,0.00
C00656=1074.861,1025.229,6.538,-180.00,0.00,0.00
C00657=1071.698,1033.168,6.559,-180.00,0.00,0.00
C00658=1067.690,1040.728,6.579,-180.00,0.00,0.00
C00659=1062.887,1047.812,6.600,-180.00,0.00,0.00
C00660=1051.140,1060.212,6.641,-180.00,0.00,0.00
C00661=1037.004,1069.795,6.683,-180.00,0.00,0.00
C00662=1029.238,1073.388,6.703,-180.00,0.00,0.00
C00663=1021.135,1076.118,6.724,-180.00,0.00,0.00
C00664=1012.776,1077.958,6.745,-180.00,0.00,0.00
C00665=1004.278,1078.883,6.766,-180.00,0.00,0.00
C00666=970.762,1073.388,6.848,-180.00,0.00,0.00
C00667=942.643,1054.323,6.931,-180.00,0.00,0.00
C00668=937.113,1047.812,6.952,-180.00,0.00,0.00
C00669=922.848,1016.979,7.034,-180.00,0.00,0.00
C00670=925.139,974.771,7.138,-180.00,0.00,0.00
C00671=932.310,959.272,7.179,-180.00,0.00,0.00
C00672=942.643,945.677,7.221,-180.00,0.00,0.00
C00673=948.860,939.788,7.241,-180.00,0.00,0.00
C00674=955.663,934.617,7.262,-180.00,0.00,0.00
C00675=978.865,923.882,7.324,-180.00,0.00,0.00
C00676=1004.278,921.117,7.386,-180.00,0.00,0.00
C00677=1012.776,922.042,7.407,-180.00,0.00,0.00
C00678=1021.135,923.882,7.428,-180.00,0.00,0.00
C00679=1029.238,926.612,7.448,-180.00,0.00,0.00
C00680=1057.357,945.677,7.531,-180.00,0.00,0.00
C00681=1078.535,991.456,7.655,-180.00,0.00,0.00
C00682=1074.861,1025.229,7.738,-180.00,0.00,0.00
C00683=1071.698,1033.168,7.759,-180.00,0.00,0.00
C00684=1067.690,1040.728,7.779,-180.00,0.00,0.00
C00685=1062.887,1047.812,7.800,-180.00,0.00,0.00
C00686=1051.140,1060.212,7.841,-180.00,0.00,0.00
C00687=1037.004,1069.795,7.883,-180.00,0.00,0.00
C00688=1029.238,1073.388,7.903,-180.00,0.00,0.00
C00689=1021.135,1076.118,7.924,-180.00,0.00,0.00
C00690=1012.776,1077.958,7.945,-180.00,0.00,0.00
C00691=1004.278,1078.883,7.966,-180.00,0.00,0.00
C00692=970.762,1073.388,8.048,-180.00,0.00,0.00
C00693=942.643,1054.323,8.131,-180.00,0.00,0.00
C00694=937.113,1047.812,8.152,-180.00,0.00,0.00
C00695=922.848,1016.979,8.234,-180.00,0.00,0.00
C00696=925.139,974.771,8.338,-180.00,0.00,0.00
C00697=932.310,959.272,8.379,-180.00,0.00,0.00
C00698=942.643,945.677,8.421,-180.00,0.00,0.00
C00699=948.860,939.788,8.441,-180.00,0.00,0.00
C00700=955.663,934.617,8.462,-180.00,0.00,0.00
C00701=978.865,923.882,8.524,-180.00,0.00,0.00
C00702=1004.278,921.117,8.586,-180.00,0.00,0.00
C00703=1012.776,922.042,8.607,-180.00,0.00,0.00
C00704=1021.135,923.882,8.628,-180.00,0.00,0.00
C00705=1029.238,926.612,8.648,-180.00,0.00,0.00
C00706=1057.357,945.677,8.731,-180.00,0.00,0.00
C00707=1078.535,991.456,8.855,-180.00,0.00,0.00
C00708=1074.861,1025.229,8.938,-180.00,0.00,0.00
C00709=1071.698,1033.168,8.959,-180.00,0.00,0.00
C00710=1067.690,1040.728,8.979,-180.00,0.00,0.00
C00711=1062.887,1047.812,9.000,-180.00,0.00,0.00
C00712=1051.140,1060.212,9.041,-180.00,0.00,0.00
C00713=1037.004,1069.795,9.083,-180.00,0.00,0.00
C00714=1029.238,1073.388,9.103,-180.00,0.00,0.00
C00715=1021.135,1076.118,9.124,-180.00,0.00,0.00
C00716=1012.776,1077.958,9.145,-180.00,0.00,0.00
C00717=1004.278,1078.883,9.166,-180.00,0.00,0.00
C00718=970.762,1073.388,9.248,-180.00,0.00,0.00
C00719=942.643,1054.323,9.331,-180.00,0.00,0.00
C00720=937.113,1047.812,9.352,-180.00,0.00,0.00
C00721=922.848,1016.979,9.434,-180.00,0.00,0.00
C00722=925.139,974.771,9.538,-180.00,0.00,0.00
C00723=932.310,959.272,9.579,-180.00,0.00,0.00
C00724=942.643,945.677,9.621,-180.00,0.00,0.00
C00725=948.860,939.788,9.641,-180.00,0.00,0.00
C00726=955.663,934.617,9.662,-180.00,0.00,0.00
C00727=978.865,923.882,9.724,-180.00,0.00,0.00
C00728=1004.278,921.117,9.786,-180.00,0.00,0.00
C00729=1012.776,922.042,9.807,-180.00,0.00,0.00
C00730=1021.135,923.882,9.828,-180.00,0.00,0.00
C00731=1029.238,926.612,9.848,-180.00,0.00,0.00
C00732=1057.357,945.677,9.931,-180.00,0.00,0.00
C00733=1078.535,991.456,10.055,-180.00,0.00,0.00
C00734=1074.861,1025.229,10.138,-180.00,0.00,0.00
C00735=1071.698,1033.168,10.159,-180.00,0.00,0.00
C00736=1067.690,1040.728,10.179,-180.00,0.00,0.00
C00737=1062.887,1047.812,10.200,-180.00,0.00,0.00
C00738=1051.140,1060.212,10.241,-180.00,0.00,0.00
C00739=1037.004,1069.795,10.283,-180.00,0.00,0.00
C00740=1029.238,1073.388,10.303,-180.00,0.00,0.00
C00741=1021.135,1076.118,10.324,-180.00,0.00,0.00
C00742=1012.776,1077.958,10.345,-180.00,0.00,0.00
C00743=1004.278,1078.883,10.366,-180.00,0.00,0.00
C00744=970.762,1073.388,10.448,-180.00,0.00,0.00
C00745=942.643,1054.323,10.531,-180.00,0.00,0.00
C00746=937.113,1047.812,10.552,-180.00,0.00,0.00
C00747=922.848,1016.979,10.634,-180.00,0.00,0.00
C00748=925.139,974.771,10.738,-180.00,0.00,0.00
C00749=932.310,959.272,10.779,-180.00,0.00,0.00
C00750=942.643,945.677,10.821,-180.00,0.00,0.00
C00751=948.860,939.788,10.841,-180.00,0.00,0.00
C00752=955.663,934.617,10.862,-180.00,0.00,0.00
C00753=978.865,923.882,10.924,-180.00,0.00,0.00
C00754=1004.278,921.117,10.986,-180.00,0.00,0.00
C00755=1012.776,922.042,11.007,-180.00,0.00,0.00
C00756=1021.135,923.882,11.028,-180.00,0.00,0.00
C00757=1029.238,926.612,11.048,-180.00,0.00,0.00
C00758=1057.357,945.677,11.131,-180.00,0.00,0.00
C00759=1078.535,991.456,11.255,-180.00,0.00,0.00
C00760=1074.861,1025.229,11.338,-180.00,0.00,0.00
C00761=1071.698,1033.168,11.359,-180.00,0.00,0.00
C00762=1067.690,1040.728,11.379,-180.00,0.00,0.00
C00763=1062.887,1047.812,11.400,-180.00,0.00,0.00
C00764=1051.140,1060.212,11.441,-180.00,0.00,0.00
C00765=1037.004,1069.795,11.483,-180.00,0.00,0.00
C00766=1029.238,1073.388,11.503,-180.00,0.00,0.00
C00767=1021.135,1076.118,11.524,-180.00,0.00,0.00
C00768=1012.776,1077.958,11.545,-180.00,0.00,0.00
C00769=1004.278,1078.883,11.566,-180.00,0.00,0.00
C00770=970.762,1073.388,11.648,-180.00,0.00,0.00
C00771=942.643,1054.323,11.731,-180.00,0.00,0.00
C00772=937.113,1047.812,11.752,-180.00,0.00,0.00
C00773=922.848,1016.979,11.834,-180.00,0.00,0.00
C00774=925.139,974.771,11.938,-180.00,0.00,0.00
C00775=932.310,959.272,11.979,-180.00,0.00,0.00
C00776=942.643,945.677,12.021,-180.00,0.00,0.00
C00777=948.860,939.788,12.041,-180.00,0.00,0.00
C00778=955.663,934.617,12.062,-180.00,0.00,0.00
C00779=978.865,923.882,12.124,-180.00,0.00,0.00
C00780=1004.278,921.117,12.186,-180.00,0.00,0.00
C00781=1012.776,922.042,12.207,-180.00,0.00,0.00
C00782=1021.135,923.882,12.228,-180.00,0.00,0.00
C00783=1029.238,926.612,12.248,-180.00,0.00,0.00
C00784=1057.357,945.677,12.331,-180.00,0.00,0.00
C00785=1078.535,991.456,12.455,-180.00,0.00,0.00
C00786=1074.861,1025.229,12.538,-180.00,0.00,0.00
C00787=1071.698,1033.168,12.559,-180.00,0.00,0.00
C00788=1067.690,1040.728,12.579,-180.00,0.00,0.00
C00789=1062.887,1047.812,12.600,-180.00,0.00,0.00
C00790=1051.140,1060.212,12.641,-180.00,0.00,0.00
C00791=1037.004,1069.795,12.683,-180.00,0.00,0.00
C00792=1029.238,1073.388,12.703,-180.00,0.00,0.00
C00793=1021.135,1076.118,12.724,-180.00,0.00,0.00
C00794=1012.776,1077.958,12.745,-180.00,0.00,0.00
C00795=1004.278,1078.883,12.766,-180.00,0.00,0.00
C00796=970.762,1073.388,12.848,-180.00,0.00,0.00
C00797=942.643,1054.323,12.931,-180.00,0.00,0.00
C00798=937.113,1047.812,12.952,-180.00,0.00,0.00
C00799=922.848,1016.979,13.034,-180.00,0.00,0.00
C00800=925.139,974.771,13.138,-180.00,0.00,0.00
C00801=932.310,959.272,13.179,-180.00,0.00,0.00
C00802=942.643,945.677,13.221,-180.00,0.00,0.00
C00803=948.860,939.788,13.241,-180.00,0.00,0.00
C00804=955.663,934.617,13.262,-180.00,0.00,0.00
C00805=978.865,923.882,13.324,-180.00,0.00,0.00
C00806=1004.278,921.117,13.386,-180.00,0.00,0.00
C00807=1012.776,922.042,13.407,-180.00,0.00,0.00
C00808=1021.135,923.882,13.428,-180.00,0.00,0.00
C00809=1029.238,926.612,13.448,-180.00,0.00,0.00
C00810=1057.357,945.677,13.531,-180.00,0.00,0.00
C00811=1078.535,991.456,13.655,-180.00,0.00,0.00
C00812=1074.861,1025.229,13.738,-180.00,0.00,0.00
C00813=1071.698,1033.168,13.759,-180.00,0.00,0.00
C00814=1067.690,1040.728,13.779,-180.00,0.00,0.00
C00815=1062.887,1047.812,13.800,-180.00,0.00,0.00
C00816=1051.140,1060.212,13.841,-180.00,0.00,0.00
C00817=1037.004,1069.795,13.883,-180.00,0.00,0.00
C00818=1029.238,1073.388,13.903,-180.00,0.00,0.00
C00819=1021.135,1076.118,13.924,-180.00,0.00,0.00
C00820=1012.776,1077.958,13.945,-180.00,0.00,0.00
C00821=1004.278,1078.883,13.966,-180.00,0.00,0.00
C00822=970.762,1073.388,14.048,-180.00,0.00,0.00
C00823=942.643,1054.323,14.131,-180.00,0.00,0.00
C00824=937.113,1047.812,14.152,-180.00,0.00,0.00
C00825=922.848,1016.979,14.234,-180.00,0.00,0.00
C00826=925.139,974.771,14.338,-180.00,0.00,0.00
C00827=932.310,959.272,14.379,-180.00,0.00,0.00
C00828=942.643,945.677,14.421,-180.00,0.00,0.00
C00829=948.860,939.788,14.441,-180.00,0.00,0.00
C00830=955.663,934.617,14.462,-180.00,0.00,0.00
C00831=978.865,923.882,14.524,-180.00,0.00,0.00
C00832=1004.278,921.117,14.586,-180.00,0.00,0.00
C00833=1029.238,926.612,14.648,-180.00,0.00,0.00
C00834=1051.140,939.788,14.710,-180.00,0.00,0.00
C00835=1057.357,945.677,14.731,-180.00,0.00,0.00
C00836=1062.887,952.188,14.752,-180.00,0.00,0.00
C00837=1067.690,959.272,14.772,-180.00,0.00,0.00
C00838=1077.152,983.021,14.834,-180.00,0.00,0.00
C00839=1077.152,1016.979,14.917,-180.00,0.00,0.00
C00840=1074.861,1025.229,14.938,-180.00,0.00,0.00
C00841=1071.698,1033.168,14.959,-180.00,0.00,0.00
C00842=1067.690,1040.728,14.979,-180.00,0.00,0.00
C00843=1062.887,1047.812,15.000,-180.00,0.00,0.00
C00844=1051.140,1060.212,15.041,-180.00,0.00,0.00
C00845=1037.004,1069.795,15.083,-180.00,0.00,0.00
C00846=1029.238,1073.388,15.103,-180.00,0.00,0.00
C00847=1021.135,1076.118,15.124,-180.00,0.00,0.00
C00848=1012.776,1077.958,15.145,-180.00,0.00,0.00
C00849=1004.278,1078.883,15.166,-180.00,0.00,0.00
C00850=970.762,1073.388,15.248,-180.00,0.00,0.00
C00851=942.643,1054.323,15.331,-180.00,0.00,0.00
C00852=937.113,1047.812,15.352,-180.00,0.00,0.00
C00853=922.848,1016.979,15.434,-180.00,0.00,0.00
C00854=925.139,974.771,15.538,-180.00,0.00,0.00
C00855=932.310,959.272,15.579,-180.00,0.00,0.00
C00856=942.643,945.677,15.621,-180.00,0.00,0.00
C00857=948.860,939.788,15.641,-180.00,0.00,0.00
C00858=955.663,934.617,15.662,-180.00,0.00,0.00
C00859=978.865,923.882,15.724,-180.00,0.00,0.00
C00860=1004.278,921.117,15.786,-180.00,0.00,0.00
C00861=1012.776,922.042,15.807,-180.00,0.00,0.00
C00862=1021.135,923.882,15.828,-180.00,0.00,0.00
C00863=1029.238,926.612,15.848,-180.00,0.00,0.00
C00864=1057.357,945.677,15.931,-180.00,0.00,0.00
C00865=1078.535,991.456,16.055,-180.00,0.00,0.00
C00866=1074.861,1025.229,16.138,-180.00,0.00,0.00
C00867=1071.698,1033.168,16.159,-180.00,0.00,0.00
C00868=1067.690,1040.728,16.179,-180.00,0.00,0.00
C00869=1062.887,1047.812,16.200,-180.00,0.00,0.00
C00870=1051.140,1060.212,16.241,-180.00,0.00,0.00
C00871=1037.004,1069.795,16.283,-180.00,0.00,0.00
C00872=1029.238,1073.388,16.303,-180.00,0.00,0.00
C00873=1021.135,1076.118,16.324,-180.00,0.00,0.00
C00874=1012.776,1077.958,16.345,-180.00,0.00,0.00
C00875=1004.278,1078.883,16.366,-180.00,0.00,0.00
C00876=970.762,1073.388,16.448,-180.00,0.00,0.00
C00877=942.643,1054.323,16.531,-180.00,0.00,0.00
C00878=937.113,1047.812,16.552,-180.00,0.00,0.00
C00879=922.848,1016.979,16.634,-180.00,0.00,0.00
C00880=925.139,974.771,16.738,-180.00,0.00,0.00
C00881=932.310,959.272,16.779,-180.00,0.00,0.00
C00882=942.643,945.677,16.821,-180.00,0.00,0.00
C00883=948.860,939.788,16.841,-180.00,0.00,0.00
C00884=955.663,934.617,16.862,-180.00,0.00,0.00
C00885=978.865,923.882,16.924,-180.00,0.00,0.00
C00886=1004.278,921.117,16.986,-180.00,0.00,0.00
C00887=1012.776,922.042,17.007,-180.00,0.00,0.00
C00888=1021.135,923.882,17.028,-180.00,0.00,0.00
C00889=1029.238,926.612,17.048,-180.00,0.00,0.00
C00890=1057.357,945.677,17.131,-180.00,0.00,0.00
C00891=1078.535,991.456,17.255,-180.00,0.00,0.00
C00892=1074.861,1025.229,17.338,-180.00,0.00,0.00
C00893=1071.698,1033.168,17.359,-180.00,0.00,0.00
C00894=1067.690,1040.728,17.379,-180.00,0.00,0.00
C00895=1062.887,1047.812,17.400,-180.00,0.00,0.00
C00896=1051.140,1060.212,17.441,-180.00,0.00,0.00
C00897=1037.004,1069.795,17.483,-180.00,0.00,0.00
C00898=1029.238,1073.388,17.503,-180.00,0.00,0.00
C00899=1021.135,1076.118,17.524,-180.00,0.00,0.00
C00900=1012.776,1077.958,17.545,-180.00,0.00,0.00
C00901=1004.278,1078.883,17.566,-180.00,0.00,0.00
C00902=970.762,1073.388,17.648,-180.00,0.00,0.00
C00903=942.643,1054.323,17.731,-180.00,0.00,0.00
C00904=937.113,1047.812,17.752,-180.00,0.00,0.00
C00905=922.848,1016.979,17.834,-180.00,0.00,0.00
C00906=925.139,974.771,17.938,-180.00,0.00,0.00
C00907=932.310,959.272,17.979,-180.00,0.00,0.00
C00908=942.643,945.677,18.021,-180.00,0.00,0.00
C00909=948.860,939.788,18.041,-180.00,0.00,0.00
C00910=955.663,934.617,18.062,-180.00,0.00,0.00
C00911=978.865,923.882,18.124,-180.00,0.00,0.00
C00912=1004.278,921.117,18.186,-180.00,0.00,0.00
C00913=1012.776,922.042,18.207,-180.00,0.00,0.00
C00914=1021.135,923.882,18.228,-180.00,0.00,0.00
C00915=1029.238,926.612,18.248,-180.00,0.00,0.00
C00916=1057.357,945.677,18.331,-180.00,0.00,0.00
C00917=1078.535,991.456,18.455,-180.00,0.00,0.00
C00918=1074.861,1025.229,18.538,-180.00,0.00,0.00
C00919=1071.698,1033.168,18.559,-180.00,0.00,0.00
C00920=1067.690,1040.728,18.579,-180.00,0.00,0.00
C00921=1062.887,1047.812,18.600,-180.00,0.00,0.00
C00922=1051.140,1060.212,18.641,-180.00,0.00,0.00
C00923=1037.004,1069.795,18.683,-180.00,0.00,0.00
C00924=1029.238,1073.388,18.703,-180.00,0.00,0.00
C00925=1021.135,1076.118,18.724,-180.00,0.00,0.00
C00926=1012.776,1077.958,18.745,-180.00,0.00,0.00
C00927=1004.278,1078.883,18.766,-180.00,0.00,0.00
C00928=970.762,1073.388,18.848,-180.00,0.00,0.00
C00929=942.643,1054.323,18.931,-180.00,0.00,0.00
C00930=937.113,1047.812,18.952,-180.00,0.00,0.00
C00931=922.848,1016.979,19.034,-180.00,0.00,0.00
C00932=925.139,974.771,19.138,-180.00,0.00,0.00
C00933=932.310,959.272,19.179,-180.00,0.00,0.00
C00934=942.643,945.677,19.221,-180.00,0.00,0.00
C00935=948.860,939.788,19.241,-180.00,0.00,0.00
C00936=955.663,934.617,19.262,-180.00,0.00,0.00
C00937=978.865,923.882,19.324,-180.00,0.00,0.00
C00938=1004.278,921.117,19.386,-180.00,0.00,0.00
C00939=1012.776,922.042,19.407,-180.00,0.00,0.00
C00940=1021.135,923.882,19.428,-180.00,0.00,0.00
C00941=1029.238,926.612,19.448,-180.00,0.00,0.00
C00942=1057.357,945.677,19.531,-180.00,0.00,0.00
C00943=1078.535,991.456,19.655,-180.00,0.00,0.00
C00944=1074.861,1025.229,19.738,-180.00,0.00,0.00
C00945=1071.698,1033.168,19.759,-180.00,0.00,0.00
C00946=1067.690,1040.728,19.779,-180.00,0.00,0.00
C00947=1062.887,1047.812,19.800,-180.00,0.00,0.00
C00948=1051.140,1060.212,19.841,-180.00,0.00,0.00
C00949=1037.004,1069.795,19.883,-180.00,0.00,0.00
C00950=1029.238,1073.388,19.903,-180.00,0.00,0.00
C00951=1021.135,1076.118,19.924,-180.00,0.00,0.00
C00952=1012.776,1077.958,19.945,-180.00,0.00,0.00
C00953=1004.278,1078.883,19.966,-180.00,0.00,0.00
C00954=970.762,1073.388,20.048,-180.00,0.00,0.00
C00955=942.643,1054.323,20.131,-180.00,0.00,0.00
C00956=937.113,1047.812,20.152,-180.00,0.00,0.00
C00957=922.848,1016.979,20.234,-180.00,0.00,0.00
C00958=925.139,974.771,20.338,-180.00,0.00,0.00
C00959=932.310,959.272,20.379,-180.00,0.00,0.00
C00960=942.643,945.677,20.421,-180.00,0.00,0.00
C00961=948.860,939.788,20.441,-180.00,0.00,0.00
C00962=955.663,934.617,20.462,-180.00,0.00,0.00
C00963=978.865,923.882,20.524,-180.00,0.00,0.00
C00964=1004.278,921.117,20.586,-180.00,0.00,0.00
C00965=1012.776,922.042,20.607,-180.00,0.00,0.00
C00966=1021.135,923.882,20.628,-180.00,0.00,0.00
C00967=1029.238,926.612,20.648,-180.00,0.00,0.00
C00968=1057.357,945.677,20.731,-180.00,0.00,0.00
C00969=1078.535,991.456,20.855,-180.00,0.00,0.00
C00970=1074.861,1025.229,20.938,-180.00,0.00,0.00
C00971=1071.698,1033.168,20.959,-180.00,0.00,0.00
C00972=1067.690,1040.728,20.979,-180.00,0.00,0.00
C00973=1062.887,1047.812,21.000,-180.00,0.00,0.00
C00974=1051.140,1060.212,21.041,-180.00,0.00,0.00
C00975=1037.004,1069.795,21.083,-180.00,0.00,0.00
C00976=1029.238,1073.388,21.103,-180.00,0.00,0.00
C00977=1021.135,1076.118,21.124,-180.00,0.00,0.00
C00978=1012.776,1077.958,21.145,-180.00,0.00,0.00
C00979=1004.278,1078.883,21.166,-180.00,0.00,0.00
C00980=970.762,1073.388,21.248,-180.00,0.00,0.00
C00981=942.643,1054.323,21.331,-180.00,0.00,0.00
C00982=937.113,1047.812,21.352,-180.00,0.00,0.00
C00983=922.848,1016.979,21.434,-180.00,0.00,0.00
C00984=925.139,974.771,21.538,-180.00,0.00,0.00
C00985=932.310,959.272,21.579,-180.00,0.00,0.00
C00986=942.643,945.677,21.621,-180.00,0.00,0.00
C00987=948.860,939.788,21.641,-180.00,0.00,0.00
C00988=955.663,934.617,21.662,-180.00,0.00,0.00
C00989=978.865,923.882,21.724,-180.00,0.00,0.00
C00990=1004.278,921.117,21.786,-180.00,0.00,0.00
C00991=1012.776,922.042,21.807,-180.00,0.00,0.00
C00992=1021.135,923.882,21.828,-180.00,0.00,0.00
C00993=1029.238,926.612,21.848,-180.00,0.00,0.00
C00994=1057.357,945.677,21.931,-180.00,0.00,0.00
C00995=1078.535,991.456,22.055,-180.00,0.00,0.00
C00996=1074.861,1025.229,22.138,-180.00,0.00,0.00
C00997=1071.698,1033.168,22.159,-180.00,0.00,0.00
C00998=1067.690,1040.728,22.179,-180.00,0.00,0.00
C00999=1062.887,1047.812,22.200,-180.00,0.00,0.00
C01000=1051.140,1060.212,22.241,-180.00,0.00,0.00
C01001=1037.004,1069.795,22.283,-180.00,0.00,0.00
C01002=1029.238,1073.388,22.303,-180.00,0.00,0.00
C01003=1021.135,1076.118,22.324,-180.00,0.00,0.00
C01004=1012.776,1077.958,22.345,-180.00,0.00,0.00
C01005=1004.278,1078.883,22.366,-180.00,0.00,0.00
C01006=970.762,1073.388,22.448,-180.00,0.00,0.00
C01007=942.643,1054.323,22.531,-180.00,0.00,0.00
C01008=937.113,1047.812,22.552,-180.00,0.00,0.00
C01009=922.848,1016.979,22.634,-180.00,0.00,0.00
C01010=925.139,974.771,22.738,-180.00,0.00,0.00
C01011=932.310,959.272,22.779,-180.00,0.00,0.00
C01012=942.643,945.677,22.821,-180.00,0.00,0.00
C01013=948.860,939.788,22.841,-180.00,0.00,0.00
C01014=955.663,934.617,22.862,-180.00,0.00,0.00
C01015=978.865,923.882,22.924,-180.00,0.00,0.00
C01016=1004.278,921.117,22.986,-180.00,0.00,0.00
C01017=1012.776,922.042,23.007,-180.00,0.00,0.00
C01018=1021.135,923.882,23.028,-180.00,0.00,0.00
C01019=1029.238,926.612,23.048,-180.00,0.00,0.00
C01020=1037.004,930.205,23.069,-180.00,0.00,0.00
C01021=1044.337,934.617,23.090,-180.00,0.00,0.00
C01022=1051.140,939.788,23.110,-180.00,0.00,0.00
C01023=1071.698,966.832,23.193,-180.00,0.00,0.00
C01024=1077.152,1016.979,23.317,-180.00,0.00,0.00
C01025=1074.861,1025.229,23.338,-180.00,0.00,0.00
C01026=1071.698,1033.168,23.359,-180.00,0.00,0.00
C01027=1067.690,1040.728,23.379,-180.00,0.00,0.00
C01028=1062.887,1047.812,23.400,-180.00,0.00,0.00
C01029=1051.140,1060.212,23.441,-180.00,0.00,0.00
C01030=1037.004,1069.795,23.483,-180.00,0.00,0.00
C01031=1029.238,1073.388,23.503,-180.00,0.00,0.00
C01032=1021.135,1076.118,23.524,-180.00,0.00,0.00
C01033=1012.776,1077.958,23.545,-180.00,0.00,0.00
C01034=1004.278,1078.883,23.566,-180.00,0.00,0.00
C01035=970.762,1073.388,23.648,-180.00,0.00,0.00
C01036=942.643,1054.323,23.731,-180.00,0.00,0.00
C01037=937.113,1047.812,23.752,-180.00,0.00,0.00
C01038=922.848,1016.979,23.834,-180.00,0.00,0.00
C01039=925.139,974.771,23.938,-180.00,0.00,0.00
C01040=932.310,959.272,23.979,-180.00,0.00,0.00
C01041=942.643,945.677,24.021,-180.00,0.00,0.00
C01042=948.860,939.788,24.041,-180.00,0.00,0.00
C01043=955.663,934.617,24.062,-180.00,0.00,0.00
C01044=978.865,923.882,24.124,-180.00,0.00,0.00
C01045=1004.278,921.117,24.186,-180.00,0.00,0.00
C01046=1012.776,922.042,24.207,-180.00,0.00,0.00
C01047=1021.135,923.882,24.228,-180.00,0.00,0.00
C01048=1029.238,926.612,24.248,-180.00,0.00,0.00
C01049=1057.357,945.677,24.331,-180.00,0.00,0.00
C01050=1078.535,991.456,24.455,-180.00,0.00,0.00
C01051=1074.861,1025.229,24.538,-180.00,0.00,0.00
C01052=1071.698,1033.168,24.559,-180.00,0.00,0.00
C01053=1067.690,1040.728,24.579,-180.00,0.00,0.00
C01054=1062.887,1047.812,24.600,-180.00,0.00,0.00
C01055=1051.140,1060.212,24.641,-180.00,0.00,0.00
C01056=1037.004,1069.795,24.683,-180.00,0.00,0.00
C01057=1029.238,1073.388,24.703,-180.00,0.00,0.00
C01058=1021.135,1076.118,24.724,-180.00,0.00,0.00
C01059=1012.776,1077.958,24.745,-180.00,0.00,0.00
C01060=1004.278,1078.883,24.766,-180.00,0.00,0.00
C01061=970.762,1073.388,24.848,-180.00,0.00,0.00
C01062=942.643,1054.323,24.931,-180.00,0.00,0.00
C01063=937.113,1047.812,24.952,-180.00,0.00,0.00
C01064=922.848,1016.979,25.034,-180.00,0.00,0.00
C01065=925.139,974.771,25.138,-180.00,0.00,0.00
C01066=932.310,959.272,25.179,-180.00,0.00,0.00
C01067=942.643,945.677,25.221,-180.00,0.00,0.00
C01068=948.860,939.788,25.241,-180.00,0.00,0.00
C01069=955.663,934.617,25.262,-180.00,0.00,0.00
C01070=978.865,923.882,25.324,-180.00,0.00,0.00
C01071=1004.278,921.117,25.386,-180.00,0.00,0.00
C01072=1012.776,922.042,25.407,-180.00,0.00,0.00
C01073=1021.135,923.882,25.428,-180.00,0.00,0.00
C01074=1029.238,926.612,25.448,-180.00,0.00,0.00
C01075=1057.357,945.677,25.531,-180.00,0.00,0.00
C01076=1078.535,991.456,25.655,-180.00,0.00,0.00
C01077=1074.861,1025.229,25.738,-180.00,0.00,0.00
C01078=1071.698,1033.168,25.759,-180.00,0.00,0.00
C01079=1067.690,1040.728,25.779,-180.00,0.00,0.00
C01080=1062.887,1047.812,25.800,-180.00,0.00,0.00
C01081=1051.140,1060.212,25.841,-180.00,0.00,0.00
C01082=1037.004,1069.795,25.883,-180.00,0.00,0.00
C01083=1029.238,1073.388,25.903,-180.00,0.00,0.00
C01084=1021.135,1076.118,25.924,-180.00,0.00,0.00
C01085=1012.776,1077.958,25.945,-180.00,0.00,0.00
C01086=1004.278,1078.883,25.966,-180.00,0.00,0.00
C01087=970.762,1073.388,26.048,-180.00,0.00,0.00
C01088=942.643,1054.323,26.131,-180.00,0.00,0.00
C01089=937.113,1047.812,26.152,-180.00,0.00,0.00
C01090=922.848,1016.979,26.234,-180.00,0.00,0.00
C01091=925.139,974.771,26.338,-180.00,0.00,0.00
C01092=932.310,959.272,26.379,-180.00,0.00,0.00
C01093=942.643,945.677,26.421,-180.00,0.00,0.00
C01094=948.860,939.788,26.441,-180.00,0.00,0.00
C01095=955.663,934.617,26.462,-180.00,0.00,0.00
C01096=978.865,923.882,26.524,-180.00,0.00,0.00
C01097=1004.278,921.117,26.586,-180.00,0.00,0.00
C01098=1012.776,922.042,26.607,-180.00,0.00,0.00
C01099=1021.135,923.882,26.628,-180.00,0.00,0.00
C01100=1029.238,926.612,26.648,-180.00,0.00,0.00
C01101=1057.357,945.677,26.731,-180.00,0.00,0.00
C01102=1078.535,991.456,26.855,-180.00,0.00,0.00
C01103=1074.861,1025.229,26.938,-180.00,0.00,0.00
C01104=1071.698,1033.168,26.959,-180.00,0.00,0.00
C01105=1067.690,1040.728,26.979,-180.00,0.00,0.00
C01106=1062.887,1047.812,27.000,-180.00,0.00,0.00
C01107=1051.140,1060.212,27.041,-180.00,0.00,0.00
C01108=1037.004,1069.795,27.083,-180.00,0.00,0.00
C01109=1029.238,1073.388,27.103,-180.00,0.00,0.00
C01110=1021.135,1076.118,27.124,-180.00,0.00,0.00
C01111=1012.776,1077.958,27.145,-180.00,0.00,0.00
C01112=1004.278,1078.883,27.166,-180.00,0.00,0.00
C01113=970.762,1073.388,27.248,-180.00,0.00,0.00
C01114=942.643,1054.323,27.331,-180.00,0.00,0.00
C01115=937.113,1047.812,27.352,-180.00,0.00,0.00
C01116=922.848,1016.979,27.434,-180.00,0.00,0.00
C01117=925.139,974.771,27.538,-180.00,0.00,0.00
C01118=932.310,959.272,27.579,-180.00,0.00,0.00
C01119=942.643,945.677,27.621,-180.00,0.00,0.00
C01120=948.860,939.788,27.641,-180.00,0.00,0.00
C01121=955.663,934.617,27.662,-180.00,0.00,0.00
C01122=978.865,923.882,27.724,-180.00,0.00,0.00
C01123=1004.278,921.117,27.786,-180.00,0.00,0.00
C01124=1012.776,922.042,27.807,-180.00,0.00,0.00
C01125=1021.135,923.882,27.828,-180.00,0.00,0.00
C01126=1029.238,926.612,27.848,-180.00,0.00,0.00
C01127=1057.357,945.677,27.931,-180.00,0.00,0.00
C01128=1078.535,991.456,28.055,-180.00,0.00,0.00
C01129=1074.861,1025.229,28.138,-180.00,0.00,0.00
C01130=1071.698,1033.168,28.159,-180.00,0.00,0.00
C01131=1067.690,1040.728,28.179,-180.00,0.00,0.00
C01132=1062.887,1047.812,28.200,-180.00,0.00,0.00
C01133=1051.140,1060.212,28.241,-180.00,0.00,0.00
C01134=1037.004,1069.795,28.283,-180.00,0.00,0.00
C01135=1029.238,1073.388,28.303,-180.00,0.00,0.00
C01136=1021.135,1076.118,28.324,-180.00,0.00,0.00
C01137=1012.776,1077.958,28.345,-180.00,0.00,0.00
C01138=1004.278,1078.883,28.366,-180.00,0.00,0.00
C01139=970.762,1073.388,28.448,-180.00,0.00,0.00
C01140=942.643,1054.323,28.531,-180.00,0.00,0.00
C01141=937.113,1047.812,28.552,-180.00,0.00,0.00
C01142=922.848,1016.979,28.634,-180.00,0.00,0.00
C01143=925.139,974.771,28.738,-180.00,0.00,0.00
C01144=932.310,959.272,28.779,-180.00,0.00,0.00
C01145=942.643,945.677,28.821,-180.00,0.00,0.00
C01146=948.860,939.788,28.841,-180.00,0.00,0.00
C01147=955.663,934.617,28.862,-180.00,0.00,0.00
C01148=978.865,923.882,28.924,-180.00,0.00,0.00
C01149=1004.278,921.117,28.986,-180.00,0.00,0.00
C01150=1012.776,922.042,29.007,-180.00,0.00,0.00
C01151=1021.135,923.882,29.028,-180.00,0.00,0.00
C01152=1029.238,926.612,29.048,-180.00,0.00,0.00
C01153=1057.357,945.677,29.131,-180.00,0.00,0.00
C01154=1078.535,991.456,29.255,-180.00,0.00,0.00
C01155=1074.861,1025.229,29.338,-180.00,0.00,0.00
C01156=1071.698,1033.168,29.359,-180.00,0.00,0.00
C01157=1067.690,1040.728,29.379,-180.00,0.00,0.00
C01158=1062.887,1047.812,29.400,-180.00,0.00,0.00
C01159=1051.140,1060.212,29.441,-180.00,0.00,0.00
C01160=1037.004,1069.795,29.483,-180.00,0.00,0.00
C01161=1029.238,1073.388,29.503,-180.00,0.00,0.00
C01162=1021.135,1076.118,29.524,-180.00,0.00,0.00
C01163=1012.776,1077.958,29.545,-180.00,0.00,0.00
C01164=1004.278,1078.883,29.566,-180.00,0.00,0.00
C01165=970.762,1073.388,29.648,-180.00,0.00,0.00
C01166=942.643,1054.323,29.731,-180.00,0.00,0.00
C01167=937.113,1047.812,29.752,-180.00,0.00,0.00
C01168=922.848,1016.979,29.834,-180.00,0.00,0.00
C01169=925.139,974.771,29.938,-180.00,0.00,0.00
C01170=932.310,959.272,29.979,-180.00,0.00,0.00
C01171=942.643,945.677,30.021,-180.00,0.00,0.00
C01172=948.860,939.788,30.041,-180.00,0.00,0.00
C01173=955.663,934.617,30.062,-180.00,0.00,0.00
C01174=978.865,923.882,30.124,-180.00,0.00,0.00
C01175=1004.278,921.117,30.186,-180.00,0.00,0.00
C01176=1012.776,922.042,30.207,-180.00,0.00,0.00
C01177=1021.135,923.882,30.228,-180.00,0.00,0.00
C01178=1029.238,926.612,30.248,-180.00,0.00,0.00
C01179=1057.357,945.677,30.331,-180.00,0.00,0.00
C01180=1078.535,991.456,30.455,-180.00,0.00,0.00
C01181=1074.861,1025.229,30.538,-180.00,0.00,0.00
C01182=1071.698,1033.168,30.559,-180.00,0.00,0.00
C01183=1067.690,1040.728,30.579,-180.00,0.00,0.00
C01184=1062.887,1047.812,30.600,-180.00,0.00,0.00
C01185=1051.140,1060.212,30.641,-180.00,0.00,0.00
C01186=1037.004,1069.795,30.683,-180.00,0.00,0.00
C01187=1029.238,1073.388,30.703,-180.00,0.00,0.00
C01188=1021.135,1076.118,30.724,-180.00,0.00,0.00
C01189=1012.776,1077.958,30.745,-180.00,0.00,0.00
C01190=1004.278,1078.883,30.766,-180.00,0.00,0.00
C01191=970.762,1073.388,30.848,-180.00,0.00,0.00
C01192=942.643,1054.323,30.931,-180.00,0.00,0.00
C01193=937.113,1047.812,30.952,-180.00,0.00,0.00
C01194=922.848,1016.979,31.034,-180.00,0.00,0.00
C01195=925.139,974.771,31.138,-180.00,0.00,0.00
C01196=932.310,959.272,31.179,-180.00,0.00,0.00
C01197=942.643,945.677,31.221,-180.00,0.00,0.00
C01198=948.860,939.788,31.241,-180.00,0.00,0.00
C01199=955.663,934.617,31.262,-180.00,0.00,0.00
C01200=978.865,923.882,31.324,-180.00,0.00,0.00
C01201=1004.278,921.117,31.386,-180.00,0.00,0.00
C01202=1012.776,922.042,31.407,-180.00,0.00,0.00
C01203=1021.135,923.882,31.428,-180.00,0.00,0.00
C01204=1029.238,926.612,31.448,-180.00,0.00,0.00
C01205=1057.357,945.677,31.531,-180.00,0.00,0.00
C01206=1078.535,991.456,31.655,-180.00,0.00,0.00
C01207=1074.861,1025.229,31.738,-180.00,0.00,0.00
C01208=1071.698,1033.168,31.759,-180.00,0.00,0.00
C01209=1067.690,1040.728,31.779,-180.00,0.00,0.00
C01210=1062.887,1047.812,31.800,-180.00,0.00,0.00
C01211=1051.140,1060.212,31.841,-180.00,0.00,0.00
C01212=1037.004,1069.795,31.883,-180.00,0.00,0.00
C01213=1029.238,1073.388,31.903,-180.00,0.00,0.00
C01214=1021.135,1076.118,31.924,-180.00,0.00,0.00
C01215=1012.776,1077.958,31.945,-180.00,0.00,0.00
C01216=1004.278,1078.883,31.966,-180.00,0.00,0.00
C01217=970.762,1073.388,32.048,-180.00,0.00,0.00
C01218=942.643,1054.323,32.131,-180.00,0.00,0.00
C01219=937.113,1047.812,32.152,-180.00,0.00,0.00
C01220=922.848,1016.979,32.234,-180.00,0.00,0.00
C01221=925.139,974.771,32.338,-180.00,0.00,0.00
C01222=932.310,959.272,32.379,-180.00,0.00,0.00
C01223=942.643,945.677,32.421,-180.00,0.00,0.00
C01224=948.860,939.788,32.441,-180.00,0.00,0.00
C01225=955.663,934.617,32.462,-180.00,0.00,0.00
C01226=978.865,923.882,32.524,-180.00,0.00,0.00
C01227=1004.278,921.117,32.586,-180.00,0.00,0.00
C01228=1012.776,922.042,32.607,-180.00,0.00,0.00
C01229=1021.135,923.882,32.628,-180.00,0.00,0.00
C01230=1029.238,926.612,32.648,-180.00,0.00,0.00
C01231=1057.357,945.677,32.731,-180.00,0.00,0.00
C01232=1078.535,991.456,32.855,-180.00,0.00,0.00
C01233=1074.861,1025.229,32.938,-180.00,0.00,0.00
C01234=1071.698,1033.168,32.959,-180.00,0.00,0.00
C01235=1067.690,1040.728,32.979,-180.00,0.00,0.00
C01236=1062.887,1047.812,33.000,-180.00,0.00,0.00
C01237=1051.140,1060.212,33.041,-180.00,0.00,0.00
C01238=1037.004,1069.795,33.083,-180.00,0.00,0.00
C01239=1029.238,1073.388,33.103,-180.00,0.00,0.00
C01240=1021.135,1076.118,33.124,-180.00,0.00,0.00
C01241=1012.776,1077.958,33.145,-180.00,0.00,0.00
C01242=1004.278,1078.883,33.166,-180.00,0.00,0.00
C01243=970.762,1073.388,33.248,-180.00,0.00,0.00
C01244=942.643,1054.323,33.331,-180.00,0.00,0.00
C01245=937.113,1047.812,33.352,-180.00,0.00,0.00
C01246=922.848,1016.979,33.434,-180.00,0.00,0.00
C01247=925.139,974.771,33.538,-180.00,0.00,0.00
C01248=932.310,959.272,33.579,-180.00,0.00,0.00
C01249=942.643,945.677,33.621,-180.00,0.00,0.00
C01250=948.860,939.788,33.641,-180.00,0.00,0.00
C01251=955.663,934.617,33.662,-180.00,0.00,0.00
C01252=978.865,923.882,33.724,-180.00,0.00,0.00
C01253=1004.278,921.117,33.786,-180.00,0.00,0.00
C01254=1012.776,922.042,33.807,-180.00,0.00,0.00
C01255=1021.135,923.882,33.828,-180.00,0.00,0.00
C01256=1029.238,926.612,33.848,-180.00,0.00,0.00
C01257=1057.357,945.677,33.931,-180.00,0.00,0.00
C01258=1078.535,991.456,34.055,-180.00,0.00,0.00
C01259=1074.861,1025.229,34.138,-180.00,0.00,0.00
C01260=1071.698,1033.168,34.159,-180.00,0.00,0.00
C01261=1067.690,1040.728,34.179,-180.00,0.00,0.00
C01262=1062.887,1047.812,34.200,-180.00,0.00,0.00
C01263=1051.140,1060.212,34.241,-180.00,0.00,0.00
C01264=1037.004,1069.795,34.283,-180.00,0.00,0.00
C01265=1029.238,1073.388,34.303,-180.00,0.00,0.00
C01266=1021.135,1076.118,34.324,-180.00,0.00,0.00
C01267=1012.776,1077.958,34.345,-180.00,0.00,0.00
C01268=1004.278,1078.883,34.366,-180.00,0.00,0.00
C01269=970.762,1073.388,34.448,-180.00,0.00,0.00
C01270=942.643,1054.323,34.531,-180.00,0.00,0.00
C01271=937.113,1047.812,34.552,-180.00,0.00,0.00
C01272=922.848,1016.979,34.634,-180.00,0.00,0.00
C01273=925.139,974.771,34.738,-180.00,0.00,0.00
C01274=932.310,959.272,34.779,-180.00,0.00,0.00
C01275=942.643,945.677,34.821,-180.00,0.00,0.00
C01276=948.860,939.788,34.841,-180.00,0.00,0.00
C01277=955.663,934.617,34.862,-180.00,0.00,0.00
C01278=978.865,923.882,34.924,-180.00,0.00,0.00
C01279=1004.278,921.117,34.986,-180.00,0.00,0.00
C01280=1012.776,922.042,35.007,-180.00,0.00,0.00
C01281=1021.135,923.882,35.028,-180.00,0.00,0.00
C01282=1029.238,926.612,35.048,-180.00,0.00,0.00
C01283=1057.357,945.677,35.131,-180.00,0.00,0.00
C01284=1078.535,991.456,35.255,-180.00,0.00,0.00
C01285=1074.861,1025.229,35.338,-180.00,0.00,0.00
C01286=1071.698,1033.168,35.359,-180.00,0.00,0.00
C01287=1067.690,1040.728,35.379,-180.00,0.00,0.00
C01288=1062.887,1047.812,35.400,-180.00,0.00,0.00
C01289=1051.140,1060.212,35.441,-180.00,0.00,0.00
C01290=1037.004,1069.795,35.483,-180.00,0.00,0.00
C01291=1029.238,1073.388,35.503,-180.00,0.00,0.00
C01292=1021.135,1076.118,35.524,-180.00,0.00,0.00
C01293=1012.776,1077.958,35.545,-180.00,0.00,0.00
C01294=1004.278,1078.883,35.566,-180.00,0.00,0.00
C01295=970.762,1073.388,35.648,-180.00,0.00,0.00
C01296=942.643,1054.323,35.731,-180.00,0.00,0.00
C01297=937.113,1047.812,35.752,-180.00,0.00,0.00
C01298=922.848,1016.979,35.834,-180.00,0.00,0.00
C01299=925.139,974.771,35.938,-180.00,0.00,0.00
C01300=932.310,959.272,35.979,-180.00,0.00,0.00
C01301=942.643,945.677,36.021,-180.00,0.00,0.00
C01302=948.860,939.788,36.041,-180.00,0.00,0.00
C01303=955.663,934.617,36.062,-180.00,0.00,0.00
C01304=978.865,923.882,36.124,-180.00,0.00,0.00
C01305=1004.278,921.117,36.186,-180.00,0.00,0.00
C01306=1012.776,922.042,36.207,-180.00,0.00,0.00
C01307=1021.135,923.882,36.228,-180.00,0.00,0.00
C01308=1029.238,926.612,36.248,-180.00,0.00,0.00
C01309=1057.357,945.677,36.331,-180.00,0.00,0.00
C01310=1078.535,991.456,36.455,-180.00,0.00,0.00
C01311=1074.861,1025.229,36.538,-180.00,0.00,0.00
C01312=1071.698,1033.168,36.559,-180.00,0.00,0.00
C01313=1067.690,1040.728,36.579,-180.00,0.00,0.00
C01314=1062.887,1047.812,36.600,-180.00,0.00,0.00
C01315=1051.140,1060.212,36.641,-180.00,0.00,0.00
C01316=1037.004,1069.795,36.683,-180.00,0.00,0.00
C01317=1029.238,1073.388,36.703,-180.00,0.00,0.00
C01318=1021.135,1076.118,36.724,-180.00,0.00,0.00
C01319=1012.776,1077.958,36.745,-180.00,0.00,0.00
C01320=1004.278,1078.883,36.766,-180.00,0.00,0.00
C01321=970.762,1073.388,36.848,-180.00,0.00,0.00
C01322=942.643,1054.323,36.931,-180.00,0.00,0.00
C01323=937.113,1047.812,36.952,-180.00,0.00,0.00
C01324=922.848,1016.979,37.034,-180.00,0.00,0.00
C01325=925.139,974.771,37.138,-180.00,0.00,0.00
C01326=932.310,959.272,37.179,-180.00,0.00,0.00
C01327=942.643,945.677,37.221,-180.00,0.00,0.00
C01328=948.860,939.788,37.241,-180.00,0.00,0.00
C01329=955.663,934.617,37.262,-180.00,0.00,0.00
C01330=978.865,923.882,37.324,-180.00,0.00,0.00
C01331=1004.278,921.117,37.386,-180.00,0.00,0.00
C01332=1012.776,922.042,37.407,-180.00,0.00,0.00
C01333=1021.135,923.882,37.428,-180.00,0.00,0.00
C01334=1029.238,926.612,37.448,-180.00,0.00,0.00
C01335=1057.357,945.677,37.531,-180.00,0.00,0.00
C01336=1078.535,991.456,37.655,-180.00,0.00,0.00
C01337=1074.861,1025.229,37.738,-180.00,0.00,0.00
C01338=1071.698,1033.168,37.759,-180.00,0.00,0.00
C01339=1067.690,1040.728,37.779,-180.00,0.00,0.00
C01340=1062.887,1047.812,37.800,-180.00,0.00,0.00
C01341=1051.140,1060.212,37.841,-180.00,0.00,0.00
C01342=1037.004,1069.795,37.883,-180.00,0.00,0.00
C01343=1029.238,1073.388,37.903,-180.00,0.00,0.00
C01344=1021.135,1076.118,37.924,-180.00,0.00,0.00
C01345=1012.776,1077.958,37.945,-180.00,0.00,0.00
C01346=1004.278,1078.883,37.966,-180.00,0.00,0.00
C01347=970.762,1073.388,38.048,-180.00,0.00,0.00
C01348=942.643,1054.323,38.131,-180.00,0.00,0.00
C01349=937.113,1047.812,38.152,-180.00,0.00,0.00
C01350=922.848,1016.979,38.234,-180.00,0.00,0.00
C01351=925.139,974.771,38.338,-180.00,0.00,0.00
C01352=932.310,959.272,38.379,-180.00,0.00,0.00
C01353=942.643,945.677,38.421,-180.00,0.00,0.00
C01354=948.860,939.788,38.441,-180.00,0.00,0.00
C01355=955.663,934.617,38.462,-180.00,0.00,0.00
C01356=978.865,923.882,38.524,-180.00,0.00,0.00
C01357=1004.278,921.117,38.586,-180.00,0.00,0.00
C01358=1012.776,922.042,38.607,-180.00,0.00,0.00
C01359=1021.135,923.882,38.628,-180.00,0.00,0.00
C01360=1029.238,926.612,38.648,-180.00,0.00,0.00
C01361=1057.357,945.677,38.731,-180.00,0.00,0.00
C01362=1078.535,991.456,38.855,-180.00,0.00,0.00
C01363=1074.861,1025.229,38.938,-180.00,0.00,0.00
C01364=1071.698,1033.168,38.959,-180.00,0.00,0.00
C01365=1067.690,1040.728,38.979,-180.00,0.00,0.00
C01366=1062.887,1047.812,39.000,-180.00,0.00,0.00
C01367=1051.140,1060.212,39.041,-180.00,0.00,0.00
C01368=1037.004,1069.795,39.083,-180.00,0.00,0.00
C01369=1029.238,1073.388,39.103,-180.00,0.00,0.00
C01370=1021.135,1076.118,39.124,-180.00,0.00,0.00
C01371=1012.776,1077.958,39.145,-180.00,0.00,0.00
C01372=1004.278,1078.883,39.166,-180.00,0.00,0.00
C01373=970.762,1073.388,39.248,-180.00,0.00,0.00
C01374=942.643,1054.323,39.331,-180.00,0.00,0.00
C01375=937.113,1047.812,39.352,-180.00,0.00,0.00
C01376=922.848,1016.979,39.434,-180.00,0.00,0.00
C01377=925.139,974.771,39.538,-180.00,0.00,0.00
C01378=928.302,966.832,39.559,-180.00,0.00,0.00
C01379=932.310,959.272,39.579,-180.00,0.00,0.00
C01380=937.113,952.188,39.600,-180.00,0.00,0.00
C01381=948.860,939.788,39.623,-180.00,0.00,0.00
C01382=962.996,930.205,39.647,-180.00,0.00,0.00
C01383=970.762,926.612,39.658,-180.00,0.00,0.00
C01384=978.865,923.882,39.670,-180.00,0.00,0.00
C01385=987.224,922.042,39.682,-180.00,0.00,0.00
C01386=995.722,921.117,39.693,-180.00,0.00,0.00
C01387=1029.238,926.612,39.740,-180.00,0.00,0.00
C01388=1057.357,945.677,39.786,-180.00,0.00,0.00
C01389=1062.887,952.188,39.798,-180.00,0.00,0.00
C01390=1077.152,983.021,39.845,-180.00,0.00,0.00
C01391=1074.861,1025.229,39.903,-180.00,0.00,0.00
C01392=1071.698,1033.168,39.915,-180.00,0.00,0.00
C01393=1067.690,1040.728,39.926,-180.00,0.00,0.00
C01394=1062.887,1047.812,39.938,-180.00,0.00,0.00
C01395=1051.140,1060.212,39.961,-180.00,0.00,0.00
C01396=1037.004,1069.795,39.984,-180.00,0.00,0.00
C01397=1029.238,1073.388,39.996,-180.00,0.00,0.00
C01398=1021.135,1076.118,40.008,-180.00,0.00,0.00
C01399=1012.776,1077.958,40.019,-180.00,0.00,0.00
C01400=1004.278,1078.883,40.031,-180.00,0.00,0.00
C01401=970.762,1073.388,40.078,-180.00,0.00,0.00
C01402=942.643,1054.323,40.124,-180.00,0.00,0.00
C01403=937.113,1047.812,40.136,-180.00,0.00,0.00
C01404=922.848,1016.979,40.183,-180.00,0.00,0.00
C01405=925.139,974.771,40.241,-180.00,0.00,0.00
C01406=932.310,959.272,40.264,-180.00,0.00,0.00
C01407=942.643,945.677,40.264,-180.00,0.00,0.00
C01408=948.860,939.788,40.264,-180.00,0.00,0.00
C01409=955.663,934.617,40.264,-180.00,0.00,0.00
C01410=978.865,923.882,40.264,-180.00,0.00,0.00
C01411=1004.278,921.117,40.264,-180.00,0.00,0.00
C01412=1012.776,922.042,40.264,-180.00,0.00,0.00
C01413=1021.135,923.882,40.264,-180.00,0.00,0.00
C01414=1029.238,926.612,40.264,-180.00,0.00,0.00
C01415=1057.357,945.677,40.264,-180.00,0.00,0.00
C01416=1078.535,991.456,40.264,-180.00,0.00,0.00
C01417=1074.861,1025.229,40.264,-180.00,0.00,0.00
C01418=1071.698,1033.168,40.264,-180.00,0.00,0.00
C01419=1067.690,1040.728,40.264,-180.00,0.00,0.00
C01420=1062.887,1047.812,40.264,-180.00,0.00,0.00
C01421=1051.140,1060.212,40.264,-180.00,0.00,0.00
C01422=1037.004,1069.795,40.264,-180.00,0.00,0.00
C01423=1029.238,1073.388,40.264,-180.00,0.00,0.00
C01424=1021.135,1076.118,40.264,-180.00,0.00,0.00
C01425=1012.776,1077.958,40.264,-180.00,0.00,0.00
C01426=1004.278,1078.883,40.264,-180.00,0.00,0.00
C01427=970.762,1073.388,40.264,-180.00,0.00,0.00
C01428=942.643,1054.323,40.264,-180.00,0.00,0.00
NOP
MOVJ C00000 VJ=50.00 PL=0
MOVL C00001 V=100.0 PL=0
MOVL C00002 V=100.0 PL=0
MOVL C00003 V=100.0 PL=0
MOVL C00004 V=100.0 PL=0
MOVL C00005 V=100.0 PL=0
MOVL C00006 V=100.0 PL=0
MOVS C00007 V=100.0 PL=0
MOVS C00008 V=100.0 PL=0
MOVS C00009 V=100.0 PL=0
MOVL C00010 V=100.0 PL=0
MOVL C00011 V=100.0 PL=0
MOVL C00012 V=100.0 PL=0
MOVS C00013 V=100.0 PL=0
MOVS C00014 V=100.0 PL=0
MOVS C00015 V=100.0 PL=0
MOVS C00016 V=100.0 PL=0
MOVS C00017 V=100.0 PL=0
MOVS C00018 V=100.0 PL=0
MOVL C00019 V=100.0 PL=0
MOVL C00020 V=100.0 PL=0
MOVS C00021 V=100.0 PL=0
MOVS C00022 V=100.0 PL=0
MOVS C00023 V=100.0 PL=0
MOVL C00024 V=100.0 PL=0
MOVL C00025 V=100.0 PL=0
MOVL C00026 V=100.0 PL=0
MOVS C00027 V=100.0 PL=0
MOVS C00028 V=100.0 PL=0
MOVS C00029 V=100.0 PL=0
MOVS C00030 V=100.0 PL=0
MOVS C00031 V=100.0 PL=0
MOVS C00032 V=100.0 PL=0
MOVS C00033 V=100.0 PL=0
MOVS C00034 V=100.0 PL=0
MOVS C00035 V=100.0 PL=0
MOVS C00036 V=100.0 PL=0
MOVS C00037 V=100.0 PL=0
MOVL C00038 V=100.0 PL=0
MOVL C00039 V=100.0 PL=0
MOVS C00040 V=100.0 PL=0
MOVS C00041 V=100.0 PL=0
MOVS C00042 V=100.0 PL=0
MOVL C00043 V=100.0 PL=0
MOVL C00044 V=100.0 PL=0
MOVS C00045 V=100.0 PL=0
MOVS C00046 V=100.0 PL=0
MOVS C00047 V=100.0 PL=0
MOVS C00048 V=100.0 PL=0
MOVS C00049 V=100.0 PL=0
MOVS C00050 V=100.0 PL=0
MOVL C00051 V=100.0 PL=0
MOVL C00052 V=100.0 PL=0
MOVS C00053 V=100.0 PL=0
MOVS C00054 V=100.0 PL=0
MOVS C00055 V=100.0 PL=0
MOVL C00056 V=100.0 PL=0
MOVL C00057 V=100.0 PL=0
MOVS C00058 V=100.0 PL=0
MOVS C00059 V=100.0 PL=0
MOVS C00060 V=100.0 PL=0
MOVS C00061 V=100.0 PL=0
MOVL C00062 V=100.0 PL=0
MOVL C00063 V=100.0 PL=0
MOVL C00064 V=100.0 PL=0
MOVL C00065 V=100.0 PL=0
MOVL C00066 V=100.0 PL=0
MOVL C00067 V=100.0 PL=0
MOVL C00068 V=100.0 PL=0
MOVL C00069 V=100.0 PL=0
MOVL C00070 V=100.0 PL=0
MOVS C00071 V=100.0 PL=0
MOVS C00072 V=100.0 PL=0
MOVS C00073 V=100.0 PL=0
MOVS C00074 V=100.0 PL=0
MOVS C00075 V=100.0 PL=0
MOVS C00076 V=100.0 PL=0
MOVS C00077 V=100.0 PL=0
MOVS C00078 V=100.0 PL=0
MOVS C00079 V=100.0 PL=0
MOVL C00080 V=100.0 PL=0
MOVL C00081 V=100.0 PL=0
MOVL C00082 V=100.0 PL=0
MOVL C00083 V=100.0 PL=0
MOVL C00084 V=100.0 PL=0
MOVL C00085 V=100.0 PL=0
MOVL C00086 V=100.0 PL=0
MOVL C00087 V=100.0 PL=0
MOVL C00088 V=100.0 PL=0
MOVL C00089 V=100.0 PL=0
MOVL C00090 V=100.0 PL=0
MOVL C00091 V=100.0 PL=0
MOVL C00092 V=100.0 PL=0
MOVL C00093 V=100.0 PL=0
MOVL C00094 V=100.0 PL=0
MOVL C00095 V=100.0 PL=0
MOVL C00096 V=100.0 PL=0
MOVL C00097 V=100.0 PL=0
MOVL C00098 V=100.0 PL=0
MOVL C00099 V=100.0 PL=0
MOVL C00100 V=100.0 PL=0
MOVL C00101 V=100.0 PL=0
MOVL C00102 V=100.0 PL=0
MOVL C00103 V=100.0 PL=0
MOVL C00104 V=100.0 PL=0
MOVL C00105 V=100.0 PL=0
MOVL C00106 V=100.0 PL=0
MOVL C00107 V=100.0 PL=0
MOVL C00108 V=100.0 PL=0
MOVL C00109 V=100.0 PL=0
MOVL C00110 V=100.0 PL=0
MOVL C00111 V=100.0 PL=0
MOVL C00112 V=100.0 PL=0
MOVL C00113 V=100.0 PL=0
MOVL C00114 V=100.0 PL=0
MOVL C00115 V=100.0 PL=0
MOVL C00116 V=100.0 PL=0
MOVL C00117 V=100.0 PL=0
MOVL C00118 V=100.0 PL=0
MOVL C00119 V=100.0 PL=0
MOVL C00120 V=100.0 PL=0
MOVL C00121 V=100.0 PL=0
MOVL C00122 V=100.0 PL=0
MOVL C00123 V=100.0 PL=0
MOVL C00124 V=100.0 PL=0
MOVL C00125 V=100.0 PL=0
MOVL C00126 V=100.0 PL=0
MOVL C00127 V=100.0 PL=0
MOVL C00128 V=100.0 PL=0
MOVL C00129 V=100.0 PL=0
MOVL C00130 V=100.0 PL=0
MOVL C00131 V=100.0 PL=0
MOVL C00132 V=100.0 PL=0
MOVL C00133 V=100.0 PL=0
MOVL C00134 V=100.0 PL=0
MOVL C00135 V=100.0 PL=0
MOVL C00136 V=100.0 PL=0
MOVL C00137 V=100.0 PL=0
MOVL C00138 V=100.0 PL=0
MOVL C00139 V=100.0 PL=0
MOVL C00140 V=100.0 PL=0
MOVL C00141 V=100.0 PL=0
MOVL C00142 V=100.0 PL=0
MOVL C00143 V=100.0 PL=0
MOVL C00144 V=100.0 PL=0
MOVL C00145 V=100.0 PL=0
MOVL C00146 V=100.0 PL=0
MOVL C00147 V=100.0 PL=0
MOVL C00148 V=100.0 PL=0
MOVL C00149 V=100.0 PL=0
MOVL C00150 V=100.0 PL=0
MOVL C00151 V=100.0 PL=0
MOVL C00152 V=100.0 PL=0
MOVL C00153 V=100.0 PL=0
MOVL C00154 V=100.0 PL=0
MOVL C00155 V=100.0 PL=0
MOVL C00156 V=100.0 PL=0
MOVL C00157 V=100.0 PL=0
MOVL C00158 V=100.0 PL=0
MOVL C00159 V=100.0 PL=0
MOVL C00160 V=100.0 PL=0
MOVL C00161 V=100.0 PL=0
MOVL C00162 V=100.0 PL=0
MOVL C00163 V=100.0 PL=0
MOVL C00164 V=100.0 PL=0
MOVL C00165 V=100.0 PL=0
MOVL C00166 V=100.0 PL=0
MOVL C00167 V=100.0 PL=0
MOVL C00168 V=100.0 PL=0
MOVL C00169 V=100.0 PL=0
MOVL C00170 V=100.0 PL=0
MOVL C00171 V=100.0 PL=0
MOVL C00172 V=100.0 PL=0
MOVL C00173 V=100.0 PL=0
MOVL C00174 V=100.0 PL=0
MOVL C00175 V=100.0 PL=0
MOVL C00176 V=100.0 PL=0
MOVL C00177 V=100.0 PL=0
MOVL C00178 V=100.0 PL=0
MOVL C00179 V=100.0 PL=0
MOVL C00180 V=100.0 PL=0
MOVL C00181 V=100.0 PL=0
MOVL C00182 V=100.0 PL=0
MOVL C00183 V=100.0 PL=0
MOVL C00184 V=100.0 PL=0
MOVL C00185 V=100.0 PL=0
MOVL C00186 V=100.0 PL=0
MOVL C00187 V=100.0 PL=0
MOVL C00188 V=100.0 PL=0
MOVL C00189 V=100.0 PL=0
MOVL C00190 V=100.0 PL=0
MOVL C00191 V=100.0 PL=0
MOVL C00192 V=100.0 PL=0
MOVL C00193 V=100.0 PL=0
MOVL C00194 V=100.0 PL=0
MOVL C00195 V=100.0 PL=0
MOVL C00196 V=100.0 PL=0
MOVL C00197 V=100.0 PL=0
MOVL C00198 V=100.0 PL=0
MOVL C00199 V=100.0 PL=0
MOVL C00200 V=100.0 PL=0
MOVL C00201 V=100.0 PL=0
MOVL C00202 V=100.0 PL=0
MOVL C00203 V=100.0 PL=0
MOVL C00204 V=100.0 PL=0
MOVL C00205 V=100.0 PL=0
MOVL C00206 V=100.0 PL=0
MOVL C00207 V=100.0 PL=0
MOVS C00208 V=100.0 PL=0
MOVS C00209 V=100.0 PL=0
MOVS C00210 V=100.0 PL=0
MOVS C00211 V=100.0 PL=0
MOVS C00212 V=100.0 PL=0
MOVS C00213 V=100.0 PL=0
MOVS C00214 V=100.0 PL=0
MOVS C00215 V=100.0 PL=0
MOVS C00216 V=100.0 PL=0
MOVS C00217 V=100.0 PL=0
MOVS C00218 V=100.0 PL=0
MOVS C00219 V=100.0 PL=0
MOVL C00220 V=100.0 PL=0
MOVL C00221 V=100.0 PL=0
MOVL C00222 V=100.0 PL=0
MOVS C00223 V=100.0 PL=0
MOVS C00224 V=100.0 PL=0
MOVS C00225 V=100.0 PL=0
MOVL C00226 V=100.0 PL=0
MOVL C00227 V=100.0 PL=0
MOVL C00228 V=100.0 PL=0
MOVL C00229 V=100.0 PL=0
MOVS C00230 V=100.0 PL=0
MOVS C00231 V=100.0 PL=0
MOVS C00232 V=100.0 PL=0
MOVL C00233 V=100.0 PL=0
MOVL C00234 V=100.0 PL=0
MOVL C00235 V=100.0 PL=0
MOVS C00236 V=100.0 PL=0
MOVS C00237 V=100.0 PL=0
MOVS C00238 V=100.0 PL=0
MOVS C00239 V=100.0 PL=0
MOVS C00240 V=100.0 PL=0
MOVS C00241 V=100.0 PL=0
MOVL C00242 V=100.0 PL=0
MOVS C00243 V=100.0 PL=0
MOVS C00244 V=100.0 PL=0
MOVS C00245 V=100.0 PL=0
MOVL C00246 V=100.0 PL=0
MOVL C00247 V=100.0 PL=0
MOVL C00248 V=100.0 PL=0
MOVS C00249 V=100.0 PL=0
MOVS C00250 V=100.0 PL=0
MOVS C00251 V=100.0 PL=0
MOVS C00252 V=100.0 PL=0
MOVS C00253 V=100.0 PL=0
MOVS C00254 V=100.0 PL=0
MOVS C00255 V=100.0 PL=0
MOVS C00256 V=100.0 PL=0
MOVS C00257 V=100.0 PL=0
MOVL C00258 V=100.0 PL=0
MOVL C00259 V=100.0 PL=0
MOVS C00260 V=100.0 PL=0
MOVS C00261 V=100.0 PL=0
MOVS C00262 V=100.0 PL=0
MOVL C00263 V=100.0 PL=0
MOVL C00264 V=100.0 PL=0
MOVL C00265 V=100.0 PL=0
MOVS C00266 V=100.0 PL=0
MOVS C00267 V=100.0 PL=0
MOVS C00268 V=100.0 PL=0
MOVS C00269 V=100.0 PL=0
MOVS C00270 V=100.0 PL=0
MOVS C00271 V=100.0 PL=0
MOVL C00272 V=100.0 PL=0
MOVL C00273 V=100.0 PL=0
MOVS C00274 V=100.0 PL=0
MOVS C00275 V=100.0 PL=0
MOVS C00276 V=100.0 PL=0
MOVL C00277 V=100.0 PL=0
MOVL C00278 V=100.0 PL=0
MOVL C00279 V=100.0 PL=0
MOVS C00280 V=100.0 PL=0
MOVS C00281 V=100.0 PL=0
MOVS C00282 V=100.0 PL=0
MOVS C00283 V=100.0 PL=0
MOVS C00284 V=100.0 PL=0
MOVS C00285 V=100.0 PL=0
MOVL C00286 V=100.0 PL=0
MOVL C00287 V=100.0 PL=0
MOVS C00288 V=100.0 PL=0
MOVS C00289 V=100.0 PL=0
MOVS C00290 V=100.0 PL=0
MOVL C00291 V=100.0 PL=0
MOVL C00292 V=100.0 PL=0
MOVL C00293 V=100.0 PL=0
MOVS C00294 V=100.0 PL=0
MOVS C00295 V=100.0 PL=0
MOVS C00296 V=100.0 PL=0
MOVS C00297 V=100.0 PL=0
MOVS C00298 V=100.0 PL=0
MOVS C00299 V=100.0 PL=0
MOVL C00300 V=100.0 PL=0
MOVL C00301 V=100.0 PL=0
MOVS C00302 V=100.0 PL=0
MOVS C00303 V=100.0 PL=0
MOVS C00304 V=100.0 PL=0
MOVL C00305 V=100.0 PL=0
MOVL C00306 V=100.0 PL=0
MOVL C00307 V=100.0 PL=0
MOVS C00308 V=100.0 PL=0
MOVS C00309 V=100.0 PL=0
MOVS C00310 V=100.0 PL=0
MOVS C00311 V=100.0 PL=0
MOVS C00312 V=100.0 PL=0
MOVS C00313 V=100.0 PL=0
MOVL C00314 V=100.0 PL=0
MOVL C00315 V=100.0 PL=0
MOVS C00316 V=100.0 PL=0
MOVS C00317 V=100.0 PL=0
MOVS C00318 V=100.0 PL=0
MOVL C00319 V=100.0 PL=0
MOVL C00320 V=100.0 PL=0
MOVS C00321 V=100.0 PL=0
MOVS C00322 V=100.0 PL=0
MOVS C00323 V=100.0 PL=0
MOVS C00324 V=100.0 PL=0
MOVS C00325 V=100.0 PL=0
MOVS C00326 V=100.0 PL=0
MOVL C00327 V=100.0 PL=0
MOVL C00328 V=100.0 PL=0
MOVS C00329 V=100.0 PL=0
MOVS C00330 V=100.0 PL=0
MOVS C00331 V=100.0 PL=0
MOVL C00332 V=100.0 PL=0
MOVL C00333 V=100.0 PL=0
MOVS C00334 V=100.0 PL=0
MOVS C00335 V=100.0 PL=0
MOVS C00336 V=100.0 PL=0
MOVS C00337 V=100.0 PL=0
MOVL C00338 V=100.0 PL=0
MOVS C00339 V=100.0 PL=0
MOVS C00340 V=100.0 PL=0
MOVS C00341 V=100.0 PL=0
MOVL C00342 V=100.0 PL=0
MOVL C00343 V=100.0 PL=0
MOVL C00344 V=100.0 PL=0
MOVL C00345 V=100.0 PL=0
MOVL C00346 V=100.0 PL=0
MOVL C00347 V=100.0 PL=0
MOVS C00348 V=100.0 PL=0
MOVS C00349 V=100.0 PL=0
MOVS C00350 V=100.0 PL=0
MOVS C00351 V=100.0 PL=0
MOVS C00352 V=100.0 PL=0
MOVS C00353 V=100.0 PL=0
MOVS C00354 V=100.0 PL=0
MOVS C00355 V=100.0 PL=0
MOVS C00356 V=100.0 PL=0
MOVL C00357 V=100.0 PL=0
MOVL C00358 V=100.0 PL=0
MOVS C00359 V=100.0 PL=0
MOVS C00360 V=100.0 PL=0
MOVS C00361 V=100.0 PL=0
MOVL C00362 V=100.0 PL=0
MOVL C00363 V=100.0 PL=0
MOVS C00364 V=100.0 PL=0
MOVS C00365 V=100.0 PL=0
MOVS C00366 V=100.0 PL=0
MOVS C00367 V=100.0 PL=0
MOVL C00368 V=100.0 PL=0
MOVL C00369 V=100.0 PL=0
MOVL C00370 V=100.0 PL=0
MOVS C00371 V=100.0 PL=0
MOVS C00372 V=100.0 PL=0
MOVS C00373 V=100.0 PL=0
MOVL C00374 V=100.0 PL=0
MOVL C00375 V=100.0 PL=0
MOVL C00376 V=100.0 PL=0
MOVS C00377 V=100.0 PL=0
MOVS C00378 V=100.0 PL=0
MOVS C00379 V=100.0 PL=0
MOVS C00380 V=100.0 PL=0
MOVS C00381 V=100.0 PL=0
MOVS C00382 V=100.0 PL=0
MOVL C00383 V=100.0 PL=0
MOVL C00384 V=100.0 PL=0
MOVS C00385 V=100.0 PL=0
MOVS C00386 V=100.0 PL=0
MOVS C00387 V=100.0 PL=0
MOVL C00388 V=100.0 PL=0
MOVL C00389 V=100.0 PL=0
MOVL C00390 V=100.0 PL=0
MOVS C00391 V=100.0 PL=0
MOVS C00392 V=100.0 PL=0
MOVS C00393 V=100.0 PL=0
MOVS C00394 V=100.0 PL=0
MOVS C00395 V=100.0 PL=0
MOVS C00396 V=100.0 PL=0
MOVS C00397 V=100.0 PL=0
MOVS C00398 V=100.0 PL=0
MOVL C00399 V=100.0 PL=0
MOVS C00400 V=100.0 PL=0
MOVS C00401 V=100.0 PL=0
MOVS C00402 V=100.0 PL=0
MOVL C00403 V=100.0 PL=0
MOVL C00404 V=100.0 PL=0
MOVL C00405 V=100.0 PL=0
MOVS C00406 V=100.0 PL=0
MOVS C00407 V=100.0 PL=0
MOVS C00408 V=100.0 PL=0
MOVS C00409 V=100.0 PL=0
MOVS C00410 V=100.0 PL=0
MOVS C00411 V=100.0 PL=0
MOVL C00412 V=100.0 PL=0
MOVS C00413 V=100.0 PL=0
MOVS C00414 V=100.0 PL=0
MOVS C00415 V=100.0 PL=0
MOVL C00416 V=100.0 PL=0
MOVL C00417 V=100.0 PL=0
MOVL C00418 V=100.0 PL=0
MOVS C00419 V=100.0 PL=0
MOVS C00420 V=100.0 PL=0
MOVS C00421 V=100.0 PL=0
MOVS C00422 V=100.0 PL=0
MOVS C00423 V=100.0 PL=0
MOVS C00424 V=100.0 PL=0
MOVL C00425 V=100.0 PL=0
MOVL C00426 V=100.0 PL=0
MOVL C00427 V=100.0 PL=0
MOVL C00428 V=100.0 PL=0
MOVL C00429 V=100.0 PL=0
MOVL C00430 V=100.0 PL=0
MOVL C00431 V=100.0 PL=0
MOVL C00432 V=100.0 PL=0
MOVL C00433 V=100.0 PL=0
MOVL C00434 V=100.0 PL=0
MOVL C00435 V=100.0 PL=0
MOVL C00436 V=100.0 PL=0
MOVL C00437 V=100.0 PL=0
MOVL C00438 V=100.0 PL=0
MOVL C00439 V=100.0 PL=0
MOVL C00440 V=100.0 PL=0
MOVL C00441 V=100.0 PL=0
MOVL C00442 V=100.0 PL=0
MOVL C00443 V=100.0 PL=0
MOVL C00444 V=100.0 PL=0
MOVL C00445 V=100.0 PL=0
MOVL C00446 V=100.0 PL=0
MOVL C00447 V=100.0 PL=0
MOVL C00448 V=100.0 PL=0
MOVL C00449 V=100.0 PL=0
MOVL C00450 V=100.0 PL=0
MOVL C00451 V=100.0 PL=0
MOVL C00452 V=100.0 PL=0
MOVL C00453 V=100.0 PL=0
MOVL C00454 V=100.0 PL=0
MOVL C00455 V=100.0 PL=0
MOVL C00456 V=100.0 PL=0
MOVL C00457 V=100.0 PL=0
MOVL C00458 V=100.0 PL=0
MOVL C00459 V=100.0 PL=0
MOVL C00460 V=100.0 PL=0
MOVL C00461 V=100.0 PL=0
MOVL C00462 V=100.0 PL=0
MOVL C00463 V=100.0 PL=0
MOVL C00464 V=100.0 PL=0
MOVL C00465 V=100.0 PL=0
MOVL C00466 V=100.0 PL=0
MOVL C00467 V=100.0 PL=0
MOVL C00468 V=100.0 PL=0
MOVL C00469 V=100.0 PL=0
MOVL C00470 V=100.0 PL=0
MOVL C00471 V=100.0 PL=0
MOVL C00472 V=100.0 PL=0
MOVL C00473 V=100.0 PL=0
MOVL C00474 V=100.0 PL=0
MOVL C00475 V=100.0 PL=0
MOVL C00476 V=100.0 PL=0
MOVL C00477 V=100.0 PL=0
MOVL C00478 V=100.0 PL=0
MOVL C00479 V=100.0 PL=0
MOVL C00480 V=100.0 PL=0
MOVL C00481 V=100.0 PL=0
MOVL C00482 V=100.0 PL=0
MOVL C00483 V=100.0 PL=0
MOVL C00484 V=100.0 PL=0
MOVL C00485 V=100.0 PL=0
MOVL C00486 V=100.0 PL=0
MOVL C00487 V=100.0 PL=0
MOVL C00488 V=100.0 PL=0
MOVL C00489 V=100.0 PL=0
MOVL C00490 V=100.0 PL=0
MOVL C00491 V=100.0 PL=0
MOVL C00492 V=100.0 PL=0
MOVL C00493 V=100.0 PL=0
MOVL C00494 V=100.0 PL=0
MOVL C00495 V=100.0 PL=0
MOVL C00496 V=100.0 PL=0
MOVL C00497 V=100.0 PL=0
MOVL C00498 V=100.0 PL=0
MOVL C00499 V=100.0 PL=0
MOVL C00500 V=100.0 PL=0
MOVL C00501 V=100.0 PL=0
MOVL C00502 V=100.0 PL=0
MOVL C00503 V=100.0 PL=0
MOVL C00504 V=100.0 PL=0
MOVL C00505 V=100.0 PL=0
MOVL C00506 V=100.0 PL=0
MOVL C00507 V=100.0 PL=0
MOVL C00508 V=100.0 PL=0
MOVL C00509 V=100.0 PL=0
MOVL C00510 V=100.0 PL=0
MOVL C00511 V=100.0 PL=0
MOVL C00512 V=100.0 PL=0
MOVL C00513 V=100.0 PL=0
MOVL C00514 V=100.0 PL=0
MOVL C00515 V=100.0 PL=0
MOVL C00516 V=100.0 PL=0
MOVL C00517 V=100.0 PL=0
MOVL C00518 V=100.0 PL=0
MOVL C00519 V=100.0 PL=0
MOVL C00520 V=100.0 PL=0
MOVL C00521 V=100.0 PL=0
MOVL C00522 V=100.0 PL=0
MOVL C00523 V=100.0 PL=0
MOVL C00524 V=100.0 PL=0
MOVL C00525 V=100.0 PL=0
MOVL C00526 V=100.0 PL=0
MOVL C00527 V=100.0 PL=0
MOVL C00528 V=100.0 PL=0
MOVL C00529 V=100.0 PL=0
MOVL C00530 V=100.0 PL=0
MOVL C00531 V=100.0 PL=0
MOVL C00532 V=100.0 PL=0
MOVL C00533 V=100.0 PL=0
MOVL C00534 V=100.0 PL=0
MOVL C00535 V=100.0 PL=0
MOVL C00536 V=100.0 PL=0
MOVL C00537 V=100.0 PL=0
MOVL C00538 V=100.0 PL=0
MOVL C00539 V=100.0 PL=0
MOVL C00540 V=100.0 PL=0
MOVL C00541 V=100.0 PL=0
MOVL C00542 V=100.0 PL=0
MOVL C00543 V=100.0 PL=0
MOVL C00544 V=100.0 PL=0
MOVL C00545 V=100.0 PL=0
MOVL C00546 V=100.0 PL=0
MOVL C00547 V=100.0 PL=0
MOVL C00548 V=100.0 PL=0
MOVL C00549 V=100.0 PL=0
MOVL C00550 V=100.0 PL=0
MOVL C00551 V=100.0 PL=0
MOVL C00552 V=100.0 PL=0
MOVL C00553 V=100.0 PL=0
MOVL C00554 V=100.0 PL=0
MOVL C00555 V=100.0 PL=0
MOVL C00556 V=100.0 PL=0
MOVL C00557 V=100.0 PL=0
MOVL C00558 V=100.0 PL=0
MOVL C00559 V=100.0 PL=0
MOVL C00560 V=100.0 PL=0
MOVL C00561 V=100.0 PL=0
MOVL C00562 V=100.0 PL=0
MOVL C00563 V=100.0 PL=0
MOVL C00564 V=100.0 PL=0
MOVL C00565 V=100.0 PL=0
MOVL C00566 V=100.0 PL=0
MOVL C00567 V=100.0 PL=0
MOVL C00568 V=100.0 PL=0
MOVL C00569 V=100.0 PL=0
MOVL C00570 V=100.0 PL=0
MOVL C00571 V=100.0 PL=0
MOVL C00572 V=100.0 PL=0
MOVS C00573 V=100.0 PL=0
MOVS C00574 V=100.0 PL=0
MOVS C00575 V=100.0 PL=0
MOVS C00576 V=100.0 PL=0
MOVS C00577 V=100.0 PL=0
MOVS C00578 V=100.0 PL=0
MOVL C00579 V=100.0 PL=0
MOVL C00580 V=100.0 PL=0
MOVS C00581 V=100.0 PL=0
MOVS C00582 V=100.0 PL=0
MOVS C00583 V=100.0 PL=0
MOVL C00584 V=100.0 PL=0
MOVL C00585 V=100.0 PL=0
MOVL C00586 V=100.0 PL=0
MOVS C00587 V=100.0 PL=0
MOVS C00588 V=100.0 PL=0
MOVS C00589 V=100.0 PL=0
MOVS C00590 V=100.0 PL=0
MOVS C00591 V=100.0 PL=0
MOVS C00592 V=100.0 PL=0
MOVS C00593 V=100.0 PL=0
MOVS C00594 V=100.0 PL=0
MOVL C00595 V=100.0 PL=0
MOVS C00596 V=100.0 PL=0
MOVS C00597 V=100.0 PL=0
MOVS C00598 V=100.0 PL=0
MOVL C00599 V=100.0 PL=0
MOVL C00600 V=100.0 PL=0
MOVS C00601 V=100.0 PL=0
MOVS C00602 V=100.0 PL=0
MOVS C00603 V=100.0 PL=0
MOVS C00604 V=100.0 PL=0
MOVL C00605 V=100.0 PL=0
MOVL C00606 V=100.0 PL=0
MOVS C00607 V=100.0 PL=0
MOVS C00608 V=100.0 PL=0
MOVS C00609 V=100.0 PL=0
MOVL C00610 V=100.0 PL=0
MOVL C00611 V=100.0 PL=0
MOVL C00612 V=100.0 PL=0
MOVS C00613 V=100.0 PL=0
MOVS C00614 V=100.0 PL=0
MOVS C00615 V=100.0 PL=0
MOVS C00616 V=100.0 PL=0
MOVS C00617 V=100.0 PL=0
MOVS C00618 V=100.0 PL=0
MOVS C00619 V=100.0 PL=0
MOVS C00620 V=100.0 PL=0
MOVL C00621 V=100.0 PL=0
MOVS C00622 V=100.0 PL=0
MOVS C00623 V=100.0 PL=0
MOVS C00624 V=100.0 PL=0
MOVL C00625 V=100.0 PL=0
MOVL C00626 V=100.0 PL=0
MOVS C00627 V=100.0 PL=0
MOVS C00628 V=100.0 PL=0
MOVS C00629 V=100.0 PL=0
MOVS C00630 V=100.0 PL=0
MOVL C00631 V=100.0 PL=0
MOVL C00632 V=100.0 PL=0
MOVS C00633 V=100.0 PL=0
MOVS C00634 V=100.0 PL=0
MOVS C00635 V=100.0 PL=0
MOVL C00636 V=100.0 PL=0
MOVL C00637 V=100.0 PL=0
MOVL C00638 V=100.0 PL=0
MOVS C00639 V=100.0 PL=0
MOVS C00640 V=100.0 PL=0
MOVS C00641 V=100.0 PL=0
MOVS C00642 V=100.0 PL=0
MOVS C00643 V=100.0 PL=0
MOVS C00644 V=100.0 PL=0
MOVS C00645 V=100.0 PL=0
MOVS C00646 V=100.0 PL=0
MOVL C00647 V=100.0 PL=0
MOVS C00648 V=100.0 PL=0
MOVS C00649 V=100.0 PL=0
MOVS C00650 V=100.0 PL=0
MOVL C00651 V=100.0 PL=0
MOVL C00652 V=100.0 PL=0
MOVS C00653 V=100.0 PL=0
MOVS C00654 V=100.0 PL=0
MOVS C00655 V=100.0 PL=0
MOVS C00656 V=100.0 PL=0
MOVL C00657 V=100.0 PL=0
MOVL C00658 V=100.0 PL=0
MOVS C00659 V=100.0 PL=0
MOVS C00660 V=100.0 PL=0
MOVS C00661 V=100.0 PL=0
MOVL C00662 V=100.0 PL=0
MOVL C00663 V=100.0 PL=0
MOVL C00664 V=100.0 PL=0
MOVS C00665 V=100.0 PL=0
MOVS C00666 V=100.0 PL=0
MOVS C00667 V=100.0 PL=0
MOVS C00668 V=100.0 PL=0
MOVS C00669 V=100.0 PL=0
MOVS C00670 V=100.0 PL=0
MOVS C00671 V=100.0 PL=0
MOVS C00672 V=100.0 PL=0
MOVL C00673 V=100.0 PL=0
MOVS C00674 V=100.0 PL=0
MOVS C00675 V=100.0 PL=0
MOVS C00676 V=100.0 PL=0
MOVL C00677 V=100.0 PL=0
MOVL C00678 V=100.0 PL=0
MOVS C00679 V=100.0 PL=0
MOVS C00680 V=100.0 PL=0
MOVS C00681 V=100.0 PL=0
MOVS C00682 V=100.0 PL=0
MOVL C00683 V=100.0 PL=0
MOVL C00684 V=100.0 PL=0
MOVS C00685 V=100.0 PL=0
MOVS C00686 V=100.0 PL=0
MOVS C00687 V=100.0 PL=0
MOVL C00688 V=100.0 PL=0
MOVL C00689 V=100.0 PL=0
MOVL C00690 V=100.0 PL=0
MOVS C00691 V=100.0 PL=0
MOVS C00692 V=100.0 PL=0
MOVS C00693 V=100.0 PL=0
MOVS C00694 V=100.0 PL=0
MOVS C00695 V=100.0 PL=0
MOVS C00696 V=100.0 PL=0
MOVS C00697 V=100.0 PL=0
MOVS C00698 V=100.0 PL=0
MOVL C00699 V=100.0 PL=0
MOVS C00700 V=100.0 PL=0
MOVS C00701 V=100.0 PL=0
MOVS C00702 V=100.0 PL=0
MOVL C00703 V=100.0 PL=0
MOVL C00704 V=100.0 PL=0
MOVS C00705 V=100.0 PL=0
MOVS C00706 V=100.0 PL=0
MOVS C00707 V=100.0 PL=0
MOVS C00708 V=100.0 PL=0
MOVL C00709 V=100.0 PL=0
MOVL C00710 V=100.0 PL=0
MOVS C00711 V=100.0 PL=0
MOVS C00712 V=100.0 PL=0
MOVS C00713 V=100.0 PL=0
MOVL C00714 V=100.0 PL=0
MOVL C00715 V=100.0 PL=0
MOVL C00716 V=100.0 PL=0
MOVS C00717 V=100.0 PL=0
MOVS C00718 V=100.0 PL=0
MOVS C00719 V=100.0 PL=0
MOVS C00720 V=100.0 PL=0
MOVS C00721 V=100.0 PL=0
MOVS C00722 V=100.0 PL=0
MOVS C00723 V=100.0 PL=0
MOVS C00724 V=100.0 PL=0
MOVL C00725 V=100.0 PL=0
MOVS C00726 V=100.0 PL=0
MOVS C00727 V=100.0 PL=0
MOVS C00728 V=100.0 PL=0
MOVL C00729 V=100.0 PL=0
MOVL C00730 V=100.0 PL=0
MOVS C00731 V=100.0 PL=0
MOVS C00732 V=100.0 PL=0
MOVS C00733 V=100.0 PL=0
MOVS C00734 V=100.0 PL=0
MOVL C00735 V=100.0 PL=0
MOVL C00736 V=100.0 PL=0
MOVS C00737 V=100.0 PL=0
MOVS C00738 V=100.0 PL=0
MOVS C00739 V=100.0 PL=0
MOVL C00740 V=100.0 PL=0
MOVL C00741 V=100.0 PL=0
MOVL C00742 V=100.0 PL=0
MOVS C00743 V=100.0 PL=0
MOVS C00744 V=100.0 PL=0
MOVS C00745 V=100.0 PL=0
MOVS C00746 V=100.0 PL=0
MOVS C00747 V=100.0 PL=0
MOVS C00748 V=100.0 PL=0
MOVS C00749 V=100.0 PL=0
MOVS C00750 V=100.0 PL=0
MOVL C00751 V=100.0 PL=0
MOVS C00752 V=100.0 PL=0
MOVS C00753 V=100.0 PL=0
MOVS C00754 V=100.0 PL=0
MOVL C00755 V=100.0 PL=0
MOVL C00756 V=100.0 PL=0
MOVS C00757 V=100.0 PL=0
MOVS C00758 V=100.0 PL=0
MOVS C00759 V=100.0 PL=0
MOVS C00760 V=100.0 PL=0
MOVL C00761 V=100.0 PL=0
MOVL C00762 V=100.0 PL=0
MOVS C00763 V=100.0 PL=0
MOVS C00764 V=100.0 PL=0
MOVS C00765 V=100.0 PL=0
MOVL C00766 V=100.0 PL=0
MOVL C00767 V=100.0 PL=0
MOVL C00768 V=100.0 PL=0
MOVS C00769 V=100.0 PL=0
MOVS C00770 V=100.0 PL=0
MOVS C00771 V=100.0 PL=0
MOVS C00772 V=100.0 PL=0
MOVS C00773 V=100.0 PL=0
MOVS C00774 V=100.0 PL=0
MOVS C00775 V=100.0 PL=0
MOVS C00776 V=100.0 PL=0
MOVL C00777 V=100.0 PL=0
MOVS C00778 V=100.0 PL=0
MOVS C00779 V=100.0 PL=0
MOVS C00780 V=100.0 PL=0
MOVL C00781 V=100.0 PL=0
MOVL C00782 V=100.0 PL=0
MOVS C00783 V=100.0 PL=0
MOVS C00784 V=100.0 PL=0
MOVS C00785 V=100.0 PL=0
MOVS C00786 V=100.0 PL=0
MOVL C00787 V=100.0 PL=0
MOVL C00788 V=100.0 PL=0
MOVS C00789 V=100.0 PL=0
MOVS C00790 V=100.0 PL=0
MOVS C00791 V=100.0 PL=0
MOVL C00792 V=100.0 PL=0
MOVL C00793 V=100.0 PL=0
MOVL C00794 V=100.0 PL=0
MOVS C00795 V=100.0 PL=0
MOVS C00796 V=100.0 PL=0
MOVS C00797 V=100.0 PL=0
MOVS C00798 V=100.0 PL=0
MOVS C00799 V=100.0 PL=0
MOVS C00800 V=100.0 PL=0
MOVS C00801 V=100.0 PL=0
MOVS C00802 V=100.0 PL=0
MOVL C00803 V=100.0 PL=0
MOVS C00804 V=100.0 PL=0
MOVS C00805 V=100.0 PL=0
MOVS C00806 V=100.0 PL=0
MOVL C00807 V=100.0 PL=0
MOVL C00808 V=100.0 PL=0
MOVS C00809 V=100.0 PL=0
MOVS C00810 V=100.0 PL=0
MOVS C00811 V=100.0 PL=0
MOVS C00812 V=100.0 PL=0
MOVL C00813 V=100.0 PL=0
MOVL C00814 V=100.0 PL=0
MOVS C00815 V=100.0 PL=0
MOVS C00816 V=100.0 PL=0
MOVS C00817 V=100.0 PL=0
MOVL C00818 V=100.0 PL=0
MOVL C00819 V=100.0 PL=0
MOVL C00820 V=100.0 PL=0
MOVS C00821 V=100.0 PL=0
MOVS C00822 V=100.0 PL=0
MOVS C00823 V=100.0 PL=0
MOVS C00824 V=100.0 PL=0
MOVS C00825 V=100.0 PL=0
MOVS C00826 V=100.0 PL=0
MOVS C00827 V=100.0 PL=0
MOVS C00828 V=100.0 PL=0
MOVL C00829 V=100.0 PL=0
MOVS C00830 V=100.0 PL=0
MOVS C00831 V=100.0 PL=0
MOVS C00832 V=100.0 PL=0
MOVS C00833 V=100.0 PL=0
MOVS C00834 V=100.0 PL=0
MOVL C00835 V=100.0 PL=0
MOVL C00836 V=100.0 PL=0
MOVS C00837 V=100.0 PL=0
MOVS C00838 V=100.0 PL=0
MOVS C00839 V=100.0 PL=0
MOVL C00840 V=100.0 PL=0
MOVL C00841 V=100.0 PL=0
MOVL C00842 V=100.0 PL=0
MOVS C00843 V=100.0 PL=0
MOVS C00844 V=100.0 PL=0
MOVS C00845 V=100.0 PL=0
MOVL C00846 V=100.0 PL=0
MOVL C00847 V=100.0 PL=0
MOVL C00848 V=100.0 PL=0
MOVS C00849 V=100.0 PL=0
MOVS C00850 V=100.0 PL=0
MOVS C00851 V=100.0 PL=0
MOVS C00852 V=100.0 PL=0
MOVS C00853 V=100.0 PL=0
MOVS C00854 V=100.0 PL=0
MOVS C00855 V=100.0 PL=0
MOVS C00856 V=100.0 PL=0
MOVL C00857 V=100.0 PL=0
MOVS C00858 V=100.0 PL=0
MOVS C00859 V=100.0 PL=0
MOVS C00860 V=100.0 PL=0
MOVL C00861 V=100.0 PL=0
MOVL C00862 V=100.0 PL=0
MOVS C00863 V=100.0 PL=0
MOVS C00864 V=100.0 PL=0
MOVS C00865 V=100.0 PL=0
MOVS C00866 V=100.0 PL=0
MOVL C00867 V=100.0 PL=0
MOVL C00868 V=100.0 PL=0
MOVS C00869 V=100.0 PL=0
MOVS C00870 V=100.0 PL=0
MOVS C00871 V=100.0 PL=0
MOVL C00872 V=100.0 PL=0
MOVL C00873 V=100.0 PL=0
MOVL C00874 V=100.0 PL=0
MOVS C00875 V=100.0 PL=0
MOVS C00876 V=100.0 PL=0
MOVS C00877 V=100.0 PL=0
MOVS C00878 V=100.0 PL=0
MOVS C00879 V=100.0 PL=0
MOVS C00880 V=100.0 PL=0
MOVS C00881 V=100.0 PL=0
MOVS C00882 V=100.0 PL=0
MOVL C00883 V=100.0 PL=0
MOVS C00884 V=100.0 PL=0
MOVS C00885 V=100.0 PL=0
MOVS C00886 V=100.0 PL=0
MOVL C00887 V=100.0 PL=0
MOVL C00888 V=100.0 PL=0
MOVS C00889 V=100.0 PL=0
MOVS C00890 V=100.0 PL=0
MOVS C00891 V=100.0 PL=0
MOVS C00892 V=100.0 PL=0
MOVL C00893 V=100.0 PL=0
MOVL C00894 V=100.0 PL=0
MOVS C00895 V=100.0 PL=0
MOVS C00896 V=100.0 PL=0
MOVS C00897 V=100.0 PL=0
MOVL C00898 V=100.0 PL=0
MOVL C00899 V=100.0 PL=0
MOVL C00900 V=100.0 PL=0
MOVS C00901 V=100.0 PL=0
MOVS C00902 V=100.0 PL=0
MOVS C00903 V=100.0 PL=0
MOVS C00904 V=100.0 PL=0
MOVS C00905 V=100.0 PL=0
MOVS C00906 V=100.0 PL=0
MOVS C00907 V=100.0 PL=0
MOVS C00908 V=100.0 PL=0
MOVL C00909 V=100.0 PL=0
MOVS C00910 V=100.0 PL=0
MOVS C00911 V=100.0 PL=0
MOVS C00912 V=100.0 PL=0
MOVL C00913 V=100.0 PL=0
MOVL C00914 V=100.0 PL=0
MOVS C00915 V=100.0 PL=0
MOVS C00916 V=100.0 PL=0
MOVS C00917 V=100.0 PL=0
MOVS C00918 V=100.0 PL=0
MOVL C00919 V=100.0 PL=0
MOVL C00920 V=100.0 PL=0
MOVS C00921 V=100.0 PL=0
MOVS C00922 V=100.0 PL=0
MOVS C00923 V=100.0 PL=0
MOVL C00924 V=100.0 PL=0
MOVL C00925 V=100.0 PL=0
MOVL C00926 V=100.0 PL=0
MOVS C00927 V=100.0 PL=0
MOVS C00928 V=100.0 PL=0
MOVS C00929 V=100.0 PL=0
MOVS C00930 V=100.0 PL=0
MOVS C00931 V=100.0 PL=0
MOVS C00932 V=100.0 PL=0
MOVS C00933 V=100.0 PL=0
MOVS C00934 V=100.0 PL=0
MOVL C00935 V=100.0 PL=0
MOVS C00936 V=100.0 PL=0
MOVS C00937 V=100.0 PL=0
MOVS C00938 V=100.0 PL=0
MOVL C00939 V=100.0 PL=0
MOVL C00940 V=100.0 PL=0
MOVS C00941 V=100.0 PL=0
MOVS C00942 V=100.0 PL=0
MOVS C00943 V=100.0 PL=0
MOVS C00944 V=100.0 PL=0
MOVL C00945 V=100.0 PL=0
MOVL C00946 V=100.0 PL=0
MOVS C00947 V=100.0 PL=0
MOVS C00948 V=100.0 PL=0
MOVS C00949 V=100.0 PL=0
MOVL C00950 V=100.0 PL=0
MOVL C00951 V=100.0 PL=0
MOVL C00952 V=100.0 PL=0
MOVS C00953 V=100.0 PL=0
MOVS C00954 V=100.0 PL=0
MOVS C00955 V=100.0 PL=0
MOVS C00956 V=100.0 PL=0
MOVS C00957 V=100.0 PL=0
MOVS C00958 V=100.0 PL=0
MOVS C00959 V=100.0 PL=0
MOVS C00960 V=100.0 PL=0
MOVL C00961 V=100.0 PL=0
MOVS C00962 V=100.0 PL=0
MOVS C00963 V=100.0 PL=0
MOVS C00964 V=100.0 PL=0
MOVL C00965 V=100.0 PL=0
MOVL C00966 V=100.0 PL=0
MOVS C00967 V=100.0 PL=0
MOVS C00968 V=100.0 PL=0
MOVS C00969 V=100.0 PL=0
MOVS C00970 V=100.0 PL=0
MOVL C00971 V=100.0 PL=0
MOVL C00972 V=100.0 PL=0
MOVS C00973 V=100.0 PL=0
MOVS C00974 V=100.0 PL=0
MOVS C00975 V=100.0 PL=0
MOVL C00976 V=100.0 PL=0
MOVL C00977 V=100.0 PL=0
MOVL C00978 V=100.0 PL=0
MOVS C00979 V=100.0 PL=0
MOVS C00980 V=100.0 PL=0
MOVS C00981 V=100.0 PL=0
MOVS C00982 V=100.0 PL=0
MOVS C00983 V=100.0 PL=0
MOVS C00984 V=100.0 PL=0
MOVS C00985 V=100.0 PL=0
MOVS C00986 V=100.0 PL=0
MOVL C00987 V=100.0 PL=0
MOVS C00988 V=100.0 PL=0
MOVS C00989 V=100.0 PL=0
MOVS C00990 V=100.0 PL=0
MOVL C00991 V=100.0 PL=0
MOVL C00992 V=100.0 PL=0
MOVS C00993 V=100.0 PL=0
MOVS C00994 V=100.0 PL=0
MOVS C00995 V=100.0 PL=0
MOVS C00996 V=100.0 PL=0
MOVL C00997 V=100.0 PL=0
MOVL C00998 V=100.0 PL=0
MOVS C00999 V=100.0 PL=0
MOVS C01000 V=100.0 PL=0
MOVS C01001 V=100.0 PL=0
MOVL C01002 V=100.0 PL=0
MOVL C01003 V=100.0 PL=0
MOVL C01004 V=100.0 PL=0
MOVS C01005 V=100.0 PL=0
MOVS C01006 V=100.0 PL=0
MOVS C01007 V=100.0 PL=0
MOVS C01008 V=100.0 PL=0
MOVS C01009 V=100.0 PL=0
MOVS C01010 V=100.0 PL=0
MOVS C01011 V=100.0 PL=0
MOVS C01012 V=100.0 PL=0
MOVL C01013 V=100.0 PL=0
MOVS C01014 V=100.0 PL=0
MOVS C01015 V=100.0 PL=0
MOVS C01016 V=100.0 PL=0
MOVL C01017 V=100.0 PL=0
MOVL C01018 V=100.0 PL=0
MOVL C01019 V=100.0 PL=0
MOVL C01020 V=100.0 PL=0
MOVL C01021 V=100.0 PL=0
MOVS C01022 V=100.0 PL=0
MOVS C01023 V=100.0 PL=0
MOVS C01024 V=100.0 PL=0
MOVL C01025 V=100.0 PL=0
MOVL C01026 V=100.0 PL=0
MOVL C01027 V=100.0 PL=0
MOVS C01028 V=100.0 PL=0
MOVS C01029 V=100.0 PL=0
MOVS C01030 V=100.0 PL=0
MOVL C01031 V=100.0 PL=0
MOVL C01032 V=100.0 PL=0
MOVL C01033 V=100.0 PL=0
MOVS C01034 V=100.0 PL=0
MOVS C01035 V=100.0 PL=0
MOVS C01036 V=100.0 PL=0
MOVS C01037 V=100.0 PL=0
MOVS C01038 V=100.0 PL=0
MOVS C01039 V=100.0 PL=0
MOVS C01040 V=100.0 PL=0
MOVS C01041 V=100.0 PL=0
MOVL C01042 V=100.0 PL=0
MOVS C01043 V=100.0 PL=0
MOVS C01044 V=100.0 PL=0
MOVS C01045 V=100.0 PL=0
MOVL C01046 V=100.0 PL=0
MOVL C01047 V=100.0 PL=0
MOVS C01048 V=100.0 PL=0
MOVS C01049 V=100.0 PL=0
MOVS C01050 V=100.0 PL=0
MOVS C01051 V=100.0 PL=0
MOVL C01052 V=100.0 PL=0
MOVL C01053 V=100.0 PL=0
MOVS C01054 V=100.0 PL=0
MOVS C01055 V=100.0 PL=0
MOVS C01056 V=100.0 PL=0
MOVL C01057 V=100.0 PL=0
MOVL C01058 V=100.0 PL=0
MOVL C01059 V=100.0 PL=0
MOVS C01060 V=100.0 PL=0
MOVS C01061 V=100.0 PL=0
MOVS C01062 V=100.0 PL=0
MOVS C01063 V=100.0 PL=0
MOVS C01064 V=100.0 PL=0
MOVS C01065 V=100.0 PL=0
MOVS C01066 V=100.0 PL=0
MOVS C01067 V=100.0 PL=0
MOVL C01068 V=100.0 PL=0
MOVS C01069 V=100.0 PL=0
MOVS C01070 V=100.0 PL=0
MOVS C01071 V=100.0 PL=0
MOVL C01072 V=100.0 PL=0
MOVL C01073 V=100.0 PL=0
MOVS C01074 V=100.0 PL=0
MOVS C01075 V=100.0 PL=0
MOVS C01076 V=100.0 PL=0
MOVS C01077 V=100.0 PL=0
MOVL C01078 V=100.0 PL=0
MOVL C01079 V=100.0 PL=0
MOVS C01080 V=100.0 PL=0
MOVS C01081 V=100.0 PL=0
MOVS C01082 V=100.0 PL=0
MOVL C01083 V=100.0 PL=0
MOVL C01084 V=100.0 PL=0
MOVL C01085 V=100.0 PL=0
MOVS C01086 V=100.0 PL=0
MOVS C01087 V=100.0 PL=0
MOVS C01088 V=100.0 PL=0
MOVS C01089 V=100.0 PL=0
MOVS C01090 V=100.0 PL=0
MOVS C01091 V=100.0 PL=0
MOVS C01092 V=100.0 PL=0
MOVS C01093 V=100.0 PL=0
MOVL C01094 V=100.0 PL=0
MOVS C01095 V=100.0 PL=0
MOVS C01096 V=100.0 PL=0
MOVS C01097 V=100.0 PL=0
MOVL C01098 V=100.0 PL=0
MOVL C01099 V=100.0 PL=0
MOVS C01100 V=100.0 PL=0
MOVS C01101 V=100.0 PL=0
MOVS C01102 V=100.0 PL=0
MOVS C01103 V=100.0 PL=0
MOVL C01104 V=100.0 PL=0
MOVL C01105 V=100.0 PL=0
MOVS C01106 V=100.0 PL=0
MOVS C01107 V=100.0 PL=0
MOVS C01108 V=100.0 PL=0
MOVL C01109 V=100.0 PL=0
MOVL C01110 V=100.0 PL=0
MOVL C01111 V=100.0 PL=0
MOVS C01112 V=100.0 PL=0
MOVS C01113 V=100.0 PL=0
MOVS C01114 V=100.0 PL=0
MOVS C01115 V=100.0 PL=0
MOVS C01116 V=100.0 PL=0
MOVS C01117 V=100.0 PL=0
MOVS C01118 V=100.0 PL=0
MOVS C01119 V=100.0 PL=0
MOVL C01120 V=100.0 PL=0
MOVS C01121 V=100.0 PL=0
MOVS C01122 V=100.0 PL=0
MOVS C01123 V=100.0 PL=0
MOVL C01124 V=100.0 PL=0
MOVL C01125 V=100.0 PL=0
MOVS C01126 V=100.0 PL=0
MOVS C01127 V=100.0 PL=0
MOVS C01128 V=100.0 PL=0
MOVS C01129 V=100.0 PL=0
MOVL C01130 V=100.0 PL=0
MOVL C01131 V=100.0 PL=0
MOVS C01132 V=100.0 PL=0
MOVS C01133 V=100.0 PL=0
MOVS C01134 V=100.0 PL=0
MOVL C01135 V=100.0 PL=0
MOVL C01136 V=100.0 PL=0
MOVL C01137 V=100.0 PL=0
MOVS C01138 V=100.0 PL=0
MOVS C01139 V=100.0 PL=0
MOVS C01140 V=100.0 PL=0
MOVS C01141 V=100.0 PL=0
MOVS C01142 V=100.0 PL=0
MOVS C01143 V=100.0 PL=0
MOVS C01144 V=100.0 PL=0
MOVS C01145 V=100.0 PL=0
MOVL C01146 V=100.0 PL=0
MOVS C01147 V=100.0 PL=0
MOVS C01148 V=100.0 PL=0
MOVS C01149 V=100.0 PL=0
MOVL C01150 V=100.0 PL=0
MOVL C01151 V=100.0 PL=0
MOVS C01152 V=100.0 PL=0
MOVS C01153 V=100.0 PL=0
MOVS C01154 V=100.0 PL=0
MOVS C01155 V=100.0 PL=0
MOVL C01156 V=100.0 PL=0
MOVL C01157 V=100.0 PL=0
MOVS C01158 V=100.0 PL=0
MOVS C01159 V=100.0 PL=0
MOVS C01160 V=100.0 PL=0
MOVL C01161 V=100.0 PL=0
MOVL C01162 V=100.0 PL=0
MOVL C01163 V=100.0 PL=0
MOVS C01164 V=100.0 PL=0
MOVS C01165 V=100.0 PL=0
MOVS C01166 V=100.0 PL=0
MOVS C01167 V=100.0 PL=0
MOVS C01168 V=100.0 PL=0
MOVS C01169 V=100.0 PL=0
MOVS C01170 V=100.0 PL=0
MOVS C01171 V=100.0 PL=0
MOVL C01172 V=100.0 PL=0
MOVS C01173 V=100.0 PL=0
MOVS C01174 V=100.0 PL=0
MOVS C01175 V=100.0 PL=0
MOVL C01176 V=100.0 PL=0
MOVL C01177 V=100.0 PL=0
MOVS C01178 V=100.0 PL=0
MOVS C01179 V=100.0 PL=0
MOVS C01180 V=100.0 PL=0
MOVS C01181 V=100.0 PL=0
MOVL C01182 V=100.0 PL=0
MOVL C01183 V=100.0 PL=0
MOVS C01184 V=100.0 PL=0
MOVS C01185 V=100.0 PL=0
MOVS C01186 V=100.0 PL=0
MOVL C01187 V=100.0 PL=0
MOVL C01188 V=100.0 PL=0
MOVL C01189 V=100.0 PL=0
MOVS C01190 V=100.0 PL=0
MOVS C01191 V=100.0 PL=0
MOVS C01192 V=100.0 PL=0
MOVS C01193 V=100.0 PL=0
MOVS C01194 V=100.0 PL=0
MOVS C01195 V=100.0 PL=0
MOVS C01196 V=100.0 PL=0
MOVS C01197 V=100.0 PL=0
MOVL C01198 V=100.0 PL=0
MOVS C01199 V=100.0 PL=0
MOVS C01200 V=100.0 PL=0
MOVS C01201 V=100.0 PL=0
MOVL C01202 V=100.0 PL=0
MOVL C01203 V=100.0 PL=0
MOVS C01204 V=100.0 PL=0
MOVS C01205 V=100.0 PL=0
MOVS C01206 V=100.0 PL=0
MOVS C01207 V=100.0 PL=0
MOVL C01208 V=100.0 PL=0
MOVL C01209 V=100.0 PL=0
MOVS C01210 V=100.0 PL=0
MOVS C01211 V=100.0 PL=0
MOVS C01212 V=100.0 PL=0
MOVL C01213 V=100.0 PL=0
MOVL C01214 V=100.0 PL=0
MOVL C01215 V=100.0 PL=0
MOVS C01216 V=100.0 PL=0
