/JOB
//NAME output
//POS
///NPOS 1745,0,0,0,0,0
///TOOL 10
///POSTYPE PULSE
///PULSE
///TOOL 10
///POSTYPE BASE
///RECTAN
///RCONF 0,0,0,0,0,0,0,0
C00000=500.000,500.000,500.000,-180.00,0.00,0.00
C00001=921.002,1000.001,1.200,-180.00,0.00,0.00
C00002=921.465,1008.539,1.200,-180.00,0.00,0.00
C00003=922.849,1016.981,1.200,-180.00,0.00,0.00
C00004=925.134,1025.210,1.200,-180.00,0.00,0.00
C00005=928.303,1033.169,1.200,-180.00,0.00,0.00
C00006=932.309,1040.726,1.200,-180.00,0.00,0.00
C00007=937.109,1047.806,1.200,-180.00,0.00,0.00
C00008=942.648,1054.326,1.200,-180.00,0.00,0.00
C00009=948.858,1060.208,1.200,-180.00,0.00,0.00
C00010=955.670,1065.386,1.200,-180.00,0.00,0.00
C00011=962.997,1069.795,1.200,-180.00,0.00,0.00
C00012=970.762,1073.387,1.200,-180.00,0.00,0.00
C00013=978.864,1076.118,1.200,-180.00,0.00,0.00
C00014=987.220,1077.957,1.200,-180.00,0.00,0.00
C00015=995.725,1078.883,1.200,-180.00,0.00,0.00
C00016=1004.275,1078.883,1.200,-180.00,0.00,0.00
C00017=1012.780,1077.957,1.200,-180.00,0.00,0.00
C00018=1021.136,1076.118,1.200,-180.00,0.00,0.00
C00019=1029.238,1073.387,1.200,-180.00,0.00,0.00
C00020=1037.003,1069.795,1.200,-180.00,0.00,0.00
C00021=1044.330,1065.386,1.200,-180.00,0.00,0.00
C00022=1051.142,1060.208,1.200,-180.00,0.00,0.00
C00023=1057.352,1054.326,1.200,-180.00,0.00,0.00
C00024=1062.891,1047.806,1.200,-180.00,0.00,0.00
C00025=1067.691,1040.726,1.200,-180.00,0.00,0.00
C00026=1071.697,1033.169,1.200,-180.00,0.00,0.00
C00027=1074.868,1025.210,1.200,-180.00,0.00,0.00
C00028=1077.151,1016.981,1.200,-180.00,0.00,0.00
C00029=1078.535,1008.539,1.200,-180.00,0.00,0.00
C00030=1078.998,999.998,1.200,-180.00,0.00,0.00
C00031=1078.535,991.459,1.200,-180.00,0.00,0.00
C00032=1077.151,983.017,1.200,-180.00,0.00,0.00
C00033=1074.866,974.790,1.200,-180.00,0.00,0.00
C00034=1071.697,966.831,1.200,-180.00,0.00,0.00
C00035=1067.689,959.272,1.200,-180.00,0.00,0.00
C00036=1062.889,952.192,1.200,-180.00,0.00,0.00
C00037=1057.352,945.674,1.200,-180.00,0.00,0.00
C00038=1051.140,939.790,1.200,-180.00,0.00,0.00
C00039=1044.331,934.614,1.200,-180.00,0.00,0.00
C00040=1037.003,930.205,1.200,-180.00,0.00,0.00
C00041=1029.238,926.613,1.200,-180.00,0.00,0.00
C00042=1021.136,923.882,1.200,-180.00,0.00,0.00
C00043=1012.780,922.043,1.200,-180.00,0.00,0.00
C00044=1004.275,921.118,1.200,-180.00,0.00,0.00
C00045=995.725,921.118,1.200,-180.00,0.00,0.00
C00046=987.220,922.043,1.200,-180.00,0.00,0.00
C00047=978.864,923.882,1.200,-180.00,0.00,0.00
C00048=970.762,926.613,1.200,-180.00,0.00,0.00
C00049=962.997,930.205,1.200,-180.00,0.00,0.00
C00050=955.670,934.614,1.200,-180.00,0.00,0.00
C00051=948.858,939.792,1.200,-180.00,0.00,0.00
C00052=942.648,945.674,1.200,-180.00,0.00,0.00
C00053=937.109,952.194,1.200,-180.00,0.00,0.00
C00054=932.309,959.274,1.200,-180.00,0.00,0.00
C00055=928.303,966.831,1.200,-180.00,0.00,0.00
C00056=925.132,974.790,1.200,-180.00,0.00,0.00
C00057=922.849,983.019,1.200,-180.00,0.00,0.00
C00058=921.465,991.461,1.200,-180.00,0.00,0.00
C00059=921.002,1000.001,1.200,-180.00,0.00,0.00
C00060=921.049,1000.874,1.200,-180.00,0.00,0.00
C00061=923.770,1000.727,1.200,-180.00,0.00,0.00
C00062=923.731,1000.000,1.200,-180.00,0.00,0.00
C00063=922.905,1000.002,1.200,-180.00,0.00,0.00
C00064=923.357,1008.331,1.200,-180.00,0.00,0.00
C00065=924.708,1016.572,1.200,-180.00,0.00,0.00
C00066=926.938,1024.602,1.200,-180.00,0.00,0.00
C00067=930.030,1032.369,1.200,-180.00,0.00,0.00
C00068=933.939,1039.744,1.200,-180.00,0.00,0.00
C00069=938.622,1046.653,1.200,-180.00,0.00,0.00
C00070=944.029,1053.016,1.200,-180.00,0.00,0.00
C00071=950.090,1058.756,1.200,-180.00,0.00,0.00
C00072=956.740,1063.811,1.200,-180.00,0.00,0.00
C00073=963.889,1068.112,1.200,-180.00,0.00,0.00
C00074=971.469,1071.619,1.200,-180.00,0.00,0.00
C00075=979.372,1074.283,1.200,-180.00,0.00,0.00
C00076=987.529,1076.079,1.200,-180.00,0.00,0.00
C00077=995.830,1076.983,1.200,-180.00,0.00,0.00
C00078=1004.170,1076.983,1.200,-180.00,0.00,0.00
C00079=1012.471,1076.079,1.200,-180.00,0.00,0.00
C00080=1020.628,1074.283,1.200,-180.00,0.00,0.00
C00081=1028.531,1071.619,1.200,-180.00,0.00,0.00
C00082=1036.111,1068.112,1.200,-180.00,0.00,0.00
C00083=1043.259,1063.811,1.200,-180.00,0.00,0.00
C00084=1049.910,1058.756,1.200,-180.00,0.00,0.00
C00085=1055.971,1053.016,1.200,-180.00,0.00,0.00
C00086=1061.378,1046.653,1.200,-180.00,0.00,0.00
C00087=1066.061,1039.744,1.200,-180.00,0.00,0.00
C00088=1069.970,1032.369,1.200,-180.00,0.00,0.00
C00089=1073.070,1024.588,1.200,-180.00,0.00,0.00
C00090=1075.292,1016.571,1.200,-180.00,0.00,0.00
C00091=1076.643,1008.331,1.200,-180.00,0.00,0.00
C00092=1077.095,999.997,1.200,-180.00,0.00,0.00
C00093=1076.643,991.665,1.200,-180.00,0.00,0.00
C00094=1075.292,983.425,1.200,-180.00,0.00,0.00
C00095=1073.066,975.412,1.200,-180.00,0.00,0.00
C00096=1069.969,967.631,1.200,-180.00,0.00,0.00
C00097=1066.057,960.252,1.200,-180.00,0.00,0.00
C00098=1061.375,953.345,1.200,-180.00,0.00,0.00
C00099=1055.971,946.983,1.200,-180.00,0.00,0.00
C00100=1049.906,941.240,1.200,-180.00,0.00,0.00
C00101=1043.261,936.189,1.200,-180.00,0.00,0.00
C00102=1036.111,931.888,1.200,-180.00,0.00,0.00
C00103=1028.531,928.381,1.200,-180.00,0.00,0.00
C00104=1020.628,925.717,1.200,-180.00,0.00,0.00
C00105=1012.471,923.921,1.200,-180.00,0.00,0.00
C00106=1004.170,923.019,1.200,-180.00,0.00,0.00
C00107=995.830,923.018,1.200,-180.00,0.00,0.00
C00108=987.529,923.921,1.200,-180.00,0.00,0.00
C00109=979.372,925.717,1.200,-180.00,0.00,0.00
C00110=971.469,928.381,1.200,-180.00,0.00,0.00
C00111=963.889,931.888,1.200,-180.00,0.00,0.00
C00112=956.740,936.189,1.200,-180.00,0.00,0.00
C00113=950.090,941.244,1.200,-180.00,0.00,0.00
C00114=944.029,946.984,1.200,-180.00,0.00,0.00
C00115=938.622,953.347,1.200,-180.00,0.00,0.00
C00116=933.939,960.256,1.200,-180.00,0.00,0.00
C00117=930.030,967.631,1.200,-180.00,0.00,0.00
C00118=926.930,975.412,1.200,-180.00,0.00,0.00
C00119=924.708,983.429,1.200,-180.00,0.00,0.00
C00120=923.357,991.669,1.200,-180.00,0.00,0.00
C00121=922.905,1000.002,1.200,-180.00,0.00,0.00
C00122=923.731,1000.000,1.200,-180.00,0.00,0.00
C00123=944.243,1051.723,1.200,-180.00,0.00,0.00
C00124=946.465,1053.945,1.200,-180.00,0.00,0.00
C00125=959.881,1064.533,1.200,-180.00,0.00,0.00
C00126=935.263,1039.915,1.200,-180.00,0.00,0.00
C00127=934.910,1039.562,1.200,-180.00,0.00,0.00
C00128=931.857,1033.681,1.200,-180.00,0.00,0.00
C00129=966.302,1068.125,1.200,-180.00,0.00,0.00
C00130=966.655,1068.478,1.200,-180.00,0.00,0.00
C00131=971.565,1070.560,1.200,-180.00,0.00,0.00
C00132=929.606,1028.601,1.200,-180.00,0.00,0.00
C00133=929.253,1028.248,1.200,-180.00,0.00,0.00
C00134=929.272,1028.241,1.200,-180.00,0.00,0.00
C00135=927.799,1023.966,1.200,-180.00,0.00,0.00
C00136=975.884,1072.051,1.200,-180.00,0.00,0.00
C00137=976.237,1072.404,1.200,-180.00,0.00,0.00
C00138=976.250,1072.364,1.200,-180.00,0.00,0.00
C00139=980.074,1073.412,1.200,-180.00,0.00,0.00
C00140=926.711,1020.049,1.200,-180.00,0.00,0.00
C00141=926.358,1019.696,1.200,-180.00,0.00,0.00
C00142=926.425,1019.679,1.200,-180.00,0.00,0.00
C00143=925.653,1016.163,1.200,-180.00,0.00,0.00
C00144=983.702,1074.211,1.200,-180.00,0.00,0.00
C00145=987.329,1075.010,1.200,-180.00,0.00,0.00
C00146=925.099,1012.780,1.200,-180.00,0.00,0.00
C00147=924.544,1009.397,1.200,-180.00,0.00,0.00
C00148=990.548,1075.401,1.200,-180.00,0.00,0.00
C00149=993.722,1075.746,1.200,-180.00,0.00,0.00
C00150=924.246,1006.270,1.200,-180.00,0.00,0.00
C00151=924.083,1003.279,1.200,-180.00,0.00,0.00
C00152=996.786,1075.982,1.200,-180.00,0.00,0.00
C00153=999.614,1075.982,1.200,-180.00,0.00,0.00
C00154=923.921,1000.289,1.200,-180.00,0.00,0.00
C00155=924.037,997.576,1.200,-180.00,0.00,0.00
C00156=1002.443,1075.982,1.200,-180.00,0.00,0.00
C00157=1005.157,1075.868,1.200,-180.00,0.00,0.00
C00158=924.183,994.894,1.200,-180.00,0.00,0.00
C00159=924.329,992.211,1.200,-180.00,0.00,0.00
C00160=1007.708,1075.590,1.200,-180.00,0.00,0.00
C00161=1010.258,1075.312,1.200,-180.00,0.00,0.00
C00162=924.686,989.740,1.200,-180.00,0.00,0.00
C00163=925.085,987.310,1.200,-180.00,0.00,0.00
C00164=1012.764,1074.989,1.200,-180.00,0.00,0.00
C00165=1015.082,1074.479,1.200,-180.00,0.00,0.00
C00166=925.483,984.880,1.200,-180.00,0.00,0.00
C00167=925.987,982.555,1.200,-180.00,0.00,0.00
C00168=1017.399,1073.968,1.200,-180.00,0.00,0.00
C00169=1019.717,1073.457,1.200,-180.00,0.00,0.00
C00170=926.601,980.341,1.200,-180.00,0.00,0.00
C00171=927.214,978.126,1.200,-180.00,0.00,0.00
C00172=1021.889,1072.801,1.200,-180.00,0.00,0.00
C00173=1024.005,1072.088,1.200,-180.00,0.00,0.00
C00174=927.828,975.911,1.200,-180.00,0.00,0.00
C00175=928.618,973.873,1.200,-180.00,0.00,0.00
C00176=1026.120,1071.375,1.200,-180.00,0.00,0.00
C00177=1028.229,1070.655,1.200,-180.00,0.00,0.00
C00178=929.424,971.850,1.200,-180.00,0.00,0.00
C00179=930.229,969.827,1.200,-180.00,0.00,0.00
C00180=1030.163,1069.761,1.200,-180.00,0.00,0.00
C00181=1032.096,1068.865,1.200,-180.00,0.00,0.00
C00182=931.056,967.826,1.200,-180.00,0.00,0.00
C00183=932.036,965.977,1.200,-180.00,0.00,0.00
C00184=1034.030,1067.971,1.200,-180.00,0.00,0.00
C00185=1035.936,1067.048,1.200,-180.00,0.00,0.00
C00186=933.015,964.128,1.200,-180.00,0.00,0.00
C00187=933.995,962.280,1.200,-180.00,0.00,0.00
C00188=1037.702,1065.986,1.200,-180.00,0.00,0.00
C00189=1039.468,1064.923,1.200,-180.00,0.00,0.00
C00190=935.005,960.461,1.200,-180.00,0.00,0.00
C00191=936.148,958.775,1.200,-180.00,0.00,0.00
C00192=1041.233,1063.861,1.200,-180.00,0.00,0.00
C00193=1042.972,1062.771,1.200,-180.00,0.00,0.00
C00194=937.291,957.090,1.200,-180.00,0.00,0.00
C00195=938.433,955.404,1.200,-180.00,0.00,0.00
C00196=1044.579,1061.550,1.200,-180.00,0.00,0.00
C00197=1046.186,1060.329,1.200,-180.00,0.00,0.00
C00198=939.598,953.740,1.200,-180.00,0.00,0.00
C00199=940.898,952.211,1.200,-180.00,0.00,0.00
C00200=1047.793,1059.107,1.200,-180.00,0.00,0.00
C00201=1049.387,1057.872,1.200,-180.00,0.00,0.00
C00202=942.197,950.682,1.200,-180.00,0.00,0.00
C00203=943.496,949.153,1.200,-180.00,0.00,0.00
C00204=1050.839,1056.496,1.200,-180.00,0.00,0.00
C00205=1052.292,1055.121,1.200,-180.00,0.00,0.00
C00206=944.801,947.629,1.200,-180.00,0.00,0.00
C00207=946.254,946.254,1.200,-180.00,0.00,0.00
C00208=1053.745,1053.745,1.200,-180.00,0.00,0.00
C00209=1055.197,1052.369,1.200,-180.00,0.00,0.00
C00210=947.706,944.878,1.200,-180.00,0.00,0.00
C00211=949.159,943.502,1.200,-180.00,0.00,0.00
C00212=1056.502,1050.845,1.200,-180.00,0.00,0.00
C00213=1057.801,1049.316,1.200,-180.00,0.00,0.00
C00214=950.612,942.127,1.200,-180.00,0.00,0.00
C00215=952.205,940.891,1.200,-180.00,0.00,0.00
C00216=1059.101,1047.787,1.200,-180.00,0.00,0.00
C00217=1060.401,1046.259,1.200,-180.00,0.00,0.00
C00218=953.812,939.670,1.200,-180.00,0.00,0.00
C00219=955.419,938.448,1.200,-180.00,0.00,0.00
C00220=1061.565,1044.595,1.200,-180.00,0.00,0.00
C00221=1062.707,1042.908,1.200,-180.00,0.00,0.00
C00222=957.026,937.227,1.200,-180.00,0.00,0.00
C00223=958.765,936.137,1.200,-180.00,0.00,0.00
C00224=1063.850,1041.223,1.200,-180.00,0.00,0.00
C00225=1064.993,1039.537,1.200,-180.00,0.00,0.00
C00226=960.531,935.075,1.200,-180.00,0.00,0.00
C00227=962.297,934.012,1.200,-180.00,0.00,0.00
C00228=1066.002,1037.718,1.200,-180.00,0.00,0.00
C00229=1066.982,1035.870,1.200,-180.00,0.00,0.00
C00230=964.063,932.950,1.200,-180.00,0.00,0.00
C00231=965.969,932.028,1.200,-180.00,0.00,0.00
C00232=1067.962,1034.021,1.200,-180.00,0.00,0.00
C00233=1068.942,1032.172,1.200,-180.00,0.00,0.00
C00234=967.902,931.132,1.200,-180.00,0.00,0.00
C00235=969.836,930.238,1.200,-180.00,0.00,0.00
C00236=1069.768,1030.170,1.200,-180.00,0.00,0.00
C00237=1070.575,1028.148,1.200,-180.00,0.00,0.00
C00238=971.769,929.343,1.200,-180.00,0.00,0.00
C00239=973.878,928.624,1.200,-180.00,0.00,0.00
C00240=1071.381,1026.126,1.200,-180.00,0.00,0.00
C00241=1072.171,1024.087,1.200,-180.00,0.00,0.00
C00242=975.994,927.911,1.200,-180.00,0.00,0.00
C00243=978.109,927.197,1.200,-180.00,0.00,0.00
C00244=1072.784,1021.873,1.200,-180.00,0.00,0.00
C00245=1073.398,1019.658,1.200,-180.00,0.00,0.00
C00246=980.281,926.540,1.200,-180.00,0.00,0.00
C00247=982.598,926.030,1.200,-180.00,0.00,0.00
C00248=1074.012,1017.443,1.200,-180.00,0.00,0.00
C00249=1074.516,1015.119,1.200,-180.00,0.00,0.00
C00250=984.916,925.519,1.200,-180.00,0.00,0.00
C00251=987.234,925.009,1.200,-180.00,0.00,0.00
C00252=1074.914,1012.689,1.200,-180.00,0.00,0.00
C00253=1075.312,1010.258,1.200,-180.00,0.00,0.00
C00254=989.740,924.686,1.200,-180.00,0.00,0.00
C00255=992.291,924.409,1.200,-180.00,0.00,0.00
C00256=1075.669,1007.787,1.200,-180.00,0.00,0.00
C00257=1075.815,1005.104,1.200,-180.00,0.00,0.00
C00258=994.842,924.131,1.200,-180.00,0.00,0.00
C00259=997.557,924.018,1.200,-180.00,0.00,0.00
C00260=1075.961,1002.422,1.200,-180.00,0.00,0.00
C00261=1076.077,999.710,1.200,-180.00,0.00,0.00
C00262=1000.386,924.018,1.200,-180.00,0.00,0.00
C00263=1003.214,924.018,1.200,-180.00,0.00,0.00
C00264=1075.915,996.719,1.200,-180.00,0.00,0.00
C00265=1075.752,993.728,1.200,-180.00,0.00,0.00
C00266=1006.278,924.254,1.200,-180.00,0.00,0.00
C00267=1009.451,924.598,1.200,-180.00,0.00,0.00
C00268=1075.454,990.601,1.200,-180.00,0.00,0.00
C00269=1074.899,987.218,1.200,-180.00,0.00,0.00
C00270=1012.670,924.988,1.200,-180.00,0.00,0.00
C00271=1016.296,925.787,1.200,-180.00,0.00,0.00
C00272=1074.346,983.836,1.200,-180.00,0.00,0.00
C00273=1074.699,984.189,1.200,-180.00,0.00,0.00
C00274=1074.586,984.207,1.200,-180.00,0.00,0.00
C00275=1073.288,979.950,1.200,-180.00,0.00,0.00
C00276=1019.924,926.586,1.200,-180.00,0.00,0.00
C00277=1019.571,926.233,1.200,-180.00,0.00,0.00
C00278=1019.551,926.321,1.200,-180.00,0.00,0.00
C00279=1024.114,927.948,1.200,-180.00,0.00,0.00
C00280=1072.200,976.034,1.200,-180.00,0.00,0.00
C00281=1072.553,976.387,1.200,-180.00,0.00,0.00
C00282=1072.487,976.404,1.200,-180.00,0.00,0.00
C00283=1070.391,971.396,1.200,-180.00,0.00,0.00
C00284=1028.433,929.438,1.200,-180.00,0.00,0.00
C00285=1028.080,929.085,1.200,-180.00,0.00,0.00
C00286=1028.077,929.094,1.200,-180.00,0.00,0.00
C00287=1033.696,931.873,1.200,-180.00,0.00,0.00
C00288=1068.140,966.317,1.200,-180.00,0.00,0.00
C00289=1068.493,966.670,1.200,-180.00,0.00,0.00
C00290=1064.731,960.079,1.200,-180.00,0.00,0.00
C00291=1040.117,935.466,1.200,-180.00,0.00,0.00
C00292=1039.764,935.113,1.200,-180.00,0.00,0.00
C00293=1053.533,946.052,1.200,-180.00,0.00,0.00
C00294=1055.754,948.273,1.200,-180.00,0.00,0.00
C00295=1054.440,949.387,1.200,-180.00,0.00,0.00
C00296=1054.440,949.387,2.400,-180.00,0.00,0.00
C00297=931.017,1000.001,2.400,-180.00,0.00,0.00
C00298=931.421,1007.457,2.400,-180.00,0.00,0.00
C00299=932.629,1014.828,2.400,-180.00,0.00,0.00
C00300=934.624,1022.013,2.400,-180.00,0.00,0.00
C00301=937.393,1028.965,2.400,-180.00,0.00,0.00
C00302=940.890,1035.564,2.400,-180.00,0.00,0.00
C00303=945.081,1041.745,2.400,-180.00,0.00,0.00
C00304=949.918,1047.438,2.400,-180.00,0.00,0.00
C00305=955.341,1052.575,2.400,-180.00,0.00,0.00
C00306=961.290,1057.096,2.400,-180.00,0.00,0.00
C00307=967.688,1060.947,2.400,-180.00,0.00,0.00
C00308=974.469,1064.084,2.400,-180.00,0.00,0.00
C00309=981.544,1066.468,2.400,-180.00,0.00,0.00
C00310=988.840,1068.075,2.400,-180.00,0.00,0.00
C00311=996.267,1068.883,2.400,-180.00,0.00,0.00
C00312=1003.733,1068.883,2.400,-180.00,0.00,0.00
C00313=1011.160,1068.075,2.400,-180.00,0.00,0.00
C00314=1018.456,1066.468,2.400,-180.00,0.00,0.00
C00315=1025.531,1064.084,2.400,-180.00,0.00,0.00
C00316=1032.312,1060.947,2.400,-180.00,0.00,0.00
C00317=1038.710,1057.097,2.400,-180.00,0.00,0.00
C00318=1044.659,1052.575,2.400,-180.00,0.00,0.00
C00319=1050.082,1047.438,2.400,-180.00,0.00,0.00
C00320=1054.919,1041.745,2.400,-180.00,0.00,0.00
C00321=1059.110,1035.564,2.400,-180.00,0.00,0.00
C00322=1062.607,1028.964,2.400,-180.00,0.00,0.00
C00323=1065.378,1022.013,2.400,-180.00,0.00,0.00
C00324=1067.370,1014.830,2.400,-180.00,0.00,0.00
C00325=1068.579,1007.457,2.400,-180.00,0.00,0.00
C00326=1068.983,999.998,2.400,-180.00,0.00,0.00
C00327=1068.579,992.541,2.400,-180.00,0.00,0.00
C00328=1067.371,985.170,2.400,-180.00,0.00,0.00
C00329=1065.376,977.988,2.400,-180.00,0.00,0.00
C00330=1062.607,971.035,2.400,-180.00,0.00,0.00
C00331=1059.108,964.435,2.400,-180.00,0.00,0.00
C00332=1054.917,958.252,2.400,-180.00,0.00,0.00
C00333=1050.082,952.562,2.400,-180.00,0.00,0.00
C00334=1044.657,947.423,2.400,-180.00,0.00,0.00
C00335=1038.711,942.904,2.400,-180.00,0.00,0.00
C00336=1032.312,939.054,2.400,-180.00,0.00,0.00
C00337=1025.531,935.916,2.400,-180.00,0.00,0.00
C00338=1018.456,933.532,2.400,-180.00,0.00,0.00
C00339=1011.160,931.926,2.400,-180.00,0.00,0.00
C00340=1003.733,931.118,2.400,-180.00,0.00,0.00
C00341=996.267,931.118,2.400,-180.00,0.00,0.00
C00342=988.840,931.926,2.400,-180.00,0.00,0.00
C00343=981.544,933.532,2.400,-180.00,0.00,0.00
C00344=974.469,935.916,2.400,-180.00,0.00,0.00
C00345=967.688,939.053,2.400,-180.00,0.00,0.00
C00346=961.290,942.903,2.400,-180.00,0.00,0.00
C00347=955.341,947.425,2.400,-180.00,0.00,0.00
C00348=949.918,952.562,2.400,-180.00,0.00,0.00
C00349=945.081,958.255,2.400,-180.00,0.00,0.00
C00350=940.890,964.436,2.400,-180.00,0.00,0.00
C00351=937.393,971.036,2.400,-180.00,0.00,0.00
C00352=934.622,977.987,2.400,-180.00,0.00,0.00
C00353=932.629,985.170,2.400,-180.00,0.00,0.00
C00354=931.421,992.543,2.400,-180.00,0.00,0.00
C00355=931.017,1000.001,2.400,-180.00,0.00,0.00
C00356=929.014,1000.001,2.400,-180.00,0.00,0.00
C00357=929.430,1007.673,2.400,-180.00,0.00,0.00
C00358=930.673,1015.259,2.400,-180.00,0.00,0.00
C00359=932.726,1022.652,2.400,-180.00,0.00,0.00
C00360=935.575,1029.806,2.400,-180.00,0.00,0.00
C00361=939.174,1036.596,2.400,-180.00,0.00,0.00
C00362=943.487,1042.958,2.400,-180.00,0.00,0.00
C00363=948.464,1048.816,2.400,-180.00,0.00,0.00
C00364=954.044,1054.102,2.400,-180.00,0.00,0.00
C00365=960.166,1058.754,2.400,-180.00,0.00,0.00
C00366=966.750,1062.716,2.400,-180.00,0.00,0.00
C00367=973.728,1065.944,2.400,-180.00,0.00,0.00
C00368=981.008,1068.398,2.400,-180.00,0.00,0.00
C00369=988.516,1070.051,2.400,-180.00,0.00,0.00
C00370=996.159,1070.883,2.400,-180.00,0.00,0.00
C00371=1003.841,1070.883,2.400,-180.00,0.00,0.00
C00372=1011.484,1070.051,2.400,-180.00,0.00,0.00
C00373=1018.992,1068.398,2.400,-180.00,0.00,0.00
C00374=1026.272,1065.944,2.400,-180.00,0.00,0.00
C00375=1033.250,1062.716,2.400,-180.00,0.00,0.00
C00376=1039.834,1058.754,2.400,-180.00,0.00,0.00
C00377=1045.956,1054.102,2.400,-180.00,0.00,0.00
C00378=1051.536,1048.816,2.400,-180.00,0.00,0.00
C00379=1056.513,1042.958,2.400,-180.00,0.00,0.00
C00380=1060.826,1036.596,2.400,-180.00,0.00,0.00
C00381=1064.425,1029.805,2.400,-180.00,0.00,0.00
C00382=1067.276,1022.652,2.400,-180.00,0.00,0.00
C00383=1069.327,1015.260,2.400,-180.00,0.00,0.00
C00384=1070.570,1007.673,2.400,-180.00,0.00,0.00
C00385=1070.986,999.998,2.400,-180.00,0.00,0.00
C00386=1070.570,992.325,2.400,-180.00,0.00,0.00
C00387=1069.327,984.739,2.400,-180.00,0.00,0.00
C00388=1067.274,977.348,2.400,-180.00,0.00,0.00
C00389=1064.425,970.194,2.400,-180.00,0.00,0.00
C00390=1060.824,963.402,2.400,-180.00,0.00,0.00
C00391=1056.511,957.040,2.400,-180.00,0.00,0.00
C00392=1051.536,951.184,2.400,-180.00,0.00,0.00
C00393=1045.954,945.896,2.400,-180.00,0.00,0.00
C00394=1039.835,941.246,2.400,-180.00,0.00,0.00
C00395=1033.251,937.284,2.400,-180.00,0.00,0.00
C00396=1026.272,934.056,2.400,-180.00,0.00,0.00
C00397=1018.992,931.602,2.400,-180.00,0.00,0.00
C00398=1011.484,929.949,2.400,-180.00,0.00,0.00
C00399=1003.841,929.118,2.400,-180.00,0.00,0.00
C00400=996.159,929.118,2.400,-180.00,0.00,0.00
C00401=988.516,929.949,2.400,-180.00,0.00,0.00
C00402=981.008,931.602,2.400,-180.00,0.00,0.00
C00403=973.728,934.056,2.400,-180.00,0.00,0.00
C00404=966.750,937.284,2.400,-180.00,0.00,0.00
C00405=960.166,941.246,2.400,-180.00,0.00,0.00
C00406=954.044,945.898,2.400,-180.00,0.00,0.00
C00407=948.464,951.184,2.400,-180.00,0.00,0.00
C00408=943.487,957.042,2.400,-180.00,0.00,0.00
C00409=939.174,963.404,2.400,-180.00,0.00,0.00
C00410=935.575,970.195,2.400,-180.00,0.00,0.00
C00411=932.724,977.348,2.400,-180.00,0.00,0.00
C00412=930.673,984.740,2.400,-180.00,0.00,0.00
C00413=929.430,992.327,2.400,-180.00,0.00,0.00
C00414=929.014,1000.001,2.400,-180.00,0.00,0.00
C00415=927.011,1000.001,2.400,-180.00,0.00,0.00
C00416=927.439,1007.890,2.400,-180.00,0.00,0.00
C00417=928.717,1015.690,2.400,-180.00,0.00,0.00
C00418=930.828,1023.292,2.400,-180.00,0.00,0.00
C00419=933.757,1030.647,2.400,-180.00,0.00,0.00
C00420=937.458,1037.629,2.400,-180.00,0.00,0.00
C00421=941.892,1044.170,2.400,-180.00,0.00,0.00
C00422=947.010,1050.193,2.400,-180.00,0.00,0.00
C00423=952.748,1055.628,2.400,-180.00,0.00,0.00
C00424=959.042,1060.412,2.400,-180.00,0.00,0.00
C00425=965.811,1064.486,2.400,-180.00,0.00,0.00
C00426=972.986,1067.805,2.400,-180.00,0.00,0.00
C00427=980.472,1070.328,2.400,-180.00,0.00,0.00
C00428=988.192,1072.028,2.400,-180.00,0.00,0.00
C00429=996.050,1072.883,2.400,-180.00,0.00,0.00
C00430=1003.950,1072.883,2.400,-180.00,0.00,0.00
C00431=1011.808,1072.028,2.400,-180.00,0.00,0.00
C00432=1019.528,1070.328,2.400,-180.00,0.00,0.00
C00433=1027.014,1067.805,2.400,-180.00,0.00,0.00
C00434=1034.189,1064.486,2.400,-180.00,0.00,0.00
C00435=1040.958,1060.412,2.400,-180.00,0.00,0.00
C00436=1047.252,1055.628,2.400,-180.00,0.00,0.00
C00437=1052.990,1050.193,2.400,-180.00,0.00,0.00
C00438=1058.108,1044.170,2.400,-180.00,0.00,0.00
C00439=1062.542,1037.629,2.400,-180.00,0.00,0.00
C00440=1066.243,1030.646,2.400,-180.00,0.00,0.00
C00441=1069.174,1023.291,2.400,-180.00,0.00,0.00
C00442=1071.283,1015.690,2.400,-180.00,0.00,0.00
C00443=1072.561,1007.890,2.400,-180.00,0.00,0.00
C00444=1072.989,999.998,2.400,-180.00,0.00,0.00
C00445=1072.561,992.108,2.400,-180.00,0.00,0.00
C00446=1071.283,984.309,2.400,-180.00,0.00,0.00
C00447=1069.172,976.709,2.400,-180.00,0.00,0.00
C00448=1066.243,969.353,2.400,-180.00,0.00,0.00
C00449=1062.541,962.370,2.400,-180.00,0.00,0.00
C00450=1058.106,955.828,2.400,-180.00,0.00,0.00
C00451=1052.990,949.807,2.400,-180.00,0.00,0.00
C00452=1047.250,944.370,2.400,-180.00,0.00,0.00
C00453=1040.959,939.588,2.400,-180.00,0.00,0.00
C00454=1034.189,935.514,2.400,-180.00,0.00,0.00
C00455=1027.014,932.195,2.400,-180.00,0.00,0.00
C00456=1019.528,929.672,2.400,-180.00,0.00,0.00
C00457=1011.808,927.972,2.400,-180.00,0.00,0.00
C00458=1003.950,927.118,2.400,-180.00,0.00,0.00
C00459=996.050,927.118,2.400,-180.00,0.00,0.00
C00460=988.192,927.972,2.400,-180.00,0.00,0.00
C00461=980.472,929.672,2.400,-180.00,0.00,0.00
C00462=972.986,932.195,2.400,-180.00,0.00,0.00
C00463=965.811,935.514,2.400,-180.00,0.00,0.00
C00464=959.042,939.588,2.400,-180.00,0.00,0.00
C00465=952.748,944.372,2.400,-180.00,0.00,0.00
C00466=947.010,949.807,2.400,-180.00,0.00,0.00
C00467=941.892,955.830,2.400,-180.00,0.00,0.00
C00468=937.458,962.371,2.400,-180.00,0.00,0.00
C00469=933.757,969.354,2.400,-180.00,0.00,0.00
C00470=930.826,976.708,2.400,-180.00,0.00,0.00
C00471=928.717,984.310,2.400,-180.00,0.00,0.00
C00472=927.439,992.110,2.400,-180.00,0.00,0.00
C00473=927.011,1000.001,2.400,-180.00,0.00,0.00
C00474=925.008,1000.001,2.400,-180.00,0.00,0.00
C00475=925.448,1008.106,2.400,-180.00,0.00,0.00
C00476=926.761,1016.120,2.400,-180.00,0.00,0.00
C00477=928.930,1023.931,2.400,-180.00,0.00,0.00
C00478=931.939,1031.488,2.400,-180.00,0.00,0.00
C00479=935.741,1038.661,2.400,-180.00,0.00,0.00
C00480=940.298,1045.382,2.400,-180.00,0.00,0.00
C00481=945.556,1051.571,2.400,-180.00,0.00,0.00
C00482=951.451,1057.155,2.400,-180.00,0.00,0.00
C00483=957.918,1062.070,2.400,-180.00,0.00,0.00
C00484=964.873,1066.255,2.400,-180.00,0.00,0.00
C00485=972.245,1069.666,2.400,-180.00,0.00,0.00
C00486=979.936,1072.258,2.400,-180.00,0.00,0.00
C00487=987.868,1074.004,2.400,-180.00,0.00,0.00
C00488=995.942,1074.883,2.400,-180.00,0.00,0.00
C00489=1004.058,1074.883,2.400,-180.00,0.00,0.00
C00490=1012.132,1074.004,2.400,-180.00,0.00,0.00
C00491=1020.064,1072.258,2.400,-180.00,0.00,0.00
C00492=1027.755,1069.666,2.400,-180.00,0.00,0.00
C00493=1035.127,1066.255,2.400,-180.00,0.00,0.00
C00494=1042.082,1062.070,2.400,-180.00,0.00,0.00
C00495=1048.549,1057.155,2.400,-180.00,0.00,0.00
C00496=1054.444,1051.571,2.400,-180.00,0.00,0.00
C00497=1059.702,1045.382,2.400,-180.00,0.00,0.00
C00498=1064.259,1038.661,2.400,-180.00,0.00,0.00
C00499=1068.061,1031.487,2.400,-180.00,0.00,0.00
C00500=1071.072,1023.931,2.400,-180.00,0.00,0.00
C00501=1073.239,1016.121,2.400,-180.00,0.00,0.00
C00502=1074.552,1008.106,2.400,-180.00,0.00,0.00
C00503=1074.992,999.998,2.400,-180.00,0.00,0.00
C00504=1074.553,991.892,2.400,-180.00,0.00,0.00
C00505=1073.239,983.878,2.400,-180.00,0.00,0.00
C00506=1071.070,976.069,2.400,-180.00,0.00,0.00
C00507=1068.061,968.513,2.400,-180.00,0.00,0.00
C00508=1064.257,961.337,2.400,-180.00,0.00,0.00
C00509=1059.700,954.616,2.400,-180.00,0.00,0.00
C00510=1054.444,948.429,2.400,-180.00,0.00,0.00
C00511=1048.547,942.843,2.400,-180.00,0.00,0.00
C00512=1042.083,937.930,2.400,-180.00,0.00,0.00
C00513=1035.127,933.745,2.400,-180.00,0.00,0.00
C00514=1027.755,930.334,2.400,-180.00,0.00,0.00
C00515=1020.064,927.742,2.400,-180.00,0.00,0.00
C00516=1012.132,925.996,2.400,-180.00,0.00,0.00
C00517=1004.058,925.118,2.400,-180.00,0.00,0.00
C00518=995.942,925.118,2.400,-180.00,0.00,0.00
C00519=987.868,925.996,2.400,-180.00,0.00,0.00
C00520=979.936,927.742,2.400,-180.00,0.00,0.00
C00521=972.245,930.334,2.400,-180.00,0.00,0.00
C00522=964.873,933.745,2.400,-180.00,0.00,0.00
C00523=957.918,937.930,2.400,-180.00,0.00,0.00
C00524=951.451,942.845,2.400,-180.00,0.00,0.00
C00525=945.556,948.429,2.400,-180.00,0.00,0.00
C00526=940.298,954.618,2.400,-180.00,0.00,0.00
C00527=935.741,961.339,2.400,-180.00,0.00,0.00
C00528=931.939,968.513,2.400,-180.00,0.00,0.00
C00529=928.928,976.069,2.400,-180.00,0.00,0.00
C00530=926.761,983.879,2.400,-180.00,0.00,0.00
C00531=925.448,991.894,2.400,-180.00,0.00,0.00
C00532=925.008,1000.001,2.400,-180.00,0.00,0.00
C00533=923.731,1000.000,2.400,-180.00,0.00,0.00
C00534=923.005,1000.001,2.400,-180.00,0.00,0.00
C00535=923.456,1008.323,2.400,-180.00,0.00,0.00
C00536=924.805,1016.551,2.400,-180.00,0.00,0.00
C00537=927.032,1024.570,2.400,-180.00,0.00,0.00
C00538=930.121,1032.328,2.400,-180.00,0.00,0.00
C00539=543.000,1032.328,2.400,-180.00,0.00,0.00
C00540=938.703,1046.594,2.400,-180.00,0.00,0.00
C00541=944.102,1052.948,2.400,-180.00,0.00,0.00
C00542=950.154,1058.682,2.400,-180.00,0.00,0.00
C00543=956.794,1063.728,2.400,-180.00,0.00,0.00
C00544=963.935,1068.025,2.400,-180.00,0.00,0.00
C00545=971.504,1071.526,2.400,-180.00,0.00,0.00
C00546=979.400,1074.188,2.400,-180.00,0.00,0.00
C00547=987.544,1075.981,2.400,-180.00,0.00,0.00
C00548=995.833,1076.883,2.400,-180.00,0.00,0.00
C00549=1004.167,1076.883,2.400,-180.00,0.00,0.00
C00550=1012.456,1075.981,2.400,-180.00,0.00,0.00
C00551=1020.600,1074.188,2.400,-180.00,0.00,0.00
C00552=1028.496,1071.526,2.400,-180.00,0.00,0.00
C00553=1036.065,1068.025,2.400,-180.00,0.00,0.00
C00554=1043.206,1063.728,2.400,-180.00,0.00,0.00
C00555=1049.846,1058.682,2.400,-180.00,0.00,0.00
C00556=1055.898,1052.948,2.400,-180.00,0.00,0.00
C00557=1061.297,1046.594,2.400,-180.00,0.00,0.00
C00558=1065.975,1039.694,2.400,-180.00,0.00,0.00
C00559=1069.879,1032.328,2.400,-180.00,0.00,0.00
C00560=1072.970,1024.570,2.400,-180.00,0.00,0.00
C00561=1075.195,1016.551,2.400,-180.00,0.00,0.00
C00562=1076.544,1008.323,2.400,-180.00,0.00,0.00
C00563=1076.995,999.998,2.400,-180.00,0.00,0.00
C00564=1076.544,991.675,2.400,-180.00,0.00,0.00
C00565=1075.195,983.447,2.400,-180.00,0.00,0.00
C00566=1072.968,975.430,2.400,-180.00,0.00,0.00
C00567=1069.879,967.672,2.400,-180.00,0.00,0.00
C00568=1065.973,960.304,2.400,-180.00,0.00,0.00
C00569=1061.295,953.404,2.400,-180.00,0.00,0.00
C00570=1055.898,947.052,2.400,-180.00,0.00,0.00
C00571=1049.844,941.316,2.400,-180.00,0.00,0.00
C00572=1043.207,936.272,2.400,-180.00,0.00,0.00
C00573=1036.065,931.975,2.400,-180.00,0.00,0.00
C00574=1028.496,928.474,2.400,-180.00,0.00,0.00
C00575=1020.600,925.812,2.400,-180.00,0.00,0.00
C00576=1012.456,924.019,2.400,-180.00,0.00,0.00
C00577=1004.167,923.118,2.400,-180.00,0.00,0.00
C00578=995.833,923.118,2.400,-180.00,0.00,0.00
C00579=987.544,924.019,2.400,-180.00,0.00,0.00
C00580=979.400,925.812,2.400,-180.00,0.00,0.00
C00581=971.504,928.474,2.400,-180.00,0.00,0.00
C00582=963.935,931.975,2.400,-180.00,0.00,0.00
C00583=956.794,936.272,2.400,-180.00,0.00,0.00
C00584=950.154,941.318,2.400,-180.00,0.00,0.00
C00585=944.102,947.052,2.400,-180.00,0.00,0.00
C00586=938.703,953.406,2.400,-180.00,0.00,0.00
C00587=934.025,960.306,2.400,-180.00,0.00,0.00
C00588=930.121,967.672,2.400,-180.00,0.00,0.00
C00589=927.030,975.430,2.400,-180.00,0.00,0.00
C00590=924.805,983.449,2.400,-180.00,0.00,0.00
C00591=923.456,991.677,2.400,-180.00,0.00,0.00
C00592=923.005,1000.001,2.400,-180.00,0.00,0.00
C00593=923.731,1000.000,2.400,-180.00,0.00,0.00
C00594=921.002,1000.001,2.400,-180.00,0.00,0.00
C00595=921.465,1008.539,2.400,-180.00,0.00,0.00
C00596=922.849,1016.981,2.400,-180.00,0.00,0.00
C00597=925.134,1025.210,2.400,-180.00,0.00,0.00
C00598=928.303,1033.169,2.400,-180.00,0.00,0.00
C00599=932.309,1040.726,2.400,-180.00,0.00,0.00
C00600=937.109,1047.806,2.400,-180.00,0.00,0.00
C00601=942.648,1054.326,2.400,-180.00,0.00,0.00
C00602=948.858,1060.208,2.400,-180.00,0.00,0.00
C00603=955.670,1065.386,2.400,-180.00,0.00,0.00
C00604=962.997,1069.795,2.400,-180.00,0.00,0.00
C00605=970.762,1073.387,2.400,-180.00,0.00,0.00
C00606=978.864,1076.118,2.400,-180.00,0.00,0.00
C00607=987.220,1077.957,2.400,-180.00,0.00,0.00
C00608=995.725,1078.883,2.400,-180.00,0.00,0.00
C00609=1004.275,1078.883,2.400,-180.00,0.00,0.00
C00610=1012.780,1077.957,2.400,-180.00,0.00,0.00
C00611=1021.136,1076.118,2.400,-180.00,0.00,0.00
C00612=1029.238,1073.387,2.400,-180.00,0.00,0.00
C00613=1037.003,1069.795,2.400,-180.00,0.00,0.00
C00614=1044.330,1065.386,2.400,-180.00,0.00,0.00
C00615=1051.142,1060.208,2.400,-180.00,0.00,0.00
C00616=1057.352,1054.326,2.400,-180.00,0.00,0.00
C00617=1062.891,1047.806,2.400,-180.00,0.00,0.00
C00618=1067.691,1040.726,2.400,-180.00,0.00,0.00
C00619=1071.697,1033.169,2.400,-180.00,0.00,0.00
C00620=1074.868,1025.210,2.400,-180.00,0.00,0.00
C00621=1077.151,1016.981,2.400,-180.00,0.00,0.00
C00622=1078.535,1008.539,2.400,-180.00,0.00,0.00
C00623=1078.998,999.998,2.400,-180.00,0.00,0.00
C00624=1078.535,991.459,2.400,-180.00,0.00,0.00
C00625=1077.151,983.017,2.400,-180.00,0.00,0.00
C00626=1074.866,974.790,2.400,-180.00,0.00,0.00
C00627=1071.697,966.831,2.400,-180.00,0.00,0.00
C00628=1067.689,959.272,2.400,-180.00,0.00,0.00
C00629=1062.889,952.192,2.400,-180.00,0.00,0.00
C00630=1057.352,945.674,2.400,-180.00,0.00,0.00
C00631=1051.140,939.790,2.400,-180.00,0.00,0.00
C00632=1044.331,934.614,2.400,-180.00,0.00,0.00
C00633=1037.003,930.205,2.400,-180.00,0.00,0.00
C00634=1029.238,926.613,2.400,-180.00,0.00,0.00
C00635=1021.136,923.882,2.400,-180.00,0.00,0.00
C00636=1012.780,922.043,2.400,-180.00,0.00,0.00
C00637=1004.275,921.118,2.400,-180.00,0.00,0.00
C00638=995.725,921.118,2.400,-180.00,0.00,0.00
C00639=987.220,922.043,2.400,-180.00,0.00,0.00
C00640=978.864,923.882,2.400,-180.00,0.00,0.00
C00641=970.762,926.613,2.400,-180.00,0.00,0.00
C00642=962.997,930.205,2.400,-180.00,0.00,0.00
C00643=955.670,934.614,2.400,-180.00,0.00,0.00
C00644=948.858,939.792,2.400,-180.00,0.00,0.00
C00645=942.648,945.674,2.400,-180.00,0.00,0.00
C00646=937.109,952.194,2.400,-180.00,0.00,0.00
C00647=932.309,959.274,2.400,-180.00,0.00,0.00
C00648=928.303,966.831,2.400,-180.00,0.00,0.00
C00649=925.132,974.790,2.400,-180.00,0.00,0.00
C00650=922.849,983.019,2.400,-180.00,0.00,0.00
C00651=921.465,991.461,2.400,-180.00,0.00,0.00
C00652=921.002,1000.001,2.400,-180.00,0.00,0.00
C00653=921.049,1000.874,2.400,-180.00,0.00,0.00
C00654=923.770,1000.727,2.400,-180.00,0.00,0.00
C00655=932.920,1000.002,2.400,-180.00,0.00,0.00
C00656=933.313,1007.248,2.400,-180.00,0.00,0.00
C00657=934.488,1014.419,2.400,-180.00,0.00,0.00
C00658=936.428,1021.405,2.400,-180.00,0.00,0.00
C00659=939.120,1028.165,2.400,-180.00,0.00,0.00
C00660=942.521,1034.582,2.400,-180.00,0.00,0.00
C00661=946.595,1040.592,2.400,-180.00,0.00,0.00
C00662=951.299,1046.128,2.400,-180.00,0.00,0.00
C00663=956.573,1051.123,2.400,-180.00,0.00,0.00
C00664=962.360,1055.522,2.400,-180.00,0.00,0.00
C00665=968.580,1059.264,2.400,-180.00,0.00,0.00
C00666=975.176,1062.315,2.400,-180.00,0.00,0.00
C00667=982.052,1064.633,2.400,-180.00,0.00,0.00
C00668=989.149,1066.196,2.400,-180.00,0.00,0.00
C00669=996.372,1066.983,2.400,-180.00,0.00,0.00
C00670=1003.628,1066.983,2.400,-180.00,0.00,0.00
C00671=1010.851,1066.196,2.400,-180.00,0.00,0.00
C00672=1017.948,1064.633,2.400,-180.00,0.00,0.00
C00673=1024.824,1062.315,2.400,-180.00,0.00,0.00
C00674=1031.420,1059.264,2.400,-180.00,0.00,0.00
C00675=1037.640,1055.522,2.400,-180.00,0.00,0.00
C00676=1043.427,1051.123,2.400,-180.00,0.00,0.00
C00677=1048.701,1046.128,2.400,-180.00,0.00,0.00
C00678=1053.406,1040.592,2.400,-180.00,0.00,0.00
C00679=1057.480,1034.582,2.400,-180.00,0.00,0.00
C00680=1060.880,1028.164,2.400,-180.00,0.00,0.00
C00681=1063.579,1021.391,2.400,-180.00,0.00,0.00
C00682=1065.511,1014.420,2.400,-180.00,0.00,0.00
C00683=1066.687,1007.249,2.400,-180.00,0.00,0.00
C00684=1067.080,999.997,2.400,-180.00,0.00,0.00
C00685=1066.687,992.748,2.400,-180.00,0.00,0.00
C00686=1065.512,985.578,2.400,-180.00,0.00,0.00
C00687=1063.572,978.595,2.400,-180.00,0.00,0.00
C00688=1060.880,971.836,2.400,-180.00,0.00,0.00
C00689=1057.476,965.415,2.400,-180.00,0.00,0.00
C00690=1053.402,959.406,2.400,-180.00,0.00,0.00
C00691=1048.700,953.871,2.400,-180.00,0.00,0.00
C00692=1043.423,948.873,2.400,-180.00,0.00,0.00
C00693=1037.641,944.479,2.400,-180.00,0.00,0.00
C00694=1031.420,940.736,2.400,-180.00,0.00,0.00
C00695=1024.824,937.685,2.400,-180.00,0.00,0.00
C00696=1017.948,935.367,2.400,-180.00,0.00,0.00
C00697=1010.851,933.804,2.400,-180.00,0.00,0.00
C00698=1003.628,933.019,2.400,-180.00,0.00,0.00
C00699=996.372,933.018,2.400,-180.00,0.00,0.00
C00700=989.149,933.804,2.400,-180.00,0.00,0.00
C00701=982.052,935.367,2.400,-180.00,0.00,0.00
C00702=975.176,937.685,2.400,-180.00,0.00,0.00
C00703=968.580,940.736,2.400,-180.00,0.00,0.00
C00704=962.360,944.478,2.400,-180.00,0.00,0.00
C00705=956.573,948.877,2.400,-180.00,0.00,0.00
C00706=951.299,953.872,2.400,-180.00,0.00,0.00
C00707=946.597,959.406,2.400,-180.00,0.00,0.00
C00708=942.522,965.416,2.400,-180.00,0.00,0.00
C00709=939.119,971.836,2.400,-180.00,0.00,0.00
C00710=936.420,978.609,2.400,-180.00,0.00,0.00
C00711=934.488,985.579,2.400,-180.00,0.00,0.00
C00712=933.313,992.752,2.400,-180.00,0.00,0.00
C00713=932.920,1000.002,2.400,-180.00,0.00,0.00
C00714=946.298,961.626,2.400,-180.00,0.00,0.00
C00715=961.659,946.265,2.400,-180.00,0.00,0.00
C00716=962.012,945.912,2.400,-180.00,0.00,0.00
C00717=969.206,941.547,2.400,-180.00,0.00,0.00
C00718=941.753,968.999,2.400,-180.00,0.00,0.00
C00719=941.400,969.352,2.400,-180.00,0.00,0.00
C00720=939.168,974.413,2.400,-180.00,0.00,0.00
C00721=974.467,939.114,2.400,-180.00,0.00,0.00
C00722=974.820,938.761,2.400,-180.00,0.00,0.00
C00723=978.938,937.471,2.400,-180.00,0.00,0.00
C00724=937.325,979.084,2.400,-180.00,0.00,0.00
C00725=936.972,979.437,2.400,-180.00,0.00,0.00
C00726=936.241,982.997,2.400,-180.00,0.00,0.00
C00727=983.072,936.166,2.400,-180.00,0.00,0.00
C00728=986.700,935.367,2.400,-180.00,0.00,0.00
C00729=935.308,986.758,2.400,-180.00,0.00,0.00
C00730=934.754,990.140,2.400,-180.00,0.00,0.00
C00731=990.200,934.695,2.400,-180.00,0.00,0.00
C00732=993.374,934.349,2.400,-180.00,0.00,0.00
C00733=934.277,993.446,2.400,-180.00,0.00,0.00
C00734=934.114,996.437,2.400,-180.00,0.00,0.00
C00735=996.534,934.017,2.400,-180.00,0.00,0.00
C00736=999.363,934.017,2.400,-180.00,0.00,0.00
C00737=933.952,999.428,2.400,-180.00,0.00,0.00
C00738=934.039,1002.170,2.400,-180.00,0.00,0.00
C00739=1002.190,934.018,2.400,-180.00,0.00,0.00
C00740=1004.877,934.160,2.400,-180.00,0.00,0.00
C00741=934.184,1004.853,2.400,-180.00,0.00,0.00
C00742=934.367,1007.498,2.400,-180.00,0.00,0.00
C00743=1007.428,934.437,2.400,-180.00,0.00,0.00
C00744=1009.979,934.715,2.400,-180.00,0.00,0.00
C00745=934.766,1009.928,2.400,-180.00,0.00,0.00
C00746=935.164,1012.358,2.400,-180.00,0.00,0.00
C00747=1012.362,935.160,2.400,-180.00,0.00,0.00
C00748=1014.680,935.671,2.400,-180.00,0.00,0.00
C00749=935.614,1014.736,2.400,-180.00,0.00,0.00
C00750=936.229,1016.950,2.400,-180.00,0.00,0.00
C00751=1016.998,936.181,2.400,-180.00,0.00,0.00
C00752=1019.173,936.835,2.400,-180.00,0.00,0.00
C00753=936.844,1019.164,2.400,-180.00,0.00,0.00
C00754=937.484,1021.352,2.400,-180.00,0.00,0.00
C00755=1021.288,937.548,2.400,-180.00,0.00,0.00
C00756=1023.403,938.261,2.400,-180.00,0.00,0.00
C00757=938.289,1023.375,2.400,-180.00,0.00,0.00
C00758=939.095,1025.398,2.400,-180.00,0.00,0.00
C00759=1025.427,939.065,2.400,-180.00,0.00,0.00
C00760=1027.361,939.960,2.400,-180.00,0.00,0.00
C00761=939.901,1027.421,2.400,-180.00,0.00,0.00
C00762=940.852,1029.297,2.400,-180.00,0.00,0.00
C00763=1029.295,940.854,2.400,-180.00,0.00,0.00
C00764=1031.204,941.774,2.400,-180.00,0.00,0.00
C00765=941.832,1031.146,2.400,-180.00,0.00,0.00
C00766=942.812,1032.995,2.400,-180.00,0.00,0.00
C00767=1032.971,942.836,2.400,-180.00,0.00,0.00
C00768=1034.736,943.899,2.400,-180.00,0.00,0.00
C00769=943.860,1034.774,2.400,-180.00,0.00,0.00
C00770=945.003,1036.460,2.400,-180.00,0.00,0.00
C00771=1036.502,944.961,2.400,-180.00,0.00,0.00
C00772=1038.162,946.130,2.400,-180.00,0.00,0.00
C00773=946.146,1038.146,2.400,-180.00,0.00,0.00
C00774=947.288,1039.832,2.400,-180.00,0.00,0.00
C00775=1039.769,947.351,2.400,-180.00,0.00,0.00
C00776=1041.376,948.572,2.400,-180.00,0.00,0.00
C00777=948.574,1041.375,2.400,-180.00,0.00,0.00
C00778=949.874,1042.903,2.400,-180.00,0.00,0.00
C00779=1042.963,949.813,2.400,-180.00,0.00,0.00
C00780=1044.415,951.190,2.400,-180.00,0.00,0.00
C00781=951.173,1044.433,2.400,-180.00,0.00,0.00
C00782=952.524,1045.910,2.400,-180.00,0.00,0.00
C00783=1045.868,952.566,2.400,-180.00,0.00,0.00
C00784=1047.320,953.942,2.400,-180.00,0.00,0.00
C00785=953.976,1047.286,2.400,-180.00,0.00,0.00
C00786=955.429,1048.662,2.400,-180.00,0.00,0.00
C00787=1048.687,955.403,2.400,-180.00,0.00,0.00
C00788=1049.987,956.932,2.400,-180.00,0.00,0.00
C00789=956.881,1050.038,2.400,-180.00,0.00,0.00
C00790=958.452,1051.295,2.400,-180.00,0.00,0.00
C00791=1051.286,958.461,2.400,-180.00,0.00,0.00
C00792=1052.586,959.990,2.400,-180.00,0.00,0.00
C00793=960.059,1052.516,2.400,-180.00,0.00,0.00
C00794=961.666,1053.738,2.400,-180.00,0.00,0.00
C00795=1053.731,961.674,2.400,-180.00,0.00,0.00
C00796=1054.873,963.360,2.400,-180.00,0.00,0.00
C00797=963.308,1054.925,2.400,-180.00,0.00,0.00
C00798=965.074,1055.987,2.400,-180.00,0.00,0.00
C00799=1056.016,965.045,2.400,-180.00,0.00,0.00
C00800=1057.082,966.808,2.400,-180.00,0.00,0.00
C00801=966.840,1057.050,2.400,-180.00,0.00,0.00
C00802=968.606,1058.112,2.400,-180.00,0.00,0.00
C00803=1058.062,968.656,2.400,-180.00,0.00,0.00
C00804=1059.041,970.506,2.400,-180.00,0.00,0.00
C00805=970.498,1059.049,2.400,-180.00,0.00,0.00
C00806=972.432,1059.943,2.400,-180.00,0.00,0.00
C00807=1060.012,972.363,2.400,-180.00,0.00,0.00
C00808=1060.817,974.386,2.400,-180.00,0.00,0.00
C00809=974.366,1060.838,2.400,-180.00,0.00,0.00
C00810=976.370,1061.661,2.400,-180.00,0.00,0.00
C00811=1061.623,976.408,2.400,-180.00,0.00,0.00
C00812=1062.429,978.431,2.400,-180.00,0.00,0.00
C00813=978.485,1062.375,2.400,-180.00,0.00,0.00
C00814=980.601,1063.088,2.400,-180.00,0.00,0.00
C00815=1063.089,980.599,2.400,-180.00,0.00,0.00
C00816=1063.704,982.813,2.400,-180.00,0.00,0.00
C00817=982.754,1063.763,2.400,-180.00,0.00,0.00
C00818=985.072,1064.274,2.400,-180.00,0.00,0.00
C00819=1064.320,985.026,2.400,-180.00,0.00,0.00
C00820=1064.793,987.381,2.400,-180.00,0.00,0.00
C00821=987.390,1064.784,2.400,-180.00,0.00,0.00
C00822=989.747,1065.255,2.400,-180.00,0.00,0.00
C00823=1065.191,989.812,2.400,-180.00,0.00,0.00
C00824=1065.589,992.242,2.400,-180.00,0.00,0.00
C00825=992.298,1065.533,2.400,-180.00,0.00,0.00
C00826=994.848,1065.811,2.400,-180.00,0.00,0.00
C00827=1065.799,994.860,2.400,-180.00,0.00,0.00
C00828=1065.944,997.543,2.400,-180.00,0.00,0.00
C00829=997.506,1065.982,2.400,-180.00,0.00,0.00
C00830=1000.334,1065.982,2.400,-180.00,0.00,0.00
C00831=1066.064,1000.252,2.400,-180.00,0.00,0.00
C00832=1065.901,1003.243,2.400,-180.00,0.00,0.00
C00833=1003.163,1065.982,2.400,-180.00,0.00,0.00
C00834=1006.286,1065.687,2.400,-180.00,0.00,0.00
C00835=1065.739,1006.234,2.400,-180.00,0.00,0.00
C00836=1065.303,1009.498,2.400,-180.00,0.00,0.00
C00837=1009.460,1065.341,2.400,-180.00,0.00,0.00
C00838=1012.912,1064.718,2.400,-180.00,0.00,0.00
C00839=1064.748,1012.882,2.400,-180.00,0.00,0.00
C00840=1063.871,1016.587,2.400,-180.00,0.00,0.00
C00841=1016.540,1063.918,2.400,-180.00,0.00,0.00
C00842=1016.187,1064.271,2.400,-180.00,0.00,0.00
C00843=1020.606,1062.680,2.400,-180.00,0.00,0.00
C00844=1062.786,1020.500,2.400,-180.00,0.00,0.00
C00845=1063.139,1020.147,2.400,-180.00,0.00,0.00
C00846=1061.028,1025.087,2.400,-180.00,0.00,0.00
C00847=1024.971,1061.144,2.400,-180.00,0.00,0.00
C00848=1024.618,1061.497,2.400,-180.00,0.00,0.00
C00849=1030.234,1058.709,2.400,-180.00,0.00,0.00
C00850=1058.583,1030.361,2.400,-180.00,0.00,0.00
C00851=1058.936,1030.008,2.400,-180.00,0.00,0.00
C00852=1054.336,1037.436,2.400,-180.00,0.00,0.00
C00853=1037.089,1054.683,2.400,-180.00,0.00,0.00
C00854=1036.736,1055.036,2.400,-180.00,0.00,0.00
C00855=1036.736,1055.036,3.600,-180.00,0.00,0.00
C00856=939.278,953.848,3.600,-180.00,0.00,0.00
C00857=937.113,952.188,3.600,-180.00,0.00,0.00
C00858=942.643,945.677,3.600,-180.00,0.00,0.00
C00859=948.860,939.788,3.600,-180.00,0.00,0.00
C00860=955.663,934.617,3.600,-180.00,0.00,0.00
C00861=962.996,930.205,3.600,-180.00,0.00,0.00
C00862=970.762,926.612,3.600,-180.00,0.00,0.00
C00863=978.865,923.882,3.600,-180.00,0.00,0.00
C00864=987.224,922.042,3.600,-180.00,0.00,0.00
C00865=995.722,921.117,3.600,-180.00,0.00,0.00
C00866=1004.278,921.117,3.600,-180.00,0.00,0.00
C00867=1012.776,922.042,3.600,-180.00,0.00,0.00
C00868=1021.135,923.882,3.600,-180.00,0.00,0.00
C00869=1029.238,926.612,3.600,-180.00,0.00,0.00
C00870=1037.004,930.205,3.600,-180.00,0.00,0.00
C00871=1044.337,934.617,3.600,-180.00,0.00,0.00
C00872=1051.140,939.788,3.600,-180.00,0.00,0.00
C00873=1057.357,945.677,3.600,-180.00,0.00,0.00
C00874=1062.887,952.188,3.600,-180.00,0.00,0.00
C00875=1067.690,959.272,3.600,-180.00,0.00,0.00
C00876=1071.698,966.832,3.600,-180.00,0.00,0.00
C00877=1074.861,974.771,3.600,-180.00,0.00,0.00
C00878=1077.152,983.021,3.600,-180.00,0.00,0.00
C00879=1078.535,991.456,3.600,-180.00,0.00,0.00
C00880=1078.998,1000.000,3.600,-180.00,0.00,0.00
C00881=1078.535,1008.544,3.600,-180.00,0.00,0.00
C00882=1077.152,1016.979,3.600,-180.00,0.00,0.00
C00883=1074.861,1025.229,3.600,-180.00,0.00,0.00
C00884=1071.698,1033.168,3.600,-180.00,0.00,0.00
C00885=1067.690,1040.728,3.600,-180.00,0.00,0.00
C00886=1062.887,1047.812,3.600,-180.00,0.00,0.00
C00887=1057.357,1054.323,3.600,-180.00,0.00,0.00
C00888=1051.140,1060.212,3.600,-180.00,0.00,0.00
C00889=1044.337,1065.383,3.600,-180.00,0.00,0.00
C00890=1037.004,1069.795,3.600,-180.00,0.00,0.00
C00891=1029.238,1073.388,3.600,-180.00,0.00,0.00
C00892=1021.135,1076.118,3.600,-180.00,0.00,0.00
C00893=1012.776,1077.958,3.600,-180.00,0.00,0.00
C00894=1004.278,1078.883,3.600,-180.00,0.00,0.00
C00895=995.722,1078.883,3.600,-180.00,0.00,0.00
C00896=987.224,1077.958,3.600,-180.00,0.00,0.00
C00897=978.865,1076.118,3.600,-180.00,0.00,0.00
C00898=970.762,1073.388,3.600,-180.00,0.00,0.00
C00899=962.996,1069.795,3.600,-180.00,0.00,0.00
C00900=955.663,1065.383,3.600,-180.00,0.00,0.00
C00901=948.860,1060.212,3.600,-180.00,0.00,0.00
C00902=942.643,1054.323,3.600,-180.00,0.00,0.00
C00903=937.113,1047.812,3.600,-180.00,0.00,0.00
C00904=932.310,1040.728,3.600,-180.00,0.00,0.00
C00905=928.302,1033.168,3.600,-180.00,0.00,0.00
C00906=925.139,1025.229,3.600,-180.00,0.00,0.00
C00907=922.848,1016.979,3.600,-180.00,0.00,0.00
C00908=921.465,1008.544,3.600,-180.00,0.00,0.00
C00909=921.002,1000.000,3.600,-180.00,0.00,0.00
C00910=921.465,991.456,3.600,-180.00,0.00,0.00
C00911=922.848,983.021,3.600,-180.00,0.00,0.00
C00912=925.139,974.771,3.600,-180.00,0.00,0.00
C00913=928.302,966.832,3.600,-180.00,0.00,0.00
C00914=932.310,959.272,3.600,-180.00,0.00,0.00
C00915=937.113,952.188,3.600,-180.00,0.00,0.00
C00916=942.643,945.677,3.621,-180.00,0.00,0.00
C00917=948.860,939.788,3.641,-180.00,0.00,0.00
C00918=955.663,934.617,3.662,-180.00,0.00,0.00
C00919=962.996,930.205,3.683,-180.00,0.00,0.00
C00920=970.762,926.612,3.703,-180.00,0.00,0.00
C00921=978.865,923.882,3.724,-180.00,0.00,0.00
C00922=987.224,922.042,3.745,-180.00,0.00,0.00
C00923=995.722,921.117,3.766,-180.00,0.00,0.00
C00924=1004.278,921.117,3.786,-180.00,0.00,0.00
C00925=1012.776,922.042,3.807,-180.00,0.00,0.00
C00926=1021.135,923.882,3.828,-180.00,0.00,0.00
C00927=1029.238,926.612,3.848,-180.00,0.00,0.00
C00928=1037.004,930.205,3.869,-180.00,0.00,0.00
C00929=1044.337,934.617,3.890,-180.00,0.00,0.00
C00930=1051.140,939.788,3.910,-180.00,0.00,0.00
C00931=1057.357,945.677,3.931,-180.00,0.00,0.00
C00932=1062.887,952.188,3.952,-180.00,0.00,0.00
C00933=1067.690,959.272,3.972,-180.00,0.00,0.00
C00934=1071.698,966.832,3.993,-180.00,0.00,0.00
C00935=1074.861,974.771,4.014,-180.00,0.00,0.00
C00936=1077.152,983.021,4.034,-180.00,0.00,0.00
C00937=1078.535,991.456,4.055,-180.00,0.00,0.00
C00938=1078.998,1000.000,4.076,-180.00,0.00,0.00
C00939=1078.535,1008.544,4.097,-180.00,0.00,0.00
C00940=1077.152,1016.979,4.117,-180.00,0.00,0.00
C00941=1074.861,1025.229,4.138,-180.00,0.00,0.00
C00942=1071.698,1033.168,4.159,-180.00,0.00,0.00
C00943=1067.690,1040.728,4.179,-180.00,0.00,0.00
C00944=1062.887,1047.812,4.200,-180.00,0.00,0.00
C00945=1057.357,1054.323,4.221,-180.00,0.00,0.00
C00946=1051.140,1060.212,4.241,-180.00,0.00,0.00
C00947=1044.337,1065.383,4.262,-180.00,0.00,0.00
C00948=1037.004,1069.795,4.283,-180.00,0.00,0.00
C00949=1029.238,1073.388,4.303,-180.00,0.00,0.00
C00950=1021.135,1076.118,4.324,-180.00,0.00,0.00
C00951=1012.776,1077.958,4.345,-180.00,0.00,0.00
C00952=1004.278,1078.883,4.366,-180.00,0.00,0.00
C00953=995.722,1078.883,4.386,-180.00,0.00,0.00
C00954=987.224,1077.958,4.407,-180.00,0.00,0.00
C00955=978.865,1076.118,4.428,-180.00,0.00,0.00
C00956=970.762,1073.388,4.448,-180.00,0.00,0.00
C00957=962.996,1069.795,4.469,-180.00,0.00,0.00
C00958=955.663,1065.383,4.490,-180.00,0.00,0.00
C00959=948.860,1060.212,4.510,-180.00,0.00,0.00
C00960=942.643,1054.323,4.531,-180.00,0.00,0.00
C00961=937.113,1047.812,4.552,-180.00,0.00,0.00
C00962=932.310,1040.728,4.572,-180.00,0.00,0.00
C00963=928.302,1033.168,4.593,-180.00,0.00,0.00
C00964=925.139,1025.229,4.614,-180.00,0.00,0.00
C00965=922.848,1016.979,4.634,-180.00,0.00,0.00
C00966=921.465,1008.544,4.655,-180.00,0.00,0.00
C00967=921.002,1000.000,4.676,-180.00,0.00,0.00
C00968=921.465,991.456,4.697,-180.00,0.00,0.00
C00969=922.848,983.021,4.717,-180.00,0.00,0.00
C00970=925.139,974.771,4.738,-180.00,0.00,0.00
C00971=928.302,966.832,4.759,-180.00,0.00,0.00
C00972=932.310,959.272,4.779,-180.00,0.00,0.00
C00973=937.113,952.188,4.800,-180.00,0.00,0.00
C00974=942.643,945.677,4.821,-180.00,0.00,0.00
C00975=948.860,939.788,4.841,-180.00,0.00,0.00
C00976=955.663,934.617,4.862,-180.00,0.00,0.00
C00977=962.996,930.205,4.883,-180.00,0.00,0.00
C00978=970.762,926.612,4.903,-180.00,0.00,0.00
C00979=978.865,923.882,4.924,-180.00,0.00,0.00
C00980=987.224,922.042,4.945,-180.00,0.00,0.00
C00981=995.722,921.117,4.966,-180.00,0.00,0.00
C00982=1004.278,921.117,4.986,-180.00,0.00,0.00
C00983=1012.776,922.042,5.007,-180.00,0.00,0.00
C00984=1021.135,923.882,5.028,-180.00,0.00,0.00
C00985=1029.238,926.612,5.048,-180.00,0.00,0.00
C00986=1037.004,930.205,5.069,-180.00,0.00,0.00
C00987=1044.337,934.617,5.090,-180.00,0.00,0.00
C00988=1051.140,939.788,5.110,-180.00,0.00,0.00
C00989=1057.357,945.677,5.131,-180.00,0.00,0.00
C00990=1062.887,952.188,5.152,-180.00,0.00,0.00
C00991=1067.690,959.272,5.172,-180.00,0.00,0.00
C00992=1071.698,966.832,5.193,-180.00,0.00,0.00
C00993=1074.861,974.771,5.214,-180.00,0.00,0.00
C00994=1077.152,983.021,5.234,-180.00,0.00,0.00
C00995=1078.535,991.456,5.255,-180.00,0.00,0.00
C00996=1078.998,1000.000,5.276,-180.00,0.00,0.00
C00997=1078.535,1008.544,5.297,-180.00,0.00,0.00
C00998=1077.152,1016.979,5.317,-180.00,0.00,0.00
C00999=1074.861,1025.229,5.338,-180.00,0.00,0.00
C01000=1071.698,1033.168,5.359,-180.00,0.00,0.00
C01001=1067.690,1040.728,5.379,-180.00,0.00,0.00
C01002=1062.887,1047.812,5.400,-180.00,0.00,0.00
C01003=1057.357,1054.323,5.421,-180.00,0.00,0.00
C01004=1051.140,1060.212,5.441,-180.00,0.00,0.00
C01005=1044.337,1065.383,5.462,-180.00,0.00,0.00
C01006=1037.004,1069.795,5.483,-180.00,0.00,0.00
C01007=1029.238,1073.388,5.503,-180.00,0.00,0.00
C01008=1021.135,1076.118,5.524,-180.00,0.00,0.00
C01009=1012.776,1077.958,5.545,-180.00,0.00,0.00
C01010=1004.278,1078.883,5.566,-180.00,0.00,0.00
C01011=995.722,1078.883,5.586,-180.00,0.00,0.00
C01012=987.224,1077.958,5.607,-180.00,0.00,0.00
C01013=978.865,1076.118,5.628,-180.00,0.00,0.00
C01014=970.762,1073.388,5.648,-180.00,0.00,0.00
C01015=962.996,1069.795,5.669,-180.00,0.00,0.00
C01016=955.663,1065.383,5.690,-180.00,0.00,0.00
C01017=948.860,1060.212,5.710,-180.00,0.00,0.00
C01018=942.643,1054.323,5.731,-180.00,0.00,0.00
C01019=937.113,1047.812,5.752,-180.00,0.00,0.00
C01020=932.310,1040.728,5.772,-180.00,0.00,0.00
C01021=928.302,1033.168,5.793,-180.00,0.00,0.00
C01022=925.139,1025.229,5.814,-180.00,0.00,0.00
C01023=922.848,1016.979,5.834,-180.00,0.00,0.00
C01024=921.465,1008.544,5.855,-180.00,0.00,0.00
C01025=921.002,1000.000,5.876,-180.00,0.00,0.00
C01026=921.465,991.456,5.897,-180.00,0.00,0.00
C01027=922.848,983.021,5.917,-180.00,0.00,0.00
C01028=925.139,974.771,5.938,-180.00,0.00,0.00
C01029=928.302,966.832,5.959,-180.00,0.00,0.00
C01030=932.310,959.272,5.979,-180.00,0.00,0.00
C01031=937.113,952.188,6.000,-180.00,0.00,0.00
C01032=942.643,945.677,6.021,-180.00,0.00,0.00
C01033=948.860,939.788,6.041,-180.00,0.00,0.00
C01034=955.663,934.617,6.062,-180.00,0.00,0.00
C01035=962.996,930.205,6.083,-180.00,0.00,0.00
C01036=970.762,926.612,6.103,-180.00,0.00,0.00
C01037=978.865,923.882,6.124,-180.00,0.00,0.00
C01038=987.224,922.042,6.145,-180.00,0.00,0.00
C01039=995.722,921.117,6.166,-180.00,0.00,0.00
C01040=1004.278,921.117,6.186,-180.00,0.00,0.00
C01041=1012.776,922.042,6.207,-180.00,0.00,0.00
C01042=1021.135,923.882,6.228,-180.00,0.00,0.00
C01043=1029.238,926.612,6.248,-180.00,0.00,0.00
C01044=1037.000,926.612,6.248,-180.00,0.00,0.00
C01045=1044.337,934.617,6.290,-180.00,0.00,0.00
C01046=1051.140,939.788,6.310,-180.00,0.00,0.00
C01047=1057.357,945.677,6.331,-180.00,0.00,0.00
C01048=1062.887,952.188,6.352,-180.00,0.00,0.00
C01049=1067.690,959.272,6.372,-180.00,0.00,0.00
C01050=1071.698,966.832,6.393,-180.00,0.00,0.00
C01051=1074.861,974.771,6.414,-180.00,0.00,0.00
C01052=1077.152,983.021,6.434,-180.00,0.00,0.00
C01053=1078.535,991.456,6.455,-180.00,0.00,0.00
C01054=1078.998,1000.000,6.476,-180.00,0.00,0.00
C01055=1078.535,1008.544,6.497,-180.00,0.00,0.00
C01056=1077.152,1016.979,6.517,-180.00,0.00,0.00
C01057=1074.861,1025.229,6.538,-180.00,0.00,0.00
C01058=1071.698,1033.168,6.559,-180.00,0.00,0.00
C01059=1067.690,1040.728,6.579,-180.00,0.00,0.00
C01060=1062.887,1047.812,6.600,-180.00,0.00,0.00
C01061=1057.357,1054.323,6.621,-180.00,0.00,0.00
C01062=1051.140,1060.212,6.641,-180.00,0.00,0.00
C01063=1044.337,1065.383,6.662,-180.00,0.00,0.00
C01064=1037.004,1069.795,6.683,-180.00,0.00,0.00
C01065=1029.238,1073.388,6.703,-180.00,0.00,0.00
C01066=1021.135,1076.118,6.724,-180.00,0.00,0.00
C01067=1012.776,1077.958,6.745,-180.00,0.00,0.00
C01068=1004.278,1078.883,6.766,-180.00,0.00,0.00
C01069=995.722,1078.883,6.786,-180.00,0.00,0.00
C01070=987.224,1077.958,6.807,-180.00,0.00,0.00
C01071=978.865,1076.118,6.828,-180.00,0.00,0.00
C01072=970.762,1073.388,6.848,-180.00,0.00,0.00
C01073=962.996,1069.795,6.869,-180.00,0.00,0.00
C01074=955.663,1065.383,6.890,-180.00,0.00,0.00
C01075=948.860,1060.212,6.910,-180.00,0.00,0.00
C01076=942.643,1054.323,6.931,-180.00,0.00,0.00
C01077=937.113,1047.812,6.952,-180.00,0.00,0.00
C01078=932.310,1040.728,6.972,-180.00,0.00,0.00
C01079=928.302,1033.168,6.993,-180.00,0.00,0.00
C01080=925.139,1025.229,7.014,-180.00,0.00,0.00
C01081=922.848,1016.979,7.034,-180.00,0.00,0.00
C01082=921.465,1008.544,7.055,-180.00,0.00,0.00
C01083=921.002,1000.000,7.076,-180.00,0.00,0.00
C01084=921.465,991.456,7.097,-180.00,0.00,0.00
C01085=922.848,983.021,7.117,-180.00,0.00,0.00
C01086=925.139,974.771,7.138,-180.00,0.00,0.00
C01087=928.302,966.832,7.159,-180.00,0.00,0.00
C01088=932.310,959.272,7.179,-180.00,0.00,0.00
C01089=937.113,952.188,7.200,-180.00,0.00,0.00
C01090=942.643,945.677,7.221,-180.00,0.00,0.00
C01091=948.860,939.788,7.241,-180.00,0.00,0.00
C01092=955.663,934.617,7.262,-180.00,0.00,0.00
C01093=962.996,930.205,7.283,-180.00,0.00,0.00
C01094=970.762,926.612,7.303,-180.00,0.00,0.00
C01095=978.865,923.882,7.324,-180.00,0.00,0.00
C01096=987.224,922.042,7.345,-180.00,0.00,0.00
C01097=995.722,921.117,7.366,-180.00,0.00,0.00
C01098=1004.278,921.117,7.386,-180.00,0.00,0.00
C01099=1012.776,922.042,7.407,-180.00,0.00,0.00
C01100=1021.135,923.882,7.428,-180.00,0.00,0.00
C01101=1029.238,926.612,7.448,-180.00,0.00,0.00
C01102=1037.004,930.205,7.469,-180.00,0.00,0.00
C01103=1044.337,934.617,7.490,-180.00,0.00,0.00
C01104=1051.140,939.788,7.510,-180.00,0.00,0.00
C01105=1057.357,945.677,7.531,-180.00,0.00,0.00
C01106=1062.887,952.188,7.552,-180.00,0.00,0.00
C01107=1067.690,959.272,7.572,-180.00,0.00,0.00
C01108=1071.698,966.832,7.593,-180.00,0.00,0.00
C01109=1074.861,974.771,7.614,-180.00,0.00,0.00
C01110=1077.152,983.021,7.634,-180.00,0.00,0.00
C01111=1078.535,991.456,7.655,-180.00,0.00,0.00
C01112=1078.998,1000.000,7.676,-180.00,0.00,0.00
C01113=1078.535,1008.544,7.697,-180.00,0.00,0.00
C01114=1077.152,1016.979,7.717,-180.00,0.00,0.00
C01115=1074.861,1025.229,7.738,-180.00,0.00,0.00
C01116=1071.698,1033.168,7.759,-180.00,0.00,0.00
C01117=1067.690,1040.728,7.779,-180.00,0.00,0.00
C01118=1062.887,1047.812,7.800,-180.00,0.00,0.00
C01119=1057.357,1054.323,7.821,-180.00,0.00,0.00
C01120=1051.140,1060.212,7.841,-180.00,0.00,0.00
C01121=1044.337,1065.383,7.862,-180.00,0.00,0.00
C01122=1037.004,1069.795,7.883,-180.00,0.00,0.00
C01123=1029.238,1073.388,7.903,-180.00,0.00,0.00
C01124=1021.135,1076.118,7.924,-180.00,0.00,0.00
C01125=1012.776,1077.958,7.945,-180.00,0.00,0.00
C01126=1004.278,1078.883,7.966,-180.00,0.00,0.00
C01127=995.722,1078.883,7.986,-180.00,0.00,0.00
C01128=987.224,1077.958,8.007,-180.00,0.00,0.00
C01129=978.865,1076.118,8.028,-180.00,0.00,0.00
C01130=970.762,1073.388,8.048,-180.00,0.00,0.00
C01131=962.996,1069.795,8.069,-180.00,0.00,0.00
C01132=955.663,1065.383,8.090,-180.00,0.00,0.00
C01133=948.860,1060.212,8.110,-180.00,0.00,0.00
C01134=942.643,1054.323,8.131,-180.00,0.00,0.00
C01135=937.113,1047.812,8.152,-180.00,0.00,0.00
C01136=932.310,1040.728,8.172,-180.00,0.00,0.00
C01137=928.302,1033.168,8.193,-180.00,0.00,0.00
C01138=925.139,1025.229,8.214,-180.00,0.00,0.00
C01139=922.848,1016.979,8.234,-180.00,0.00,0.00
C01140=921.465,1008.544,8.255,-180.00,0.00,0.00
C01141=921.002,1000.000,8.276,-180.00,0.00,0.00
C01142=921.465,991.456,8.297,-180.00,0.00,0.00
C01143=922.848,983.021,8.317,-180.00,0.00,0.00
C01144=925.139,974.771,8.338,-180.00,0.00,0.00
C01145=928.302,966.832,8.359,-180.00,0.00,0.00
C01146=932.310,959.272,8.379,-180.00,0.00,0.00
C01147=937.113,952.188,8.400,-180.00,0.00,0.00
C01148=942.643,945.677,8.421,-180.00,0.00,0.00
C01149=948.860,939.788,8.441,-180.00,0.00,0.00
C01150=955.663,934.617,8.462,-180.00,0.00,0.00
C01151=962.996,930.205,8.483,-180.00,0.00,0.00
C01152=970.762,926.612,8.503,-180.00,0.00,0.00
C01153=978.865,923.882,8.524,-180.00,0.00,0.00
C01154=987.224,922.042,8.545,-180.00,0.00,0.00
C01155=995.722,921.117,8.566,-180.00,0.00,0.00
C01156=1004.278,921.117,8.586,-180.00,0.00,0.00
C01157=1012.776,922.042,8.607,-180.00,0.00,0.00
C01158=1021.135,923.882,8.628,-180.00,0.00,0.00
C01159=1029.238,926.612,8.648,-180.00,0.00,0.00
C01160=1037.004,930.205,8.669,-180.00,0.00,0.00
C01161=1044.337,934.617,8.690,-180.00,0.00,0.00
C01162=1051.140,939.788,8.710,-180.00,0.00,0.00
C01163=1057.357,945.677,8.731,-180.00,0.00,0.00
C01164=1062.887,952.188,8.752,-180.00,0.00,0.00
C01165=1067.690,959.272,8.772,-180.00,0.00,0.00
C01166=1071.698,966.832,8.793,-180.00,0.00,0.00
C01167=1074.861,974.771,8.814,-180.00,0.00,0.00
C01168=1077.152,983.021,8.834,-180.00,0.00,0.00
C01169=1078.535,991.456,8.855,-180.00,0.00,0.00
C01170=1078.998,1000.000,8.876,-180.00,0.00,0.00
C01171=1078.535,1008.544,8.897,-180.00,0.00,0.00
C01172=1077.152,1016.979,8.917,-180.00,0.00,0.00
C01173=1074.861,1025.229,8.938,-180.00,0.00,0.00
C01174=1071.698,1033.168,8.959,-180.00,0.00,0.00
C01175=1067.690,1040.728,8.979,-180.00,0.00,0.00
C01176=1062.887,1047.812,9.000,-180.00,0.00,0.00
C01177=1057.357,1054.323,9.021,-180.00,0.00,0.00
C01178=1051.140,1060.212,9.041,-180.00,0.00,0.00
C01179=1044.337,1065.383,9.062,-180.00,0.00,0.00
C01180=1037.004,1069.795,9.083,-180.00,0.00,0.00
C01181=1029.238,1073.388,9.103,-180.00,0.00,0.00
C01182=1021.135,1076.118,9.124,-180.00,0.00,0.00
C01183=1012.776,1077.958,9.145,-180.00,0.00,0.00
C01184=1004.278,1078.883,9.166,-180.00,0.00,0.00
C01185=995.722,1078.883,9.186,-180.00,0.00,0.00
C01186=987.224,1077.958,9.207,-180.00,0.00,0.00
C01187=978.865,1076.118,9.228,-180.00,0.00,0.00
C01188=970.762,1073.388,9.248,-180.00,0.00,0.00
C01189=962.996,1069.795,9.269,-180.00,0.00,0.00
C01190=955.663,1065.383,9.290,-180.00,0.00,0.00
C01191=948.860,1060.212,9.310,-180.00,0.00,0.00
C01192=942.643,1054.323,9.331,-180.00,0.00,0.00
C01193=937.113,1047.812,9.352,-180.00,0.00,0.00
C01194=932.310,1040.728,9.372,-180.00,0.00,0.00
C01195=928.302,1033.168,9.393,-180.00,0.00,0.00
C01196=925.139,1025.229,9.414,-180.00,0.00,0.00
C01197=922.848,1016.979,9.434,-180.00,0.00,0.00
C01198=921.465,1008.544,9.455,-180.00,0.00,0.00
C01199=921.002,1000.000,9.476,-180.00,0.00,0.00
C01200=921.465,991.456,9.497,-180.00,0.00,0.00
C01201=922.848,983.021,9.517,-180.00,0.00,0.00
C01202=925.139,974.771,9.538,-180.00,0.00,0.00
C01203=928.302,966.832,9.559,-180.00,0.00,0.00
C01204=932.310,959.272,9.579,-180.00,0.00,0.00
C01205=937.113,952.188,9.600,-180.00,0.00,0.00
C01206=942.643,945.677,9.621,-180.00,0.00,0.00
C01207=948.860,939.788,9.641,-180.00,0.00,0.00
C01208=955.663,934.617,9.662,-180.00,0.00,0.00
C01209=962.996,930.205,9.683,-180.00,0.00,0.00
C01210=970.762,926.612,9.703,-180.00,0.00,0.00
C01211=978.865,923.882,9.724,-180.00,0.00,0.00
C01212=987.224,922.042,9.745,-180.00,0.00,0.00
C01213=995.722,921.117,9.766,-180.00,0.00,0.00
C01214=1004.278,921.117,9.786,-180.00,0.00,0.00
C01215=1012.776,922.042,9.807,-180.00,0.00,0.00
C01216=1021.135,923.882,9.828,-180.00,0.00,0.00
C01217=1029.238,926.612,9.848,-180.00,0.00,0.00
C01218=1037.004,930.205,9.869,-180.00,0.00,0.00
C01219=1044.337,934.617,9.890,-180.00,0.00,0.00
C01220=1051.140,939.788,9.910,-180.00,0.00,0.00
C01221=1057.357,945.677,9.931,-180.00,0.00,0.00
C01222=1062.887,952.188,9.952,-180.00,0.00,0.00
C01223=1067.690,959.272,9.972,-180.00,0.00,0.00
C01224=1071.698,966.832,9.993,-180.00,0.00,0.00
C01225=1074.861,974.771,10.014,-180.00,0.00,0.00
C01226=1077.152,983.021,10.034,-180.00,0.00,0.00
C01227=1078.535,991.456,10.055,-180.00,0.00,0.00
C01228=1078.998,1000.000,10.076,-180.00,0.00,0.00
C01229=1078.535,1008.544,10.097,-180.00,0.00,0.00
C01230=1077.152,1016.979,10.117,-180.00,0.00,0.00
C01231=1074.861,1025.229,10.138,-180.00,0.00,0.00
C01232=1071.698,1033.168,10.159,-180.00,0.00,0.00
C01233=1067.690,1040.728,10.179,-180.00,0.00,0.00
C01234=1062.887,1047.812,10.200,-180.00,0.00,0.00
C01235=1057.357,1054.323,10.221,-180.00,0.00,0.00
C01236=1051.140,1060.212,10.241,-180.00,0.00,0.00
C01237=1044.337,1065.383,10.262,-180.00,0.00,0.00
C01238=1037.004,1069.795,10.283,-180.00,0.00,0.00
C01239=1029.238,1073.388,10.303,-180.00,0.00,0.00
C01240=1021.135,1076.118,10.324,-180.00,0.00,0.00
C01241=1012.776,1077.958,10.345,-180.00,0.00,0.00
C01242=1004.278,1078.883,10.366,-180.00,0.00,0.00
C01243=995.722,1078.883,10.386,-180.00,0.00,0.00
C01244=987.224,1077.958,10.407,-180.00,0.00,0.00
C01245=978.865,1076.118,10.428,-180.00,0.00,0.00
C01246=970.762,1073.388,10.448,-180.00,0.00,0.00
C01247=962.996,1069.795,10.469,-180.00,0.00,0.00
C01248=955.663,1065.383,10.490,-180.00,0.00,0.00
C01249=948.860,1060.212,10.510,-180.00,0.00,0.00
C01250=942.643,1054.323,10.531,-180.00,0.00,0.00
C01251=937.113,1047.812,10.552,-180.00,0.00,0.00
C01252=932.310,1040.728,10.572,-180.00,0.00,0.00
C01253=928.302,1033.168,10.593,-180.00,0.00,0.00
C01254=925.139,1025.229,10.614,-180.00,0.00,0.00
C01255=922.848,1016.979,10.634,-180.00,0.00,0.00
C01256=921.465,1008.544,10.655,-180.00,0.00,0.00
C01257=921.002,1000.000,10.676,-180.00,0.00,0.00
C01258=921.465,991.456,10.697,-180.00,0.00,0.00
C01259=922.848,983.021,10.717,-180.00,0.00,0.00
C01260=925.139,974.771,10.738,-180.00,0.00,0.00
C01261=928.302,966.832,10.759,-180.00,0.00,0.00
C01262=932.310,959.272,10.779,-180.00,0.00,0.00
C01263=937.113,952.188,10.800,-180.00,0.00,0.00
C01264=942.643,945.677,10.821,-180.00,0.00,0.00
C01265=948.860,939.788,10.841,-180.00,0.00,0.00
C01266=955.663,934.617,10.862,-180.00,0.00,0.00
C01267=962.996,930.205,10.883,-180.00,0.00,0.00
C01268=970.762,926.612,10.903,-180.00,0.00,0.00
C01269=978.865,923.882,10.924,-180.00,0.00,0.00
C01270=987.224,922.042,10.945,-180.00,0.00,0.00
C01271=995.722,921.117,10.966,-180.00,0.00,0.00
C01272=1004.278,921.117,10.986,-180.00,0.00,0.00
C01273=1012.776,922.042,11.007,-180.00,0.00,0.00
C01274=1021.135,923.882,11.028,-180.00,0.00,0.00
C01275=1029.238,926.612,11.048,-180.00,0.00,0.00
C01276=1037.004,930.205,11.069,-180.00,0.00,0.00
C01277=1044.337,934.617,11.090,-180.00,0.00,0.00
C01278=1051.140,939.788,11.110,-180.00,0.00,0.00
C01279=1057.357,945.677,11.131,-180.00,0.00,0.00
C01280=1062.887,952.188,11.152,-180.00,0.00,0.00
C01281=1067.690,959.272,11.172,-180.00,0.00,0.00
C01282=1071.698,966.832,11.193,-180.00,0.00,0.00
C01283=1074.861,974.771,11.214,-180.00,0.00,0.00
C01284=1077.152,983.021,11.234,-180.00,0.00,0.00
C01285=1078.535,991.456,11.255,-180.00,0.00,0.00
C01286=1078.998,1000.000,11.276,-180.00,0.00,0.00
C01287=1078.535,1008.544,11.297,-180.00,0.00,0.00
C01288=1077.152,1016.979,11.317,-180.00,0.00,0.00
C01289=1074.861,1025.229,11.338,-180.00,0.00,0.00
C01290=1071.698,1033.168,11.359,-180.00,0.00,0.00
C01291=1067.690,1040.728,11.379,-180.00,0.00,0.00
C01292=1062.887,1047.812,11.400,-180.00,0.00,0.00
C01293=1057.357,1054.323,11.421,-180.00,0.00,0.00
C01294=1051.140,1060.212,11.441,-180.00,0.00,0.00
C01295=1044.337,1065.383,11.462,-180.00,0.00,0.00
C01296=1037.004,1069.795,11.483,-180.00,0.00,0.00
C01297=1029.238,1073.388,11.503,-180.00,0.00,0.00
C01298=1021.135,1076.118,11.524,-180.00,0.00,0.00
C01299=1012.776,1077.958,11.545,-180.00,0.00,0.00
C01300=1004.278,1078.883,11.566,-180.00,0.00,0.00
C01301=995.722,1078.883,11.586,-180.00,0.00,0.00
C01302=987.224,1077.958,11.607,-180.00,0.00,0.00
C01303=978.865,1076.118,11.628,-180.00,0.00,0.00
C01304=970.762,1073.388,11.648,-180.00,0.00,0.00
C01305=962.996,1069.795,11.669,-180.00,0.00,0.00
C01306=955.663,1065.383,11.690,-180.00,0.00,0.00
C01307=948.860,1060.212,11.710,-180.00,0.00,0.00
C01308=942.643,1054.323,11.731,-180.00,0.00,0.00
C01309=937.113,1047.812,11.752,-180.00,0.00,0.00
C01310=932.310,1040.728,11.772,-180.00,0.00,0.00
C01311=928.302,1033.168,11.793,-180.00,0.00,0.00
C01312=925.139,1025.229,11.814,-180.00,0.00,0.00
C01313=922.848,1016.979,11.834,-180.00,0.00,0.00
C01314=921.465,1008.544,11.855,-180.00,0.00,0.00
C01315=921.002,1000.000,11.876,-180.00,0.00,0.00
C01316=921.465,991.456,11.897,-180.00,0.00,0.00
C01317=922.848,983.021,11.917,-180.00,0.00,0.00
C01318=925.139,974.771,11.938,-180.00,0.00,0.00
C01319=928.302,966.832,11.959,-180.00,0.00,0.00
C01320=932.310,959.272,11.979,-180.00,0.00,0.00
C01321=937.113,952.188,12.000,-180.00,0.00,0.00
C01322=942.643,945.677,12.021,-180.00,0.00,0.00
C01323=948.860,939.788,12.041,-180.00,0.00,0.00
C01324=955.663,934.617,12.062,-180.00,0.00,0.00
C01325=962.996,930.205,12.083,-180.00,0.00,0.00
C01326=970.762,926.612,12.103,-180.00,0.00,0.00
C01327=978.865,923.882,12.124,-180.00,0.00,0.00
C01328=987.224,922.042,12.145,-180.00,0.00,0.00
C01329=995.722,921.117,12.166,-180.00,0.00,0.00
C01330=1004.278,921.117,12.186,-180.00,0.00,0.00
C01331=1012.776,922.042,12.207,-180.00,0.00,0.00
C01332=1021.135,923.882,12.228,-180.00,0.00,0.00
C01333=1029.238,926.612,12.248,-180.00,0.00,0.00
C01334=1037.004,930.205,12.269,-180.00,0.00,0.00
C01335=1044.337,934.617,12.290,-180.00,0.00,0.00
C01336=1051.140,939.788,12.310,-180.00,0.00,0.00
C01337=1057.357,945.677,12.331,-180.00,0.00,0.00
C01338=1062.887,952.188,12.352,-180.00,0.00,0.00
C01339=1067.690,959.272,12.372,-180.00,0.00,0.00
C01340=1071.698,966.832,12.393,-180.00,0.00,0.00
C01341=1074.861,974.771,12.414,-180.00,0.00,0.00
C01342=1077.152,983.021,12.434,-180.00,0.00,0.00
C01343=1078.535,991.456,12.455,-180.00,0.00,0.00
C01344=1078.998,1000.000,12.476,-180.00,0.00,0.00
C01345=1078.535,1008.544,12.497,-180.00,0.00,0.00
C01346=1077.152,1016.979,12.517,-180.00,0.00,0.00
C01347=1074.861,1025.229,12.538,-180.00,0.00,0.00
C01348=1071.698,1033.168,12.559,-180.00,0.00,0.00
C01349=1067.690,1040.728,12.579,-180.00,0.00,0.00
C01350=1062.887,1047.812,12.600,-180.00,0.00,0.00
C01351=1057.357,1054.323,12.621,-180.00,0.00,0.00
C01352=1051.140,1060.212,12.641,-180.00,0.00,0.00
C01353=1044.337,1065.383,12.662,-180.00,0.00,0.00
C01354=1037.004,1069.795,12.683,-180.00,0.00,0.00
C01355=1029.238,1073.388,12.703,-180.00,0.00,0.00
C01356=1021.135,1076.118,12.724,-180.00,0.00,0.00
C01357=1012.776,1077.958,12.745,-180.00,0.00,0.00
C01358=1004.278,1078.883,12.766,-180.00,0.00,0.00
C01359=995.722,1078.883,12.786,-180.00,0.00,0.00
C01360=987.224,1077.958,12.807,-180.00,0.00,0.00
C01361=978.865,1076.118,12.828,-180.00,0.00,0.00
C01362=970.762,1073.388,12.848,-180.00,0.00,0.00
C01363=962.996,1069.795,12.869,-180.00,0.00,0.00
C01364=955.663,1065.383,12.890,-180.00,0.00,0.00
C01365=948.860,1060.212,12.910,-180.00,0.00,0.00
C01366=942.643,1054.323,12.931,-180.00,0.00,0.00
C01367=937.113,1047.812,12.952,-180.00,0.00,0.00
C01368=932.310,1040.728,12.972,-180.00,0.00,0.00
C01369=928.302,1033.168,12.993,-180.00,0.00,0.00
C01370=925.139,1025.229,13.014,-180.00,0.00,0.00
C01371=922.848,1016.979,13.034,-180.00,0.00,0.00
C01372=921.465,1008.544,13.055,-180.00,0.00,0.00
C01373=921.002,1000.000,13.076,-180.00,0.00,0.00
C01374=921.465,991.456,13.097,-180.00,0.00,0.00
C01375=922.848,983.021,13.117,-180.00,0.00,0.00
C01376=925.139,974.771,13.138,-180.00,0.00,0.00
C01377=928.302,966.832,13.159,-180.00,0.00,0.00
C01378=932.310,959.272,13.179,-180.00,0.00,0.00
C01379=937.113,952.188,13.200,-180.00,0.00,0.00
C01380=942.643,945.677,13.221,-180.00,0.00,0.00
C01381=948.860,939.788,13.241,-180.00,0.00,0.00
C01382=955.663,934.617,13.262,-180.00,0.00,0.00
C01383=962.996,930.205,13.283,-180.00,0.00,0.00
C01384=970.762,926.612,13.303,-180.00,0.00,0.00
C01385=978.865,923.882,13.324,-180.00,0.00,0.00
C01386=987.224,922.042,13.345,-180.00,0.00,0.00
C01387=995.722,921.117,13.366,-180.00,0.00,0.00
C01388=1004.278,921.117,13.386,-180.00,0.00,0.00
C01389=1012.776,922.042,13.407,-180.00,0.00,0.00
C01390=1021.135,923.882,13.428,-180.00,0.00,0.00
C01391=1029.238,926.612,13.448,-180.00,0.00,0.00
C01392=1037.004,930.205,13.469,-180.00,0.00,0.00
C01393=1044.337,934.617,13.490,-180.00,0.00,0.00
C01394=1051.140,939.788,13.510,-180.00,0.00,0.00
C01395=1057.357,945.677,13.531,-180.00,0.00,0.00
C01396=1062.887,952.188,13.552,-180.00,0.00,0.00
C01397=1067.690,959.272,13.572,-180.00,0.00,0.00
C01398=1071.698,966.832,13.593,-180.00,0.00,0.00
C01399=1074.861,974.771,13.614,-180.00,0.00,0.00
C01400=1077.152,983.021,13.634,-180.00,0.00,0.00
C01401=1078.535,991.456,13.655,-180.00,0.00,0.00
C01402=1078.998,1000.000,13.676,-180.00,0.00,0.00
C01403=1078.535,1008.544,13.697,-180.00,0.00,0.00
C01404=1077.152,1016.979,13.717,-180.00,0.00,0.00
C01405=1074.861,1025.229,13.738,-180.00,0.00,0.00
C01406=1071.698,1033.168,13.759,-180.00,0.00,0.00
C01407=1067.690,1040.728,13.779,-180.00,0.00,0.00
C01408=1062.887,1047.812,13.800,-180.00,0.00,0.00
C01409=1057.357,1054.323,13.821,-180.00,0.00,0.00
C01410=1051.140,1060.212,13.841,-180.00,0.00,0.00
C01411=1044.337,1065.383,13.862,-180.00,0.00,0.00
C01412=1037.004,1069.795,13.883,-180.00,0.00,0.00
C01413=1029.238,1073.388,13.903,-180.00,0.00,0.00
C01414=1021.135,1076.118,13.924,-180.00,0.00,0.00
C01415=1012.776,1077.958,13.945,-180.00,0.00,0.00
C01416=1004.278,1078.883,13.966,-180.00,0.00,0.00
C01417=995.722,1078.883,13.986,-180.00,0.00,0.00
C01418=987.224,1077.958,14.007,-180.00,0.00,0.00
C01419=978.865,1076.118,14.028,-180.00,0.00,0.00
C01420=970.762,1073.388,14.048,-180.00,0.00,0.00
C01421=962.996,1069.795,14.069,-180.00,0.00,0.00
C01422=955.663,1065.383,14.090,-180.00,0.00,0.00
C01423=948.860,1060.212,14.110,-180.00,0.00,0.00
C01424=942.643,1054.323,14.131,-180.00,0.00,0.00
C01425=937.113,1047.812,14.152,-180.00,0.00,0.00
C01426=932.310,1040.728,14.172,-180.00,0.00,0.00
C01427=928.302,1033.168,14.193,-180.00,0.00,0.00
C01428=925.139,1025.229,14.214,-180.00,0.00,0.00
C01429=922.848,1016.979,14.234,-180.00,0.00,0.00
C01430=921.465,1008.544,14.255,-180.00,0.00,0.00
C01431=921.002,1000.000,14.276,-180.00,0.00,0.00
C01432=921.465,991.456,14.297,-180.00,0.00,0.00
C01433=922.848,983.021,14.317,-180.00,0.00,0.00
C01434=925.139,974.771,14.338,-180.00,0.00,0.00
C01435=928.302,966.832,14.359,-180.00,0.00,0.00
C01436=932.310,959.272,14.379,-180.00,0.00,0.00
C01437=937.113,952.188,14.400,-180.00,0.00,0.00
C01438=942.643,945.677,14.421,-180.00,0.00,0.00
C01439=948.860,939.788,14.441,-180.00,0.00,0.00
C01440=955.663,934.617,14.462,-180.00,0.00,0.00
C01441=962.996,930.205,14.483,-180.00,0.00,0.00
C01442=970.762,926.612,14.503,-180.00,0.00,0.00
C01443=978.865,923.882,14.524,-180.00,0.00,0.00
C01444=987.224,922.042,14.545,-180.00,0.00,0.00
C01445=995.722,921.117,14.566,-180.00,0.00,0.00
C01446=1004.278,921.117,14.586,-180.00,0.00,0.00
C01447=551.000,921.117,14.586,-180.00,0.00,0.00
C01448=1021.135,923.882,14.628,-180.00,0.00,0.00
C01449=1029.238,926.612,14.648,-180.00,0.00,0.00
C01450=1037.004,930.205,14.669,-180.00,0.00,0.00
C01451=1044.337,934.617,14.690,-180.00,0.00,0.00
C01452=1051.140,939.788,14.710,-180.00,0.00,0.00
C01453=1057.357,945.677,14.731,-180.00,0.00,0.00
C01454=1062.887,952.188,14.752,-180.00,0.00,0.00
C01455=1067.690,959.272,14.772,-180.00,0.00,0.00
C01456=1071.698,966.832,14.793,-180.00,0.00,0.00
C01457=1074.861,974.771,14.814,-180.00,0.00,0.00
C01458=1077.152,983.021,14.834,-180.00,0.00,0.00
C01459=1078.535,991.456,14.855,-180.00,0.00,0.00
C01460=1078.998,1000.000,14.876,-180.00,0.00,0.00
C01461=1078.535,1008.544,14.897,-180.00,0.00,0.00
C01462=1077.152,1016.979,14.917,-180.00,0.00,0.00
C01463=1074.861,1025.229,14.938,-180.00,0.00,0.00
C01464=1071.698,1033.168,14.959,-180.00,0.00,0.00
C01465=1067.690,1040.728,14.979,-180.00,0.00,0.00
C01466=1062.887,1047.812,15.000,-180.00,0.00,0.00
C01467=1057.357,1054.323,15.021,-180.00,0.00,0.00
C01468=1051.140,1060.212,15.041,-180.00,0.00,0.00
C01469=1044.337,1065.383,15.062,-180.00,0.00,0.00
C01470=1037.004,1069.795,15.083,-180.00,0.00,0.00
C01471=1029.238,1073.388,15.103,-180.00,0.00,0.00
C01472=1021.135,1076.118,15.124,-180.00,0.00,0.00
C01473=1012.776,1077.958,15.145,-180.00,0.00,0.00
C01474=1004.278,1078.883,15.166,-180.00,0.00,0.00
C01475=995.722,1078.883,15.186,-180.00,0.00,0.00
C01476=987.224,1077.958,15.207,-180.00,0.00,0.00
C01477=978.865,1076.118,15.228,-180.00,0.00,0.00
C01478=970.762,1073.388,15.248,-180.00,0.00,0.00
C01479=962.996,1069.795,15.269,-180.00,0.00,0.00
C01480=955.663,1065.383,15.290,-180.00,0.00,0.00
C01481=948.860,1060.212,15.310,-180.00,0.00,0.00
C01482=942.643,1054.323,15.331,-180.00,0.00,0.00
C01483=937.113,1047.812,15.352,-180.00,0.00,0.00
C01484=932.310,1040.728,15.372,-180.00,0.00,0.00
C01485=928.302,1033.168,15.393,-180.00,0.00,0.00
C01486=925.139,1025.229,15.414,-180.00,0.00,0.00
C01487=922.848,1016.979,15.434,-180.00,0.00,0.00
C01488=921.465,1008.544,15.455,-180.00,0.00,0.00
C01489=921.002,1000.000,15.476,-180.00,0.00,0.00
C01490=921.465,991.456,15.497,-180.00,0.00,0.00
C01491=922.848,983.021,15.517,-180.00,0.00,0.00
C01492=925.139,974.771,15.538,-180.00,0.00,0.00
C01493=928.302,966.832,15.559,-180.00,0.00,0.00
C01494=932.310,959.272,15.579,-180.00,0.00,0.00
C01495=937.113,952.188,15.600,-180.00,0.00,0.00
C01496=942.643,945.677,15.621,-180.00,0.00,0.00
C01497=948.860,939.788,15.641,-180.00,0.00,0.00
C01498=955.663,934.617,15.662,-180.00,0.00,0.00
C01499=962.996,930.205,15.683,-180.00,0.00,0.00
C01500=970.762,926.612,15.703,-180.00,0.00,0.00
C01501=978.865,923.882,15.724,-180.00,0.00,0.00
C01502=987.224,922.042,15.745,-180.00,0.00,0.00
C01503=995.722,921.117,15.766,-180.00,0.00,0.00
C01504=1004.278,921.117,15.786,-180.00,0.00,0.00
C01505=1012.776,922.042,15.807,-180.00,0.00,0.00
C01506=1021.135,923.882,15.828,-180.00,0.00,0.00
C01507=1029.238,926.612,15.848,-180.00,0.00,0.00
C01508=1037.004,930.205,15.869,-180.00,0.00,0.00
C01509=1044.337,934.617,15.890,-180.00,0.00,0.00
C01510=1051.140,939.788,15.910,-180.00,0.00,0.00
C01511=1057.357,945.677,15.931,-180.00,0.00,0.00
C01512=1062.887,952.188,15.952,-180.00,0.00,0.00
C01513=1067.690,959.272,15.972,-180.00,0.00,0.00
C01514=1071.698,966.832,15.993,-180.00,0.00,0.00
C01515=1074.861,974.771,16.014,-180.00,0.00,0.00
C01516=1077.152,983.021,16.034,-180.00,0.00,0.00
C01517=1078.535,991.456,16.055,-180.00,0.00,0.00
C01518=1078.998,1000.000,16.076,-180.00,0.00,0.00
C01519=1078.535,1008.544,16.097,-180.00,0.00,0.00
C01520=1077.152,1016.979,16.117,-180.00,0.00,0.00
C01521=1074.861,1025.229,16.138,-180.00,0.00,0.00
C01522=1071.698,1033.168,16.159,-180.00,0.00,0.00
C01523=1067.690,1040.728,16.179,-180.00,0.00,0.00
C01524=1062.887,1047.812,16.200,-180.00,0.00,0.00
C01525=1057.357,1054.323,16.221,-180.00,0.00,0.00
C01526=1051.140,1060.212,16.241,-180.00,0.00,0.00
C01527=1044.337,1065.383,16.262,-180.00,0.00,0.00
C01528=1037.004,1069.795,16.283,-180.00,0.00,0.00
C01529=1029.238,1073.388,16.303,-180.00,0.00,0.00
C01530=1021.135,1076.118,16.324,-180.00,0.00,0.00
C01531=1012.776,1077.958,16.345,-180.00,0.00,0.00
C01532=1004.278,1078.883,16.366,-180.00,0.00,0.00
C01533=995.722,1078.883,16.386,-180.00,0.00,0.00
C01534=987.224,1077.958,16.407,-180.00,0.00,0.00
C01535=978.865,1076.118,16.428,-180.00,0.00,0.00
C01536=970.762,1073.388,16.448,-180.00,0.00,0.00
C01537=962.996,1069.795,16.469,-180.00,0.00,0.00
C01538=955.663,1065.383,16.490,-180.00,0.00,0.00
C01539=948.860,1060.212,16.510,-180.00,0.00,0.00
C01540=942.643,1054.323,16.531,-180.00,0.00,0.00
C01541=937.113,1047.812,16.552,-180.00,0.00,0.00
C01542=932.310,1040.728,16.572,-180.00,0.00,0.00
C01543=928.302,1033.168,16.593,-180.00,0.00,0.00
C01544=925.139,1025.229,16.614,-180.00,0.00,0.00
C01545=922.848,1016.979,16.634,-180.00,0.00,0.00
C01546=921.465,1008.544,16.655,-180.00,0.00,0.00
C01547=921.002,1000.000,16.676,-180.00,0.00,0.00
C01548=921.465,991.456,16.697,-180.00,0.00,0.00
C01549=922.848,983.021,16.717,-180.00,0.00,0.00
C01550=925.139,974.771,16.738,-180.00,0.00,0.00
C01551=928.302,966.832,16.759,-180.00,0.00,0.00
C01552=932.310,959.272,16.779,-180.00,0.00,0.00
C01553=937.113,952.188,16.800,-180.00,0.00,0.00
C01554=942.643,945.677,16.821,-180.00,0.00,0.00
C01555=948.860,939.788,16.841,-180.00,0.00,0.00
C01556=955.663,934.617,16.862,-180.00,0.00,0.00
C01557=962.996,930.205,16.883,-180.00,0.00,0.00
C01558=970.762,926.612,16.903,-180.00,0.00,0.00
C01559=978.865,923.882,16.924,-180.00,0.00,0.00
C01560=987.224,922.042,16.945,-180.00,0.00,0.00
C01561=995.722,921.117,16.966,-180.00,0.00,0.00
C01562=1004.278,921.117,16.986,-180.00,0.00,0.00
C01563=1012.776,922.042,17.007,-180.00,0.00,0.00
C01564=1021.135,923.882,17.028,-180.00,0.00,0.00
C01565=1029.238,926.612,17.048,-180.00,0.00,0.00
C01566=1037.004,930.205,17.069,-180.00,0.00,0.00
C01567=1044.337,934.617,17.090,-180.00,0.00,0.00
C01568=1051.140,939.788,17.110,-180.00,0.00,0.00
C01569=1057.357,945.677,17.131,-180.00,0.00,0.00
C01570=1062.887,952.188,17.152,-180.00,0.00,0.00
C01571=1067.690,959.272,17.172,-180.00,0.00,0.00
C01572=1071.698,966.832,17.193,-180.00,0.00,0.00
C01573=1074.861,974.771,17.214,-180.00,0.00,0.00
C01574=1077.152,983.021,17.234,-180.00,0.00,0.00
C01575=1078.535,991.456,17.255,-180.00,0.00,0.00
C01576=1078.998,1000.000,17.276,-180.00,0.00,0.00
C01577=1078.535,1008.544,17.297,-180.00,0.00,0.00
C01578=1077.152,1016.979,17.317,-180.00,0.00,0.00
C01579=1074.861,1025.229,17.338,-180.00,0.00,0.00
C01580=1071.698,1033.168,17.359,-180.00,0.00,0.00
C01581=1067.690,1040.728,17.379,-180.00,0.00,0.00
C01582=1062.887,1047.812,17.400,-180.00,0.00,0.00
C01583=1057.357,1054.323,17.421,-180.00,0.00,0.00
C01584=1051.140,1060.212,17.441,-180.00,0.00,0.00
C01585=1044.337,1065.383,17.462,-180.00,0.00,0.00
C01586=1037.004,1069.795,17.483,-180.00,0.00,0.00
C01587=1029.238,1073.388,17.503,-180.00,0.00,0.00
C01588=1021.135,1076.118,17.524,-180.00,0.00,0.00
C01589=1012.776,1077.958,17.545,-180.00,0.00,0.00
C01590=1004.278,1078.883,17.566,-180.00,0.00,0.00
C01591=995.722,1078.883,17.586,-180.00,0.00,0.00
C01592=987.224,1077.958,17.607,-180.00,0.00,0.00
C01593=978.865,1076.118,17.628,-180.00,0.00,0.00
C01594=970.762,1073.388,17.648,-180.00,0.00,0.00
C01595=962.996,1069.795,17.669,-180.00,0.00,0.00
C01596=955.663,1065.383,17.690,-180.00,0.00,0.00
C01597=948.860,1060.212,17.710,-180.00,0.00,0.00
C01598=942.643,1054.323,17.731,-180.00,0.00,0.00
C01599=937.113,1047.812,17.752,-180.00,0.00,0.00
C01600=932.310,1040.728,17.772,-180.00,0.00,0.00
C01601=928.302,1033.168,17.793,-180.00,0.00,0.00
C01602=925.139,1025.229,17.814,-180.00,0.00,0.00
C01603=922.848,1016.979,17.834,-180.00,0.00,0.00
C01604=921.465,1008.544,17.855,-180.00,0.00,0.00
C01605=921.002,1000.000,17.876,-180.00,0.00,0.00
C01606=921.465,991.456,17.897,-180.00,0.00,0.00
C01607=922.848,983.021,17.917,-180.00,0.00,0.00
C01608=925.139,974.771,17.938,-180.00,0.00,0.00
C01609=928.302,966.832,17.959,-180.00,0.00,0.00
C01610=932.310,959.272,17.979,-180.00,0.00,0.00
C01611=937.113,952.188,18.000,-180.00,0.00,0.00
C01612=942.643,945.677,18.021,-180.00,0.00,0.00
C01613=948.860,939.788,18.041,-180.00,0.00,0.00
C01614=955.663,934.617,18.062,-180.00,0.00,0.00
C01615=962.996,930.205,18.083,-180.00,0.00,0.00
C01616=970.762,926.612,18.103,-180.00,0.00,0.00
C01617=978.865,923.882,18.124,-180.00,0.00,0.00
C01618=987.224,922.042,18.145,-180.00,0.00,0.00
C01619=995.722,921.117,18.166,-180.00,0.00,0.00
C01620=1004.278,921.117,18.186,-180.00,0.00,0.00
C01621=1012.776,922.042,18.207,-180.00,0.00,0.00
C01622=1021.135,923.882,18.228,-180.00,0.00,0.00
C01623=1029.238,926.612,18.248,-180.00,0.00,0.00
C01624=1037.004,930.205,18.269,-180.00,0.00,0.00
C01625=1044.337,934.617,18.290,-180.00,0.00,0.00
C01626=1051.140,939.788,18.310,-180.00,0.00,0.00
C01627=1057.357,945.677,18.331,-180.00,0.00,0.00
C01628=1062.887,952.188,18.352,-180.00,0.00,0.00
C01629=1067.690,959.272,18.372,-180.00,0.00,0.00
C01630=1071.698,966.832,18.393,-180.00,0.00,0.00
C01631=1074.861,974.771,18.414,-180.00,0.00,0.00
C01632=1077.152,983.021,18.434,-180.00,0.00,0.00
C01633=1078.535,991.456,18.455,-180.00,0.00,0.00
C01634=1078.998,1000.000,18.476,-180.00,0.00,0.00
C01635=1078.535,1008.544,18.497,-180.00,0.00,0.00
C01636=1077.152,1016.979,18.517,-180.00,0.00,0.00
C01637=1074.861,1025.229,18.538,-180.00,0.00,0.00
C01638=1071.698,1033.168,18.559,-180.00,0.00,0.00
C01639=1067.690,1040.728,18.579,-180.00,0.00,0.00
C01640=1062.887,1047.812,18.600,-180.00,0.00,0.00
C01641=1057.357,1054.323,18.621,-180.00,0.00,0.00
C01642=1051.140,1060.212,18.641,-180.00,0.00,0.00
C01643=1044.337,1065.383,18.662,-180.00,0.00,0.00
C01644=1037.004,1069.795,18.683,-180.00,0.00,0.00
C01645=1029.238,1073.388,18.703,-180.00,0.00,0.00
C01646=1021.135,1076.118,18.724,-180.00,0.00,0.00
C01647=1012.776,1077.958,18.745,-180.00,0.00,0.00
C01648=1004.278,1078.883,18.766,-180.00,0.00,0.00
C01649=995.722,1078.883,18.786,-180.00,0.00,0.00
C01650=987.224,1077.958,18.807,-180.00,0.00,0.00
C01651=978.865,1076.118,18.828,-180.00,0.00,0.00
C01652=970.762,1073.388,18.848,-180.00,0.00,0.00
C01653=962.996,1069.795,18.869,-180.00,0.00,0.00
C01654=955.663,1065.383,18.890,-180.00,0.00,0.00
C01655=948.860,1060.212,18.910,-180.00,0.00,0.00
C01656=942.643,1054.323,18.931,-180.00,0.00,0.00
C01657=937.113,1047.812,18.952,-180.00,0.00,0.00
C01658=932.310,1040.728,18.972,-180.00,0.00,0.00
C01659=928.302,1033.168,18.993,-180.00,0.00,0.00
C01660=925.139,1025.229,19.014,-180.00,0.00,0.00
C01661=922.848,1016.979,19.034,-180.00,0.00,0.00
C01662=921.465,1008.544,19.055,-180.00,0.00,0.00
C01663=921.002,1000.000,19.076,-180.00,0.00,0.00
C01664=921.465,991.456,19.097,-180.00,0.00,0.00
C01665=922.848,983.021,19.117,-180.00,0.00,0.00
C01666=925.139,974.771,19.138,-180.00,0.00,0.00
C01667=928.302,966.832,19.159,-180.00,0.00,0.00
C01668=932.310,959.272,19.179,-180.00,0.00,0.00
C01669=937.113,952.188,19.200,-180.00,0.00,0.00
C01670=942.643,945.677,19.221,-180.00,0.00,0.00
C01671=948.860,939.788,19.241,-180.00,0.00,0.00
C01672=955.663,934.617,19.262,-180.00,0.00,0.00
C01673=962.996,930.205,19.283,-180.00,0.00,0.00
C01674=970.762,926.612,19.303,-180.00,0.00,0.00
C01675=978.865,923.882,19.324,-180.00,0.00,0.00
C01676=987.224,922.042,19.345,-180.00,0.00,0.00
C01677=995.722,921.117,19.366,-180.00,0.00,0.00
C01678=1004.278,921.117,19.386,-180.00,0.00,0.00
C01679=1012.776,922.042,19.407,-180.00,0.00,0.00
C01680=1021.135,923.882,19.428,-180.00,0.00,0.00
C01681=1029.238,926.612,19.448,-180.00,0.00,0.00
C01682=1037.004,930.205,19.469,-180.00,0.00,0.00
C01683=1044.337,934.617,19.490,-180.00,0.00,0.00
C01684=1051.140,939.788,19.510,-180.00,0.00,0.00
C01685=1057.357,945.677,19.531,-180.00,0.00,0.00
C01686=1062.887,952.188,19.552,-180.00,0.00,0.00
C01687=1067.690,959.272,19.572,-180.00,0.00,0.00
C01688=1071.698,966.832,19.593,-180.00,0.00,0.00
C01689=1074.861,974.771,19.614,-180.00,0.00,0.00
C01690=1077.152,983.021,19.634,-180.00,0.00,0.00
C01691=1078.535,991.456,19.655,-180.00,0.00,0.00
C01692=1078.998,1000.000,19.676,-180.00,0.00,0.00
C01693=1078.535,1008.544,19.697,-180.00,0.00,0.00
C01694=1077.152,1016.979,19.717,-180.00,0.00,0.00
C01695=1074.861,1025.229,19.738,-180.00,0.00,0.00
C01696=1071.698,1033.168,19.759,-180.00,0.00,0.00
C01697=1067.690,1040.728,19.779,-180.00,0.00,0.00
C01698=1062.887,1047.812,19.800,-180.00,0.00,0.00
C01699=1057.357,1054.323,19.821,-180.00,0.00,0.00
C01700=1051.140,1060.212,19.841,-180.00,0.00,0.00
C01701=1044.337,1065.383,19.862,-180.00,0.00,0.00
C01702=1037.004,1069.795,19.883,-180.00,0.00,0.00
C01703=1029.238,1073.388,19.903,-180.00,0.00,0.00
C01704=1021.135,1076.118,19.924,-180.00,0.00,0.00
C01705=1012.776,1077.958,19.945,-180.00,0.00,0.00
C01706=1004.278,1078.883,19.966,-180.00,0.00,0.00
C01707=995.722,1078.883,19.986,-180.00,0.00,0.00
C01708=987.224,1077.958,20.007,-180.00,0.00,0.00
C01709=978.865,1076.118,20.028,-180.00,0.00,0.00
C01710=970.762,1073.388,20.048,-180.00,0.00,0.00
C01711=962.996,1069.795,20.069,-180.00,0.00,0.00
C01712=955.663,1065.383,20.090,-180.00,0.00,0.00
C01713=948.860,1060.212,20.110,-180.00,0.00,0.00
C01714=942.643,1054.323,20.131,-180.00,0.00,0.00
C01715=937.113,1047.812,20.152,-180.00,0.00,0.00
C01716=932.310,1040.728,20.172,-180.00,0.00,0.00
C01717=928.302,1033.168,20.193,-180.00,0.00,0.00
C01718=925.139,1025.229,20.214,-180.00,0.00,0.00
C01719=922.848,1016.979,20.234,-180.00,0.00,0.00
C01720=921.465,1008.544,20.255,-180.00,0.00,0.00
C01721=921.002,1000.000,20.276,-180.00,0.00,0.00
C01722=921.465,991.456,20.297,-180.00,0.00,0.00
C01723=922.848,983.021,20.317,-180.00,0.00,0.00
C01724=925.139,974.771,20.338,-180.00,0.00,0.00
C01725=928.302,966.832,20.359,-180.00,0.00,0.00
C01726=932.310,959.272,20.379,-180.00,0.00,0.00
C01727=937.113,952.188,20.400,-180.00,0.00,0.00
C01728=942.643,945.677,20.421,-180.00,0.00,0.00
C01729=948.860,939.788,20.441,-180.00,0.00,0.00
C01730=955.663,934.617,20.462,-180.00,0.00,0.00
C01731=962.996,930.205,20.483,-180.00,0.00,0.00
C01732=970.762,926.612,20.503,-180.00,0.00,0.00
C01733=978.865,923.882,20.524,-180.00,0.00,0.00
C01734=987.224,922.042,20.545,-180.00,0.00,0.00
C01735=995.722,921.117,20.566,-180.00,0.00,0.00
C01736=1004.278,921.117,20.586,-180.00,0.00,0.00
C01737=1012.776,922.042,20.607,-180.00,0.00,0.00
C01738=1021.135,923.882,20.628,-180.00,0.00,0.00
C01739=1029.238,926.612,20.648,-180.00,0.00,0.00
C01740=1037.004,930.205,20.669,-180.00,0.00,0.00
C01741=1044.337,934.617,20.690,-180.00,0.00,0.00
C01742=1051.140,939.788,20.710,-180.00,0.00,0.00
C01743=1057.357,945.677,20.731,-180.00,0.00,0.00
C01744=1062.887,952.188,20.752,-180.00,0.00,0.00
C01745=1067.690,959.272,20.772,-180.00,0.00,0.00
C01746=1071.698,966.832,20.793,-180.00,0.00,0.00
C01747=1074.861,974.771,20.814,-180.00,0.00,0.00
C01748=1077.152,983.021,20.834,-180.00,0.00,0.00
C01749=1078.535,991.456,20.855,-180.00,0.00,0.00
C01750=1078.998,1000.000,20.876,-180.00,0.00,0.00
C01751=1078.535,1008.544,20.897,-180.00,0.00,0.00
C01752=1077.152,1016.979,20.917,-180.00,0.00,0.00
C01753=1074.861,1025.229,20.938,-180.00,0.00,0.00
C01754=1071.698,1033.168,20.959,-180.00,0.00,0.00
C01755=1067.690,1040.728,20.979,-180.00,0.00,0.00
C01756=1062.887,1047.812,21.000,-180.00,0.00,0.00
C01757=1057.357,1054.323,21.021,-180.00,0.00,0.00
C01758=1051.140,1060.212,21.041,-180.00,0.00,0.00
C01759=1044.337,1065.383,21.062,-180.00,0.00,0.00
C01760=1037.004,1069.795,21.083,-180.00,0.00,0.00
C01761=1029.238,1073.388,21.103,-180.00,0.00,0.00
C01762=1021.135,1076.118,21.124,-180.00,0.00,0.00
C01763=1012.776,1077.958,21.145,-180.00,0.00,0.00
C01764=1004.278,1078.883,21.166,-180.00,0.00,0.00
C01765=995.722,1078.883,21.186,-180.00,0.00,0.00
C01766=987.224,1077.958,21.207,-180.00,0.00,0.00
C01767=978.865,1076.118,21.228,-180.00,0.00,0.00
C01768=970.762,1073.388,21.248,-180.00,0.00,0.00
C01769=962.996,1069.795,21.269,-180.00,0.00,0.00
C01770=955.663,1065.383,21.290,-180.00,0.00,0.00
C01771=948.860,1060.212,21.310,-180.00,0.00,0.00
C01772=942.643,1054.323,21.331,-180.00,0.00,0.00
C01773=937.113,1047.812,21.352,-180.00,0.00,0.00
C01774=932.310,1040.728,21.372,-180.00,0.00,0.00
C01775=928.302,1033.168,21.393,-180.00,0.00,0.00
C01776=925.139,1025.229,21.414,-180.00,0.00,0.00
C01777=922.848,1016.979,21.434,-180.00,0.00,0.00
C01778=921.465,1008.544,21.455,-180.00,0.00,0.00
C01779=921.002,1000.000,21.476,-180.00,0.00,0.00
C01780=921.465,991.456,21.497,-180.00,0.00,0.00
C01781=922.848,983.021,21.517,-180.00,0.00,0.00
C01782=925.139,974.771,21.538,-180.00,0.00,0.00
C01783=928.302,966.832,21.559,-180.00,0.00,0.00
C01784=932.310,959.272,21.579,-180.00,0.00,0.00
C01785=937.113,952.188,21.600,-180.00,0.00,0.00
C01786=942.643,945.677,21.621,-180.00,0.00,0.00
C01787=948.860,939.788,21.641,-180.00,0.00,0.00
C01788=955.663,934.617,21.662,-180.00,0.00,0.00
C01789=962.996,930.205,21.683,-180.00,0.00,0.00
C01790=970.762,926.612,21.703,-180.00,0.00,0.00
C01791=978.865,923.882,21.724,-180.00,0.00,0.00
C01792=987.224,922.042,21.745,-180.00,0.00,0.00
C01793=995.722,921.117,21.766,-180.00,0.00,0.00
C01794=1004.278,921.117,21.786,-180.00,0.00,0.00
C01795=1012.776,922.042,21.807,-180.00,0.00,0.00
C01796=1021.135,923.882,21.828,-180.00,0.00,0.00
C01797=1029.238,926.612,21.848,-180.00,0.00,0.00
C01798=1037.004,930.205,21.869,-180.00,0.00,0.00
C01799=1044.337,934.617,21.890,-180.00,0.00,0.00
C01800=1051.140,939.788,21.910,-180.00,0.00,0.00
C01801=1057.357,945.677,21.931,-180.00,0.00,0.00
C01802=1062.887,952.188,21.952,-180.00,0.00,0.00
C01803=1067.690,959.272,21.972,-180.00,0.00,0.00
C01804=1071.698,966.832,21.993,-180.00,0.00,0.00
C01805=1074.861,974.771,22.014,-180.00,0.00,0.00
C01806=1077.152,983.021,22.034,-180.00,0.00,0.00
C01807=1078.535,991.456,22.055,-180.00,0.00,0.00
C01808=1078.998,1000.000,22.076,-180.00,0.00,0.00
C01809=1078.535,1008.544,22.097,-180.00,0.00,0.00
C01810=1077.152,1016.979,22.117,-180.00,0.00,0.00
C01811=1074.861,1025.229,22.138,-180.00,0.00,0.00
C01812=1071.698,1033.168,22.159,-180.00,0.00,0.00
C01813=1067.690,1040.728,22.179,-180.00,0.00,0.00
C01814=1062.887,1047.812,22.200,-180.00,0.00,0.00
C01815=1057.357,1054.323,22.221,-180.00,0.00,0.00
C01816=1051.140,1060.212,22.241,-180.00,0.00,0.00
C01817=1044.337,1065.383,22.262,-180.00,0.00,0.00
C01818=1037.004,1069.795,22.283,-180.00,0.00,0.00
C01819=1029.238,1073.388,22.303,-180.00,0.00,0.00
C01820=1021.135,1076.118,22.324,-180.00,0.00,0.00
C01821=1012.776,1077.958,22.345,-180.00,0.00,0.00
C01822=1004.278,1078.883,22.366,-180.00,0.00,0.00
C01823=995.722,1078.883,22.386,-180.00,0.00,0.00
C01824=987.224,1077.958,22.407,-180.00,0.00,0.00
C01825=978.865,1076.118,22.428,-180.00,0.00,0.00
C01826=970.762,1073.388,22.448,-180.00,0.00,0.00
C01827=962.996,1069.795,22.469,-180.00,0.00,0.00
C01828=955.663,1065.383,22.490,-180.00,0.00,0.00
C01829=948.860,1060.212,22.510,-180.00,0.00,0.00
C01830=942.643,1054.323,22.531,-180.00,0.00,0.00
C01831=937.113,1047.812,22.552,-180.00,0.00,0.00
C01832=932.310,1040.728,22.572,-180.00,0.00,0.00
C01833=928.302,1033.168,22.593,-180.00,0.00,0.00
C01834=925.139,1025.229,22.614,-180.00,0.00,0.00
C01835=922.848,1016.979,22.634,-180.00,0.00,0.00
C01836=921.465,1008.544,22.655,-180.00,0.00,0.00
C01837=921.002,1000.000,22.676,-180.00,0.00,0.00
C01838=921.465,991.456,22.697,-180.00,0.00,0.00
C01839=922.848,983.021,22.717,-180.00,0.00,0.00
C01840=925.139,974.771,22.738,-180.00,0.00,0.00
C01841=928.302,966.832,22.759,-180.00,0.00,0.00
C01842=932.310,959.272,22.779,-180.00,0.00,0.00
C01843=937.113,952.188,22.800,-180.00,0.00,0.00
C01844=942.643,945.677,22.821,-180.00,0.00,0.00
C01845=948.860,939.788,22.841,-180.00,0.00,0.00
C01846=955.663,934.617,22.862,-180.00,0.00,0.00
C01847=962.996,930.205,22.883,-180.00,0.00,0.00
C01848=970.762,930.205,22.883,-180.00,0.00,0.00
C01849=978.865,923.882,22.924,-180.00,0.00,0.00
C01850=987.224,922.042,22.945,-180.00,0.00,0.00
C01851=995.722,921.117,22.966,-180.00,0.00,0.00
C01852=1004.278,921.117,22.986,-180.00,0.00,0.00
C01853=1012.776,922.042,23.007,-180.00,0.00,0.00
C01854=1021.135,923.882,23.028,-180.00,0.00,0.00
C01855=1029.238,926.612,23.048,-180.00,0.00,0.00
C01856=1037.004,930.205,23.069,-180.00,0.00,0.00
C01857=1044.337,934.617,23.090,-180.00,0.00,0.00
C01858=1051.140,939.788,23.110,-180.00,0.00,0.00
C01859=1057.357,945.677,23.131,-180.00,0.00,0.00
C01860=1062.887,952.188,23.152,-180.00,0.00,0.00
C01861=1067.690,959.272,23.172,-180.00,0.00,0.00
C01862=1071.698,966.832,23.193,-180.00,0.00,0.00
C01863=1074.861,974.771,23.214,-180.00,0.00,0.00
C01864=1077.152,983.021,23.234,-180.00,0.00,0.00
C01865=1078.535,991.456,23.255,-180.00,0.00,0.00
C01866=1078.998,1000.000,23.276,-180.00,0.00,0.00
C01867=1078.535,1008.544,23.297,-180.00,0.00,0.00
C01868=1077.152,1016.979,23.317,-180.00,0.00,0.00
C01869=1074.861,1025.229,23.338,-180.00,0.00,0.00
C01870=1071.698,1033.168,23.359,-180.00,0.00,0.00
C01871=1067.690,1040.728,23.379,-180.00,0.00,0.00
C01872=1062.887,1047.812,23.400,-180.00,0.00,0.00
C01873=1057.357,1054.323,23.421,-180.00,0.00,0.00
C01874=1051.140,1060.212,23.441,-180.00,0.00,0.00
C01875=1044.337,1065.383,23.462,-180.00,0.00,0.00
C01876=1037.004,1069.795,23.483,-180.00,0.00,0.00
C01877=1029.238,1073.388,23.503,-180.00,0.00,0.00
C01878=1021.135,1076.118,23.524,-180.00,0.00,0.00
C01879=1012.776,1077.958,23.545,-180.00,0.00,0.00
C01880=1004.278,1078.883,23.566,-180.00,0.00,0.00
C01881=995.722,1078.883,23.586,-180.00,0.00,0.00
C01882=987.224,1077.958,23.607,-180.00,0.00,0.00
C01883=978.865,1076.118,23.628,-180.00,0.00,0.00
C01884=970.762,1073.388,23.648,-180.00,0.00,0.00
C01885=962.996,1069.795,23.669,-180.00,0.00,0.00
C01886=955.663,1065.383,23.690,-180.00,0.00,0.00
C01887=948.860,1060.212,23.710,-180.00,0.00,0.00
C01888=942.643,1054.323,23.731,-180.00,0.00,0.00
C01889=937.113,1047.812,23.752,-180.00,0.00,0.00
C01890=932.310,1040.728,23.772,-180.00,0.00,0.00
C01891=928.302,1033.168,23.793,-180.00,0.00,0.00
C01892=925.139,1025.229,23.814,-180.00,0.00,0.00
C01893=922.848,1016.979,23.834,-180.00,0.00,0.00
C01894=921.465,1008.544,23.855,-180.00,0.00,0.00
C01895=921.002,1000.000,23.876,-180.00,0.00,0.00
C01896=921.465,991.456,23.897,-180.00,0.00,0.00
C01897=922.848,983.021,23.917,-180.00,0.00,0.00
C01898=925.139,974.771,23.938,-180.00,0.00,0.00
C01899=928.302,966.832,23.959,-180.00,0.00,0.00
C01900=932.310,959.272,23.979,-180.00,0.00,0.00
C01901=937.113,952.188,24.000,-180.00,0.00,0.00
C01902=942.643,945.677,24.021,-180.00,0.00,0.00
C01903=948.860,939.788,24.041,-180.00,0.00,0.00
C01904=955.663,934.617,24.062,-180.00,0.00,0.00
C01905=962.996,930.205,24.083,-180.00,0.00,0.00
C01906=970.762,926.612,24.103,-180.00,0.00,0.00
C01907=978.865,923.882,24.124,-180.00,0.00,0.00
C01908=987.224,922.042,24.145,-180.00,0.00,0.00
C01909=995.722,921.117,24.166,-180.00,0.00,0.00
C01910=1004.278,921.117,24.186,-180.00,0.00,0.00
C01911=1012.776,922.042,24.207,-180.00,0.00,0.00
C01912=1021.135,923.882,24.228,-180.00,0.00,0.00
C01913=1029.238,926.612,24.248,-180.00,0.00,0.00
C01914=1037.004,930.205,24.269,-180.00,0.00,0.00
C01915=1044.337,934.617,24.290,-180.00,0.00,0.00
C01916=1051.140,939.788,24.310,-180.00,0.00,0.00
C01917=1057.357,945.677,24.331,-180.00,0.00,0.00
C01918=1062.887,952.188,24.352,-180.00,0.00,0.00
C01919=1067.690,959.272,24.372,-180.00,0.00,0.00
C01920=1071.698,966.832,24.393,-180.00,0.00,0.00
C01921=1074.861,974.771,24.414,-180.00,0.00,0.00
C01922=1077.152,983.021,24.434,-180.00,0.00,0.00
C01923=1078.535,991.456,24.455,-180.00,0.00,0.00
C01924=1078.998,1000.000,24.476,-180.00,0.00,0.00
C01925=1078.535,1008.544,24.497,-180.00,0.00,0.00
C01926=1077.152,1016.979,24.517,-180.00,0.00,0.00
C01927=1074.861,1025.229,24.538,-180.00,0.00,0.00
C01928=1071.698,1033.168,24.559,-180.00,0.00,0.00
C01929=1067.690,1040.728,24.579,-180.00,0.00,0.00
C01930=1062.887,1047.812,24.600,-180.00,0.00,0.00
C01931=1057.357,1054.323,24.621,-180.00,0.00,0.00
C01932=1051.140,1060.212,24.641,-180.00,0.00,0.00
C01933=1044.337,1065.383,24.662,-180.00,0.00,0.00
C01934=1037.004,1069.795,24.683,-180.00,0.00,0.00
C01935=1029.238,1073.388,24.703,-180.00,0.00,0.00
C01936=1021.135,1076.118,24.724,-180.00,0.00,0.00
C01937=1012.776,1077.958,24.745,-180.00,0.00,0.00
C01938=1004.278,1078.883,24.766,-180.00,0.00,0.00
C01939=995.722,1078.883,24.786,-180.00,0.00,0.00
C01940=987.224,1077.958,24.807,-180.00,0.00,0.00
C01941=978.865,1076.118,24.828,-180.00,0.00,0.00
C01942=970.762,1073.388,24.848,-180.00,0.00,0.00
C01943=962.996,1069.795,24.869,-180.00,0.00,0.00
C01944=955.663,1065.383,24.890,-180.00,0.00,0.00
C01945=948.860,1060.212,24.910,-180.00,0.00,0.00
C01946=942.643,1054.323,24.931,-180.00,0.00,0.00
C01947=937.113,1047.812,24.952,-180.00,0.00,0.00
C01948=932.310,1040.728,24.972,-180.00,0.00,0.00
C01949=928.302,1033.168,24.993,-180.00,0.00,0.00
C01950=925.139,1025.229,25.014,-180.00,0.00,0.00
C01951=922.848,1016.979,25.034,-180.00,0.00,0.00
C01952=921.465,1008.544,25.055,-180.00,0.00,0.00
C01953=921.002,1000.000,25.076,-180.00,0.00,0.00
C01954=921.465,991.456,25.097,-180.00,0.00,0.00
C01955=922.848,983.021,25.117,-180.00,0.00,0.00
C01956=925.139,974.771,25.138,-180.00,0.00,0.00
C01957=928.302,966.832,25.159,-180.00,0.00,0.00
C01958=932.310,959.272,25.179,-180.00,0.00,0.00
C01959=937.113,952.188,25.200,-180.00,0.00,0.00
C01960=942.643,945.677,25.221,-180.00,0.00,0.00
C01961=948.860,939.788,25.241,-180.00,0.00,0.00
C01962=955.663,934.617,25.262,-180.00,0.00,0.00
C01963=962.996,930.205,25.283,-180.00,0.00,0.00
C01964=970.762,926.612,25.303,-180.00,0.00,0.00
C01965=978.865,923.882,25.324,-180.00,0.00,0.00
C01966=987.224,922.042,25.345,-180.00,0.00,0.00
C01967=995.722,921.117,25.366,-180.00,0.00,0.00
C01968=1004.278,921.117,25.386,-180.00,0.00,0.00
C01969=1012.776,922.042,25.407,-180.00,0.00,0.00
C01970=1021.135,923.882,25.428,-180.00,0.00,0.00
C01971=1029.238,926.612,25.448,-180.00,0.00,0.00
C01972=1037.004,930.205,25.469,-180.00,0.00,0.00
C01973=1044.337,934.617,25.490,-180.00,0.00,0.00
C01974=1051.140,939.788,25.510,-180.00,0.00,0.00
C01975=1057.357,945.677,25.531,-180.00,0.00,0.00
C01976=1062.887,952.188,25.552,-180.00,0.00,0.00
C01977=1067.690,959.272,25.572,-180.00,0.00,0.00
C01978=1071.698,966.832,25.593,-180.00,0.00,0.00
C01979=1074.861,974.771,25.614,-180.00,0.00,0.00
C01980=1077.152,983.021,25.634,-180.00,0.00,0.00
C01981=1078.535,991.456,25.655,-180.00,0.00,0.00
C01982=1078.998,1000.000,25.676,-180.00,0.00,0.00
C01983=1078.535,1008.544,25.697,-180.00,0.00,0.00
C01984=1077.152,1016.979,25.717,-180.00,0.00,0.00
C01985=1074.861,1025.229,25.738,-180.00,0.00,0.00
C01986=1071.698,1033.168,25.759,-180.00,0.00,0.00
C01987=1067.690,1040.728,25.779,-180.00,0.00,0.00
C01988=1062.887,1047.812,25.800,-180.00,0.00,0.00
C01989=1057.357,1054.323,25.821,-180.00,0.00,0.00
C01990=1051.140,1060.212,25.841,-180.00,0.00,0.00
C01991=1044.337,1065.383,25.862,-180.00,0.00,0.00
C01992=1037.004,1069.795,25.883,-180.00,0.00,0.00
C01993=1029.238,1073.388,25.903,-180.00,0.00,0.00
C01994=1021.135,1076.118,25.924,-180.00,0.00,0.00
C01995=1012.776,1077.958,25.945,-180.00,0.00,0.00
C01996=1004.278,1078.883,25.966,-180.00,0.00,0.00
C01997=995.722,1078.883,25.986,-180.00,0.00,0.00
C01998=987.224,1077.958,26.007,-180.00,0.00,0.00
C01999=978.865,1076.118,26.028,-180.00,0.00,0.00
C02000=970.762,1073.388,26.048,-180.00,0.00,0.00
C02001=962.996,1069.795,26.069,-180.00,0.00,0.00
C02002=955.663,1065.383,26.090,-180.00,0.00,0.00
C02003=948.860,1060.212,26.110,-180.00,0.00,0.00
C02004=942.643,1054.323,26.131,-180.00,0.00,0.00
C02005=937.113,1047.812,26.152,-180.00,0.00,0.00
C02006=932.310,1040.728,26.172,-180.00,0.00,0.00
C02007=928.302,1033.168,26.193,-180.00,0.00,0.00
C02008=925.139,1025.229,26.214,-180.00,0.00,0.00
C02009=922.848,1016.979,26.234,-180.00,0.00,0.00
C02010=921.465,1008.544,26.255,-180.00,0.00,0.00
C02011=921.002,1000.000,26.276,-180.00,0.00,0.00
C02012=921.465,991.456,26.297,-180.00,0.00,0.00
C02013=922.848,983.021,26.317,-180.00,0.00,0.00
C02014=925.139,974.771,26.338,-180.00,0.00,0.00
C02015=928.302,966.832,26.359,-180.00,0.00,0.00
C02016=932.310,959.272,26.379,-180.00,0.00,0.00
C02017=937.113,952.188,26.400,-180.00,0.00,0.00
C02018=942.643,945.677,26.421,-180.00,0.00,0.00
C02019=948.860,939.788,26.441,-180.00,0.00,0.00
C02020=955.663,934.617,26.462,-180.00,0.00,0.00
C02021=962.996,930.205,26.483,-180.00,0.00,0.00
C02022=970.762,926.612,26.503,-180.00,0.00,0.00
C02023=978.865,923.882,26.524,-180.00,0.00,0.00
C02024=987.224,922.042,26.545,-180.00,0.00,0.00
C02025=995.722,921.117,26.566,-180.00,0.00,0.00
C02026=1004.278,921.117,26.586,-180.00,0.00,0.00
C02027=1012.776,922.042,26.607,-180.00,0.00,0.00
C02028=1021.135,923.882,26.628,-180.00,0.00,0.00
C02029=1029.238,926.612,26.648,-180.00,0.00,0.00
C02030=1037.004,930.205,26.669,-180.00,0.00,0.00
C02031=1044.337,934.617,26.690,-180.00,0.00,0.00
C02032=1051.140,939.788,26.710,-180.00,0.00,0.00
C02033=1057.357,945.677,26.731,-180.00,0.00,0.00
C02034=1062.887,952.188,26.752,-180.00,0.00,0.00
C02035=1067.690,959.272,26.772,-180.00,0.00,0.00
C02036=1071.698,966.832,26.793,-180.00,0.00,0.00
C02037=1074.861,974.771,26.814,-180.00,0.00,0.00
C02038=1077.152,983.021,26.834,-180.00,0.00,0.00
C02039=1078.535,991.456,26.855,-180.00,0.00,0.00
C02040=1078.998,1000.000,26.876,-180.00,0.00,0.00
C02041=1078.535,1008.544,26.897,-180.00,0.00,0.00
C02042=1077.152,1016.979,26.917,-180.00,0.00,0.00
C02043=1074.861,1025.229,26.938,-180.00,0.00,0.00
C02044=1071.698,1033.168,26.959,-180.00,0.00,0.00
C02045=1067.690,1040.728,26.979,-180.00,0.00,0.00
C02046=1062.887,1047.812,27.000,-180.00,0.00,0.00
C02047=1057.357,1054.323,27.021,-180.00,0.00,0.00
C02048=1051.140,1060.212,27.041,-180.00,0.00,0.00
C02049=1044.337,1065.383,27.062,-180.00,0.00,0.00
C02050=1037.004,1069.795,27.083,-180.00,0.00,0.00
C02051=1029.238,1073.388,27.103,-180.00,0.00,0.00
C02052=1021.135,1076.118,27.124,-180.00,0.00,0.00
C02053=1012.776,1077.958,27.145,-180.00,0.00,0.00
C02054=1004.278,1078.883,27.166,-180.00,0.00,0.00
C02055=995.722,1078.883,27.186,-180.00,0.00,0.00
C02056=987.224,1077.958,27.207,-180.00,0.00,0.00
C02057=978.865,1076.118,27.228,-180.00,0.00,0.00
C02058=970.762,1073.388,27.248,-180.00,0.00,0.00
C02059=962.996,1069.795,27.269,-180.00,0.00,0.00
C02060=955.663,1065.383,27.290,-180.00,0.00,0.00
C02061=948.860,1060.212,27.310,-180.00,0.00,0.00
