/JOB
//NAME output
//POS
///NPOS 1745,0,0,0,0,0
///TOOL 10
///POSTYPE PULSE
///PULSE
///TOOL 10
///POSTYPE BASE
///RECTAN
///RCONF 0,0,0,0,0,0,0,0
C00000=1000.000,1000.000,200.000,-180.00,0.00,0.00
C00001=908.780,1000.001,1.200,-180.00,0.00,0.00
C00002=954.391,1079.000,1.200,-180.00,0.00,0.00
C00003=1045.609,1079.000,1.200,-180.00,0.00,0.00
C00004=1091.220,1000.001,1.200,-180.00,0.00,0.00
C00005=1045.609,921.001,1.200,-180.00,0.00,0.00
C00006=954.391,921.001,1.200,-180.00,0.00,0.00
C00007=908.780,1000.001,1.200,-180.00,0.00,0.00
C00008=909.217,1000.758,1.200,-180.00,0.00,0.00
C00009=911.909,1000.000,1.200,-180.00,0.00,0.00
C00010=910.976,1000.002,1.200,-180.00,0.00,0.00
C00011=955.489,1077.099,1.200,-180.00,0.00,0.00
C00012=1044.511,1077.099,1.200,-180.00,0.00,0.00
C00013=1089.024,1000.001,1.200,-180.00,0.00,0.00
C00014=1044.511,922.902,1.200,-180.00,0.00,0.00
C00015=955.489,922.902,1.200,-180.00,0.00,0.00
C00016=910.976,1000.002,1.200,-180.00,0.00,0.00
C00017=911.909,1000.000,1.200,-180.00,0.00,0.00
C00018=957.304,1076.098,1.200,-180.00,0.00,0.00
C00019=954.372,1073.166,1.200,-180.00,0.00,0.00
C00020=954.019,1072.813,1.200,-180.00,0.00,0.00
C00021=960.132,1076.098,1.200,-180.00,0.00,0.00
C00022=950.509,1066.474,1.200,-180.00,0.00,0.00
C00023=950.156,1066.121,1.200,-180.00,0.00,0.00
C00024=946.645,1059.782,1.200,-180.00,0.00,0.00
C00025=962.961,1076.098,1.200,-180.00,0.00,0.00
C00026=965.789,1076.098,1.200,-180.00,0.00,0.00
C00027=942.781,1053.090,1.200,-180.00,0.00,0.00
C00028=942.428,1052.737,1.200,-180.00,0.00,0.00
C00029=938.918,1046.398,1.200,-180.00,0.00,0.00
C00030=968.618,1076.098,1.200,-180.00,0.00,0.00
C00031=971.446,1076.098,1.200,-180.00,0.00,0.00
C00032=935.053,1039.705,1.200,-180.00,0.00,0.00
C00033=934.700,1039.352,1.200,-180.00,0.00,0.00
C00034=931.190,1033.013,1.200,-180.00,0.00,0.00
C00035=974.274,1076.098,1.200,-180.00,0.00,0.00
C00036=977.103,1076.098,1.200,-180.00,0.00,0.00
C00037=927.326,1026.321,1.200,-180.00,0.00,0.00
C00038=926.973,1025.968,1.200,-180.00,0.00,0.00
C00039=923.462,1019.629,1.200,-180.00,0.00,0.00
C00040=979.931,1076.098,1.200,-180.00,0.00,0.00
C00041=982.760,1076.098,1.200,-180.00,0.00,0.00
C00042=919.599,1012.937,1.200,-180.00,0.00,0.00
C00043=919.246,1012.584,1.200,-180.00,0.00,0.00
C00044=915.735,1006.245,1.200,-180.00,0.00,0.00
C00045=985.588,1076.098,1.200,-180.00,0.00,0.00
C00046=988.417,1076.098,1.200,-180.00,0.00,0.00
C00047=912.200,999.881,1.200,-180.00,0.00,0.00
C00048=913.235,998.088,1.200,-180.00,0.00,0.00
C00049=991.245,1076.098,1.200,-180.00,0.00,0.00
C00050=994.073,1076.098,1.200,-180.00,0.00,0.00
C00051=914.270,996.294,1.200,-180.00,0.00,0.00
C00052=915.305,994.501,1.200,-180.00,0.00,0.00
C00053=996.902,1076.098,1.200,-180.00,0.00,0.00
C00054=999.730,1076.098,1.200,-180.00,0.00,0.00
C00055=916.340,992.708,1.200,-180.00,0.00,0.00
C00056=917.376,990.915,1.200,-180.00,0.00,0.00
C00057=1002.559,1076.098,1.200,-180.00,0.00,0.00
C00058=1005.387,1076.098,1.200,-180.00,0.00,0.00
C00059=918.411,989.122,1.200,-180.00,0.00,0.00
C00060=919.446,987.328,1.200,-180.00,0.00,0.00
C00061=1008.216,1076.098,1.200,-180.00,0.00,0.00
C00062=1011.044,1076.098,1.200,-180.00,0.00,0.00
C00063=920.481,985.535,1.200,-180.00,0.00,0.00
C00064=921.516,983.742,1.200,-180.00,0.00,0.00
C00065=1013.872,1076.098,1.200,-180.00,0.00,0.00
C00066=1016.701,1076.098,1.200,-180.00,0.00,0.00
C00067=922.552,981.949,1.200,-180.00,0.00,0.00
C00068=923.587,980.155,1.200,-180.00,0.00,0.00
C00069=1019.529,1076.098,1.200,-180.00,0.00,0.00
C00070=1022.358,1076.098,1.200,-180.00,0.00,0.00
C00071=924.622,978.362,1.200,-180.00,0.00,0.00
C00072=925.658,976.570,1.200,-180.00,0.00,0.00
C00073=1025.186,1076.098,1.200,-180.00,0.00,0.00
C00074=1028.015,1076.098,1.200,-180.00,0.00,0.00
C00075=926.693,974.776,1.200,-180.00,0.00,0.00
C00076=927.728,972.983,1.200,-180.00,0.00,0.00
C00077=1030.843,1076.098,1.200,-180.00,0.00,0.00
C00078=1033.671,1076.098,1.200,-180.00,0.00,0.00
C00079=928.764,971.190,1.200,-180.00,0.00,0.00
C00080=929.799,969.397,1.200,-180.00,0.00,0.00
C00081=1036.500,1076.098,1.200,-180.00,0.00,0.00
C00082=1039.328,1076.098,1.200,-180.00,0.00,0.00
C00083=930.834,967.604,1.200,-180.00,0.00,0.00
C00084=931.869,965.810,1.200,-180.00,0.00,0.00
C00085=1042.157,1076.098,1.200,-180.00,0.00,0.00
C00086=1044.318,1075.431,1.200,-180.00,0.00,0.00
C00087=932.904,964.017,1.200,-180.00,0.00,0.00
C00088=933.940,962.224,1.200,-180.00,0.00,0.00
C00089=1045.353,1073.638,1.200,-180.00,0.00,0.00
C00090=1046.389,1071.845,1.200,-180.00,0.00,0.00
C00091=934.975,960.431,1.200,-180.00,0.00,0.00
C00092=936.010,958.637,1.200,-180.00,0.00,0.00
C00093=1047.424,1070.051,1.200,-180.00,0.00,0.00
C00094=1048.460,1068.259,1.200,-180.00,0.00,0.00
C00095=937.045,956.844,1.200,-180.00,0.00,0.00
C00096=938.080,955.051,1.200,-180.00,0.00,0.00
C00097=1049.495,1066.466,1.200,-180.00,0.00,0.00
C00098=1050.530,1064.672,1.200,-180.00,0.00,0.00
C00099=939.116,953.258,1.200,-180.00,0.00,0.00
C00100=940.152,951.465,1.200,-180.00,0.00,0.00
C00101=1051.565,1062.879,1.200,-180.00,0.00,0.00
C00102=1052.601,1061.086,1.200,-180.00,0.00,0.00
C00103=941.187,949.672,1.200,-180.00,0.00,0.00
C00104=942.222,947.879,1.200,-180.00,0.00,0.00
C00105=1053.636,1059.293,1.200,-180.00,0.00,0.00
C00106=1054.671,1057.499,1.200,-180.00,0.00,0.00
C00107=943.257,946.086,1.200,-180.00,0.00,0.00
C00108=944.292,944.292,1.200,-180.00,0.00,0.00
C00109=1055.706,1055.706,1.200,-180.00,0.00,0.00
C00110=1056.741,1053.913,1.200,-180.00,0.00,0.00
C00111=945.328,942.499,1.200,-180.00,0.00,0.00
C00112=946.363,940.706,1.200,-180.00,0.00,0.00
C00113=1057.777,1052.120,1.200,-180.00,0.00,0.00
C00114=1058.813,1050.327,1.200,-180.00,0.00,0.00
C00115=947.398,938.913,1.200,-180.00,0.00,0.00
C00116=948.433,937.119,1.200,-180.00,0.00,0.00
C00117=1059.848,1048.534,1.200,-180.00,0.00,0.00
C00118=1060.883,1046.741,1.200,-180.00,0.00,0.00
C00119=949.468,935.326,1.200,-180.00,0.00,0.00
C00120=950.504,933.533,1.200,-180.00,0.00,0.00
C00121=1061.918,1044.948,1.200,-180.00,0.00,0.00
C00122=1062.953,1043.154,1.200,-180.00,0.00,0.00
C00123=951.539,931.740,1.200,-180.00,0.00,0.00
C00124=952.574,929.947,1.200,-180.00,0.00,0.00
C00125=1063.989,1041.361,1.200,-180.00,0.00,0.00
C00126=1065.024,1039.568,1.200,-180.00,0.00,0.00
C00127=953.609,928.153,1.200,-180.00,0.00,0.00
C00128=954.645,926.361,1.200,-180.00,0.00,0.00
C00129=1066.060,1037.775,1.200,-180.00,0.00,0.00
C00130=1067.095,1035.982,1.200,-180.00,0.00,0.00
C00131=955.680,924.568,1.200,-180.00,0.00,0.00
C00132=957.843,923.902,1.200,-180.00,0.00,0.00
C00133=1068.130,1034.189,1.200,-180.00,0.00,0.00
C00134=1069.165,1032.396,1.200,-180.00,0.00,0.00
C00135=960.671,923.902,1.200,-180.00,0.00,0.00
C00136=963.500,923.902,1.200,-180.00,0.00,0.00
C00137=1070.201,1030.603,1.200,-180.00,0.00,0.00
C00138=1071.236,1028.809,1.200,-180.00,0.00,0.00
C00139=966.328,923.902,1.200,-180.00,0.00,0.00
C00140=969.156,923.902,1.200,-180.00,0.00,0.00
C00141=1072.271,1027.016,1.200,-180.00,0.00,0.00
C00142=1073.306,1025.223,1.200,-180.00,0.00,0.00
C00143=971.985,923.902,1.200,-180.00,0.00,0.00
C00144=974.813,923.902,1.200,-180.00,0.00,0.00
C00145=1074.341,1023.430,1.200,-180.00,0.00,0.00
C00146=1075.377,1021.637,1.200,-180.00,0.00,0.00
C00147=977.642,923.902,1.200,-180.00,0.00,0.00
C00148=980.470,923.902,1.200,-180.00,0.00,0.00
C00149=1076.412,1019.844,1.200,-180.00,0.00,0.00
C00150=1077.448,1018.051,1.200,-180.00,0.00,0.00
C00151=983.298,923.902,1.200,-180.00,0.00,0.00
C00152=986.127,923.902,1.200,-180.00,0.00,0.00
C00153=1078.483,1016.257,1.200,-180.00,0.00,0.00
C00154=1079.518,1014.464,1.200,-180.00,0.00,0.00
C00155=988.955,923.902,1.200,-180.00,0.00,0.00
C00156=991.784,923.902,1.200,-180.00,0.00,0.00
C00157=1080.553,1012.671,1.200,-180.00,0.00,0.00
C00158=1081.588,1010.878,1.200,-180.00,0.00,0.00
C00159=994.612,923.902,1.200,-180.00,0.00,0.00
C00160=997.441,923.902,1.200,-180.00,0.00,0.00
C00161=1082.624,1009.085,1.200,-180.00,0.00,0.00
C00162=1083.659,1007.291,1.200,-180.00,0.00,0.00
C00163=1000.269,923.902,1.200,-180.00,0.00,0.00
C00164=1003.097,923.902,1.200,-180.00,0.00,0.00
C00165=1084.695,1005.499,1.200,-180.00,0.00,0.00
C00166=1085.730,1003.706,1.200,-180.00,0.00,0.00
C00167=1005.926,923.902,1.200,-180.00,0.00,0.00
C00168=1008.754,923.902,1.200,-180.00,0.00,0.00
C00169=1086.765,1001.912,1.200,-180.00,0.00,0.00
C00170=1087.800,1000.119,1.200,-180.00,0.00,0.00
C00171=1011.583,923.902,1.200,-180.00,0.00,0.00
C00172=1014.411,923.902,1.200,-180.00,0.00,0.00
C00173=1084.260,993.750,1.200,-180.00,0.00,0.00
C00174=1084.613,994.103,1.200,-180.00,0.00,0.00
C00175=1080.396,987.058,1.200,-180.00,0.00,0.00
C00176=1017.240,923.902,1.200,-180.00,0.00,0.00
C00177=1020.068,923.902,1.200,-180.00,0.00,0.00
C00178=1076.533,980.366,1.200,-180.00,0.00,0.00
C00179=1076.886,980.719,1.200,-180.00,0.00,0.00
C00180=1072.669,973.674,1.200,-180.00,0.00,0.00
C00181=1022.896,923.902,1.200,-180.00,0.00,0.00
C00182=1025.725,923.902,1.200,-180.00,0.00,0.00
C00183=1068.805,966.982,1.200,-180.00,0.00,0.00
C00184=1069.158,967.335,1.200,-180.00,0.00,0.00
C00185=1064.942,960.290,1.200,-180.00,0.00,0.00
C00186=1028.553,923.902,1.200,-180.00,0.00,0.00
C00187=1031.382,923.902,1.200,-180.00,0.00,0.00
C00188=1061.078,953.598,1.200,-180.00,0.00,0.00
C00189=1061.431,953.951,1.200,-180.00,0.00,0.00
C00190=1057.214,946.906,1.200,-180.00,0.00,0.00
C00191=1034.210,923.902,1.200,-180.00,0.00,0.00
C00192=1037.039,923.902,1.200,-180.00,0.00,0.00
C00193=1053.351,940.214,1.200,-180.00,0.00,0.00
C00194=1053.704,940.567,1.200,-180.00,0.00,0.00
C00195=1049.487,933.522,1.200,-180.00,0.00,0.00
C00196=1039.867,923.902,1.200,-180.00,0.00,0.00
C00197=1042.695,923.902,1.200,-180.00,0.00,0.00
C00198=1045.624,926.830,1.200,-180.00,0.00,0.00
C00199=1045.977,927.183,1.200,-180.00,0.00,0.00
C00200=1044.374,928.107,1.200,-180.00,0.00,0.00
C00201=1044.374,928.107,2.400,-180.00,0.00,0.00
C00202=920.327,1000.001,2.400,-180.00,0.00,0.00
C00203=940.246,1034.500,2.400,-180.00,0.00,0.00
C00204=960.164,1069.000,2.400,-180.00,0.00,0.00
C00205=1039.836,1069.000,2.400,-180.00,0.00,0.00
C00206=1079.673,1000.001,2.400,-180.00,0.00,0.00
C00207=1039.836,931.001,2.400,-180.00,0.00,0.00
C00208=960.164,931.001,2.400,-180.00,0.00,0.00
C00209=920.327,1000.001,2.400,-180.00,0.00,0.00
C00210=918.018,1000.001,2.400,-180.00,0.00,0.00
C00211=938.514,1035.500,2.400,-180.00,0.00,0.00
C00212=959.010,1071.000,2.400,-180.00,0.00,0.00
C00213=1040.990,1071.000,2.400,-180.00,0.00,0.00
C00214=1081.982,1000.001,2.400,-180.00,0.00,0.00
C00215=1040.990,929.001,2.400,-180.00,0.00,0.00
C00216=959.010,929.001,2.400,-180.00,0.00,0.00
C00217=918.018,1000.001,2.400,-180.00,0.00,0.00
C00218=915.709,1000.001,2.400,-180.00,0.00,0.00
C00219=936.782,1036.500,2.400,-180.00,0.00,0.00
C00220=957.855,1073.000,2.400,-180.00,0.00,0.00
C00221=1042.145,1073.000,2.400,-180.00,0.00,0.00
C00222=1084.291,1000.001,2.400,-180.00,0.00,0.00
C00223=1042.145,927.001,2.400,-180.00,0.00,0.00
C00224=957.855,927.001,2.400,-180.00,0.00,0.00
C00225=915.709,1000.001,2.400,-180.00,0.00,0.00
C00226=913.399,1000.001,2.400,-180.00,0.00,0.00
C00227=935.050,1037.500,2.400,-180.00,0.00,0.00
C00228=956.700,1075.000,2.400,-180.00,0.00,0.00
C00229=1043.300,1075.000,2.400,-180.00,0.00,0.00
C00230=1086.601,1000.001,2.400,-180.00,0.00,0.00
C00231=1043.300,925.001,2.400,-180.00,0.00,0.00
C00232=956.700,925.001,2.400,-180.00,0.00,0.00
C00233=913.399,1000.001,2.400,-180.00,0.00,0.00
C00234=911.909,1000.000,2.400,-180.00,0.00,0.00
C00235=911.090,1000.001,2.400,-180.00,0.00,0.00
C00236=933.318,1038.500,2.400,-180.00,0.00,0.00
C00237=955.546,1077.000,2.400,-180.00,0.00,0.00
C00238=1044.454,1077.000,2.400,-180.00,0.00,0.00
C00239=1088.910,1000.001,2.400,-180.00,0.00,0.00
C00240=1044.454,923.001,2.400,-180.00,0.00,0.00
C00241=955.546,923.001,2.400,-180.00,0.00,0.00
C00242=911.090,1000.001,2.400,-180.00,0.00,0.00
C00243=911.909,1000.000,2.400,-180.00,0.00,0.00
C00244=908.780,1000.001,2.400,-180.00,0.00,0.00
C00245=931.586,1039.500,2.400,-180.00,0.00,0.00
C00246=954.391,1079.000,2.400,-180.00,0.00,0.00
C00247=1045.609,1079.000,2.400,-180.00,0.00,0.00
C00248=1091.220,1000.001,2.400,-180.00,0.00,0.00
C00249=1045.609,921.001,2.400,-180.00,0.00,0.00
C00250=954.391,921.001,2.400,-180.00,0.00,0.00
C00251=908.780,1000.001,2.400,-180.00,0.00,0.00
C00252=909.217,1000.758,2.400,-180.00,0.00,0.00
C00253=911.909,1000.000,2.400,-180.00,0.00,0.00
C00254=922.523,1000.001,2.400,-180.00,0.00,0.00
C00255=961.263,1067.100,2.400,-180.00,0.00,0.00
C00256=1038.737,1067.100,2.400,-180.00,0.00,0.00
C00257=1077.477,1000.002,2.400,-180.00,0.00,0.00
C00258=1038.737,932.902,2.400,-180.00,0.00,0.00
C00259=961.263,932.902,2.400,-180.00,0.00,0.00
C00260=922.523,1000.001,2.400,-180.00,0.00,0.00
C00261=962.709,933.901,2.400,-180.00,0.00,0.00
C00262=960.651,935.959,2.400,-180.00,0.00,0.00
C00263=965.537,933.901,2.400,-180.00,0.00,0.00
C00264=956.788,942.651,2.400,-180.00,0.00,0.00
C00265=956.435,943.004,2.400,-180.00,0.00,0.00
C00266=952.924,949.343,2.400,-180.00,0.00,0.00
C00267=968.366,933.901,2.400,-180.00,0.00,0.00
C00268=971.194,933.901,2.400,-180.00,0.00,0.00
C00269=949.060,956.035,2.400,-180.00,0.00,0.00
C00270=948.707,956.388,2.400,-180.00,0.00,0.00
C00271=945.197,962.727,2.400,-180.00,0.00,0.00
C00272=974.023,933.901,2.400,-180.00,0.00,0.00
C00273=976.851,933.901,2.400,-180.00,0.00,0.00
C00274=941.333,969.419,2.400,-180.00,0.00,0.00
C00275=940.980,969.772,2.400,-180.00,0.00,0.00
C00276=937.469,976.111,2.400,-180.00,0.00,0.00
C00277=979.680,933.901,2.400,-180.00,0.00,0.00
C00278=982.508,933.901,2.400,-180.00,0.00,0.00
C00279=933.606,982.804,2.400,-180.00,0.00,0.00
C00280=933.253,983.157,2.400,-180.00,0.00,0.00
C00281=929.742,989.496,2.400,-180.00,0.00,0.00
C00282=985.336,933.901,2.400,-180.00,0.00,0.00
C00283=988.165,933.901,2.400,-180.00,0.00,0.00
C00284=925.878,996.188,2.400,-180.00,0.00,0.00
C00285=925.525,996.541,2.400,-180.00,0.00,0.00
C00286=924.124,1000.771,2.400,-180.00,0.00,0.00
C00287=990.993,933.901,2.400,-180.00,0.00,0.00
C00288=993.822,933.901,2.400,-180.00,0.00,0.00
C00289=925.159,1002.564,2.400,-180.00,0.00,0.00
C00290=926.194,1004.358,2.400,-180.00,0.00,0.00
C00291=996.650,933.901,2.400,-180.00,0.00,0.00
C00292=999.479,933.901,2.400,-180.00,0.00,0.00
C00293=927.229,1006.151,2.400,-180.00,0.00,0.00
C00294=928.264,1007.944,2.400,-180.00,0.00,0.00
C00295=1002.307,933.901,2.400,-180.00,0.00,0.00
C00296=1005.135,933.901,2.400,-180.00,0.00,0.00
C00297=929.300,1009.737,2.400,-180.00,0.00,0.00
C00298=930.335,1011.530,2.400,-180.00,0.00,0.00
C00299=1007.964,933.901,2.400,-180.00,0.00,0.00
C00300=1010.792,933.901,2.400,-180.00,0.00,0.00
C00301=931.371,1013.323,2.400,-180.00,0.00,0.00
C00302=932.406,1015.116,2.400,-180.00,0.00,0.00
C00303=1013.621,933.901,2.400,-180.00,0.00,0.00
C00304=1016.449,933.901,2.400,-180.00,0.00,0.00
C00305=933.441,1016.909,2.400,-180.00,0.00,0.00
C00306=934.476,1018.703,2.400,-180.00,0.00,0.00
C00307=1019.278,933.901,2.400,-180.00,0.00,0.00
C00308=1022.106,933.901,2.400,-180.00,0.00,0.00
C00309=935.512,1020.496,2.400,-180.00,0.00,0.00
C00310=936.547,1022.289,2.400,-180.00,0.00,0.00
C00311=1024.934,933.901,2.400,-180.00,0.00,0.00
C00312=1027.763,933.901,2.400,-180.00,0.00,0.00
C00313=937.582,1024.082,2.400,-180.00,0.00,0.00
C00314=938.617,1025.876,2.400,-180.00,0.00,0.00
C00315=1030.591,933.901,2.400,-180.00,0.00,0.00
C00316=1033.420,933.901,2.400,-180.00,0.00,0.00
C00317=939.652,1027.669,2.400,-180.00,0.00,0.00
C00318=940.688,1029.461,2.400,-180.00,0.00,0.00
C00319=1036.248,933.901,2.400,-180.00,0.00,0.00
C00320=1038.495,934.483,2.400,-180.00,0.00,0.00
C00321=941.723,1031.254,2.400,-180.00,0.00,0.00
C00322=942.759,1033.048,2.400,-180.00,0.00,0.00
C00323=1039.530,936.277,2.400,-180.00,0.00,0.00
C00324=1040.565,938.070,2.400,-180.00,0.00,0.00
C00325=943.794,1034.841,2.400,-180.00,0.00,0.00
C00326=944.829,1036.634,2.400,-180.00,0.00,0.00
C00327=1041.600,939.863,2.400,-180.00,0.00,0.00
C00328=1042.635,941.656,2.400,-180.00,0.00,0.00
C00329=945.864,1038.427,2.400,-180.00,0.00,0.00
C00330=946.899,1040.221,2.400,-180.00,0.00,0.00
C00331=1043.671,943.449,2.400,-180.00,0.00,0.00
C00332=1044.706,945.243,2.400,-180.00,0.00,0.00
C00333=947.935,1042.014,2.400,-180.00,0.00,0.00
C00334=948.970,1043.807,2.400,-180.00,0.00,0.00
C00335=1045.741,947.036,2.400,-180.00,0.00,0.00
C00336=1046.776,948.829,2.400,-180.00,0.00,0.00
C00337=950.006,1045.600,2.400,-180.00,0.00,0.00
C00338=951.041,1047.393,2.400,-180.00,0.00,0.00
C00339=1047.811,950.622,2.400,-180.00,0.00,0.00
C00340=1048.847,952.416,2.400,-180.00,0.00,0.00
C00341=952.076,1049.186,2.400,-180.00,0.00,0.00
C00342=953.111,1050.979,2.400,-180.00,0.00,0.00
C00343=1049.882,954.209,2.400,-180.00,0.00,0.00
C00344=1050.918,956.001,2.400,-180.00,0.00,0.00
C00345=954.147,1052.772,2.400,-180.00,0.00,0.00
C00346=955.182,1054.566,2.400,-180.00,0.00,0.00
C00347=1051.953,957.795,2.400,-180.00,0.00,0.00
C00348=1052.988,959.588,2.400,-180.00,0.00,0.00
C00349=956.217,1056.359,2.400,-180.00,0.00,0.00
C00350=957.252,1058.152,2.400,-180.00,0.00,0.00
C00351=1054.023,961.381,2.400,-180.00,0.00,0.00
C00352=1055.059,963.174,2.400,-180.00,0.00,0.00
C00353=958.287,1059.945,2.400,-180.00,0.00,0.00
C00354=959.323,1061.738,2.400,-180.00,0.00,0.00
C00355=1056.094,964.967,2.400,-180.00,0.00,0.00
C00356=1057.129,966.761,2.400,-180.00,0.00,0.00
C00357=960.359,1063.531,2.400,-180.00,0.00,0.00
C00358=961.394,1065.324,2.400,-180.00,0.00,0.00
C00359=1058.164,968.554,2.400,-180.00,0.00,0.00
C00360=1059.199,970.347,2.400,-180.00,0.00,0.00
C00361=963.448,1066.099,2.400,-180.00,0.00,0.00
C00362=966.276,1066.099,2.400,-180.00,0.00,0.00
C00363=1060.235,972.140,2.400,-180.00,0.00,0.00
C00364=1061.270,973.934,2.400,-180.00,0.00,0.00
C00365=969.105,1066.099,2.400,-180.00,0.00,0.00
C00366=971.933,1066.099,2.400,-180.00,0.00,0.00
C00367=1062.305,975.727,2.400,-180.00,0.00,0.00
C00368=1063.341,977.519,2.400,-180.00,0.00,0.00
C00369=974.762,1066.099,2.400,-180.00,0.00,0.00
C00370=977.590,1066.099,2.400,-180.00,0.00,0.00
C00371=1064.376,979.313,2.400,-180.00,0.00,0.00
C00372=1065.411,981.106,2.400,-180.00,0.00,0.00
C00373=980.418,1066.099,2.400,-180.00,0.00,0.00
C00374=983.247,1066.099,2.400,-180.00,0.00,0.00
C00375=1066.446,982.899,2.400,-180.00,0.00,0.00
C00376=1067.482,984.692,2.400,-180.00,0.00,0.00
C00377=986.075,1066.099,2.400,-180.00,0.00,0.00
C00378=988.904,1066.099,2.400,-180.00,0.00,0.00
C00379=1068.517,986.485,2.400,-180.00,0.00,0.00
C00380=1069.552,988.279,2.400,-180.00,0.00,0.00
C00381=991.732,1066.099,2.400,-180.00,0.00,0.00
C00382=994.561,1066.099,2.400,-180.00,0.00,0.00
C00383=1070.587,990.072,2.400,-180.00,0.00,0.00
C00384=1071.623,991.865,2.400,-180.00,0.00,0.00
C00385=997.389,1066.099,2.400,-180.00,0.00,0.00
C00386=1000.217,1066.099,2.400,-180.00,0.00,0.00
C00387=1072.658,993.658,2.400,-180.00,0.00,0.00
C00388=1073.693,995.452,2.400,-180.00,0.00,0.00
C00389=1003.046,1066.099,2.400,-180.00,0.00,0.00
C00390=1005.874,1066.099,2.400,-180.00,0.00,0.00
C00391=1074.728,997.245,2.400,-180.00,0.00,0.00
C00392=1075.764,999.037,2.400,-180.00,0.00,0.00
C00393=1008.703,1066.099,2.400,-180.00,0.00,0.00
C00394=1011.531,1066.099,2.400,-180.00,0.00,0.00
C00395=1074.533,1003.097,2.400,-180.00,0.00,0.00
C00396=1074.886,1002.744,2.400,-180.00,0.00,0.00
C00397=1070.669,1009.789,2.400,-180.00,0.00,0.00
C00398=1014.360,1066.099,2.400,-180.00,0.00,0.00
C00399=1017.188,1066.099,2.400,-180.00,0.00,0.00
C00400=1066.806,1016.481,2.400,-180.00,0.00,0.00
C00401=1067.159,1016.128,2.400,-180.00,0.00,0.00
C00402=1062.942,1023.173,2.400,-180.00,0.00,0.00
C00403=1020.016,1066.099,2.400,-180.00,0.00,0.00
C00404=1022.845,1066.099,2.400,-180.00,0.00,0.00
C00405=1059.078,1029.865,2.400,-180.00,0.00,0.00
C00406=1059.431,1029.512,2.400,-180.00,0.00,0.00
C00407=1055.215,1036.557,2.400,-180.00,0.00,0.00
C00408=1025.673,1066.099,2.400,-180.00,0.00,0.00
C00409=1028.502,1066.099,2.400,-180.00,0.00,0.00
C00410=1051.351,1043.249,2.400,-180.00,0.00,0.00
C00411=1051.704,1042.896,2.400,-180.00,0.00,0.00
C00412=1047.488,1049.941,2.400,-180.00,0.00,0.00
C00413=1031.330,1066.099,2.400,-180.00,0.00,0.00
C00414=1034.159,1066.099,2.400,-180.00,0.00,0.00
C00415=1043.624,1056.633,2.400,-180.00,0.00,0.00
C00416=1043.977,1056.280,2.400,-180.00,0.00,0.00
C00417=1039.760,1063.325,2.400,-180.00,0.00,0.00
C00418=1036.987,1066.099,2.400,-180.00,0.00,0.00
C00419=1036.987,1066.099,3.600,-180.00,0.00,0.00
C00420=911.909,1000.000,3.600,-180.00,0.00,0.00
C00421=908.779,1000.000,3.600,-180.00,0.00,0.00
C00422=954.389,921.000,3.600,-180.00,0.00,0.00
C00423=1045.611,921.000,3.600,-180.00,0.00,0.00
C00424=1091.221,1000.000,3.600,-180.00,0.00,0.00
C00425=1045.611,1079.000,3.600,-180.00,0.00,0.00
C00426=954.389,1079.000,3.600,-180.00,0.00,0.00
C00427=908.779,1000.000,3.600,-180.00,0.00,0.00
C00428=954.389,921.000,3.800,-180.00,0.00,0.00
C00429=1045.611,921.000,4.000,-180.00,0.00,0.00
C00430=1091.221,1000.000,4.200,-180.00,0.00,0.00
C00431=1045.611,1079.000,4.400,-180.00,0.00,0.00
C00432=954.389,1079.000,4.600,-180.00,0.00,0.00
C00433=908.779,1000.000,4.800,-180.00,0.00,0.00
C00434=954.389,921.000,5.000,-180.00,0.00,0.00
C00435=1045.611,921.000,5.200,-180.00,0.00,0.00
C00436=1091.221,1000.000,5.400,-180.00,0.00,0.00
C00437=1045.611,1079.000,5.600,-180.00,0.00,0.00
C00438=954.389,1079.000,5.800,-180.00,0.00,0.00
C00439=908.779,1000.000,6.000,-180.00,0.00,0.00
C00440=954.389,921.000,6.200,-180.00,0.00,0.00
C00441=1045.611,921.000,6.400,-180.00,0.00,0.00
C00442=1091.221,1000.000,6.600,-180.00,0.00,0.00
C00443=1045.611,1079.000,6.800,-180.00,0.00,0.00
C00444=954.389,1079.000,7.000,-180.00,0.00,0.00
C00445=908.779,1000.000,7.200,-180.00,0.00,0.00
C00446=954.389,921.000,7.400,-180.00,0.00,0.00
C00447=1045.611,921.000,7.600,-180.00,0.00,0.00
C00448=1091.221,1000.000,7.800,-180.00,0.00,0.00
C00449=1045.611,1079.000,8.000,-180.00,0.00,0.00
C00450=954.389,1079.000,8.200,-180.00,0.00,0.00
C00451=908.779,1000.000,8.400,-180.00,0.00,0.00
C00452=954.389,921.000,8.600,-180.00,0.00,0.00
C00453=1045.611,921.000,8.800,-180.00,0.00,0.00
C00454=1091.221,1000.000,9.000,-180.00,0.00,0.00
C00455=1045.611,1079.000,9.200,-180.00,0.00,0.00
C00456=954.389,1079.000,9.400,-180.00,0.00,0.00
C00457=908.779,1000.000,9.600,-180.00,0.00,0.00
C00458=954.389,921.000,9.800,-180.00,0.00,0.00
C00459=1045.611,921.000,10.000,-180.00,0.00,0.00
C00460=1091.221,1000.000,10.200,-180.00,0.00,0.00
C00461=1045.611,1079.000,10.400,-180.00,0.00,0.00
C00462=954.389,1079.000,10.600,-180.00,0.00,0.00
C00463=908.779,1000.000,10.800,-180.00,0.00,0.00
C00464=954.389,921.000,11.000,-180.00,0.00,0.00
C00465=1045.611,921.000,11.200,-180.00,0.00,0.00
C00466=1091.221,1000.000,11.400,-180.00,0.00,0.00
C00467=1045.611,1079.000,11.600,-180.00,0.00,0.00
C00468=954.389,1079.000,11.800,-180.00,0.00,0.00
C00469=908.779,1000.000,12.000,-180.00,0.00,0.00
C00470=954.389,921.000,12.200,-180.00,0.00,0.00
C00471=1045.611,921.000,12.400,-180.00,0.00,0.00
C00472=1091.221,1000.000,12.600,-180.00,0.00,0.00
C00473=1045.611,1079.000,12.800,-180.00,0.00,0.00
C00474=954.389,1079.000,13.000,-180.00,0.00,0.00
C00475=908.779,1000.000,13.200,-180.00,0.00,0.00
C00476=954.389,921.000,13.400,-180.00,0.00,0.00
C00477=1045.611,921.000,13.600,-180.00,0.00,0.00
C00478=1091.221,1000.000,13.800,-180.00,0.00,0.00
C00479=1045.611,1079.000,14.000,-180.00,0.00,0.00
C00480=954.389,1079.000,14.200,-180.00,0.00,0.00
C00481=908.779,1000.000,14.400,-180.00,0.00,0.00
C00482=954.389,921.000,14.600,-180.00,0.00,0.00
C00483=1045.611,921.000,14.800,-180.00,0.00,0.00
C00484=1091.221,1000.000,15.000,-180.00,0.00,0.00
C00485=1045.611,1079.000,15.200,-180.00,0.00,0.00
C00486=954.389,1079.000,15.400,-180.00,0.00,0.00
C00487=908.779,1000.000,15.600,-180.00,0.00,0.00
C00488=954.389,921.000,15.800,-180.00,0.00,0.00
C00489=1045.611,921.000,16.000,-180.00,0.00,0.00
C00490=1091.221,1000.000,16.200,-180.00,0.00,0.00
C00491=1045.611,1079.000,16.400,-180.00,0.00,0.00
C00492=954.389,1079.000,16.600,-180.00,0.00,0.00
C00493=908.779,1000.000,16.800,-180.00,0.00,0.00
C00494=954.389,921.000,17.000,-180.00,0.00,0.00
C00495=1045.611,921.000,17.200,-180.00,0.00,0.00
C00496=1091.221,1000.000,17.400,-180.00,0.00,0.00
C00497=1045.611,1079.000,17.600,-180.00,0.00,0.00
C00498=954.389,1079.000,17.800,-180.00,0.00,0.00
C00499=908.779,1000.000,18.000,-180.00,0.00,0.00
C00500=954.389,921.000,18.200,-180.00,0.00,0.00
C00501=1045.611,921.000,18.400,-180.00,0.00,0.00
C00502=1091.221,1000.000,18.600,-180.00,0.00,0.00
C00503=1045.611,1079.000,18.800,-180.00,0.00,0.00
C00504=954.389,1079.000,19.000,-180.00,0.00,0.00
C00505=908.779,1000.000,19.200,-180.00,0.00,0.00
C00506=954.389,921.000,19.400,-180.00,0.00,0.00
C00507=1045.611,921.000,19.600,-180.00,0.00,0.00
C00508=1091.221,1000.000,19.800,-180.00,0.00,0.00
C00509=1045.611,1079.000,20.000,-180.00,0.00,0.00
C00510=954.389,1079.000,20.200,-180.00,0.00,0.00
C00511=908.779,1000.000,20.400,-180.00,0.00,0.00
C00512=954.389,921.000,20.600,-180.00,0.00,0.00
C00513=1045.611,921.000,20.800,-180.00,0.00,0.00
C00514=1091.221,1000.000,21.000,-180.00,0.00,0.00
C00515=1045.611,1079.000,21.200,-180.00,0.00,0.00
C00516=954.389,1079.000,21.400,-180.00,0.00,0.00
C00517=908.779,1000.000,21.600,-180.00,0.00,0.00
C00518=954.389,921.000,21.800,-180.00,0.00,0.00
C00519=1045.611,921.000,22.000,-180.00,0.00,0.00
C00520=1091.221,1000.000,22.200,-180.00,0.00,0.00
C00521=1045.611,1079.000,22.400,-180.00,0.00,0.00
C00522=954.389,1079.000,22.600,-180.00,0.00,0.00
C00523=908.779,1000.000,22.800,-180.00,0.00,0.00
C00524=954.389,921.000,23.000,-180.00,0.00,0.00
C00525=505.000,921.000,23.000,-180.00,0.00,0.00
C00526=1091.221,1000.000,23.400,-180.00,0.00,0.00
C00527=1045.611,1079.000,23.600,-180.00,0.00,0.00
C00528=954.389,1079.000,23.800,-180.00,0.00,0.00
C00529=908.779,1000.000,24.000,-180.00,0.00,0.00
C00530=954.389,921.000,24.200,-180.00,0.00,0.00
C00531=1045.611,921.000,24.400,-180.00,0.00,0.00
C00532=1091.221,1000.000,24.600,-180.00,0.00,0.00
C00533=1045.611,1079.000,24.800,-180.00,0.00,0.00
C00534=954.389,1079.000,25.000,-180.00,0.00,0.00
C00535=908.779,1000.000,25.200,-180.00,0.00,0.00
C00536=954.389,921.000,25.400,-180.00,0.00,0.00
C00537=1045.611,921.000,25.600,-180.00,0.00,0.00
C00538=1091.221,1000.000,25.800,-180.00,0.00,0.00
C00539=1045.611,1079.000,26.000,-180.00,0.00,0.00
C00540=954.389,1079.000,26.200,-180.00,0.00,0.00
C00541=908.779,1000.000,26.400,-180.00,0.00,0.00
C00542=954.389,921.000,26.600,-180.00,0.00,0.00
C00543=1045.611,921.000,26.800,-180.00,0.00,0.00
C00544=1091.221,1000.000,27.000,-180.00,0.00,0.00
C00545=1045.611,1079.000,27.200,-180.00,0.00,0.00
C00546=954.389,1079.000,27.400,-180.00,0.00,0.00
C00547=908.779,1000.000,27.600,-180.00,0.00,0.00
C00548=954.389,921.000,27.800,-180.00,0.00,0.00
C00549=1045.611,921.000,28.000,-180.00,0.00,0.00
C00550=1091.221,1000.000,28.200,-180.00,0.00,0.00
C00551=1045.611,1079.000,28.400,-180.00,0.00,0.00
C00552=954.389,1079.000,28.600,-180.00,0.00,0.00
C00553=908.779,1000.000,28.800,-180.00,0.00,0.00
C00554=954.389,921.000,29.000,-180.00,0.00,0.00
C00555=1045.611,921.000,29.200,-180.00,0.00,0.00
C00556=1091.221,1000.000,29.400,-180.00,0.00,0.00
C00557=1045.611,1079.000,29.600,-180.00,0.00,0.00
C00558=954.389,1079.000,29.800,-180.00,0.00,0.00
C00559=908.779,1000.000,30.000,-180.00,0.00,0.00
C00560=954.389,921.000,30.200,-180.00,0.00,0.00
C00561=1045.611,921.000,30.400,-180.00,0.00,0.00
C00562=1091.221,1000.000,30.600,-180.00,0.00,0.00
C00563=1045.611,1079.000,30.800,-180.00,0.00,0.00
C00564=954.389,1079.000,31.000,-180.00,0.00,0.00
C00565=908.779,1000.000,31.200,-180.00,0.00,0.00
C00566=954.389,921.000,31.400,-180.00,0.00,0.00
C00567=1045.611,921.000,31.600,-180.00,0.00,0.00
C00568=1091.221,1000.000,31.800,-180.00,0.00,0.00
C00569=1045.611,1079.000,32.000,-180.00,0.00,0.00
C00570=954.389,1079.000,32.200,-180.00,0.00,0.00
C00571=908.779,1000.000,32.400,-180.00,0.00,0.00
C00572=954.389,921.000,32.600,-180.00,0.00,0.00
C00573=1045.611,921.000,32.800,-180.00,0.00,0.00
C00574=1091.221,1000.000,33.000,-180.00,0.00,0.00
C00575=1045.611,1079.000,33.200,-180.00,0.00,0.00
C00576=954.389,1079.000,33.400,-180.00,0.00,0.00
C00577=908.779,1000.000,33.600,-180.00,0.00,0.00
C00578=954.389,921.000,33.800,-180.00,0.00,0.00
C00579=1045.611,921.000,34.000,-180.00,0.00,0.00
C00580=1091.221,1000.000,34.200,-180.00,0.00,0.00
C00581=1045.611,1079.000,34.400,-180.00,0.00,0.00
C00582=954.389,1079.000,34.600,-180.00,0.00,0.00
C00583=908.779,1000.000,34.800,-180.00,0.00,0.00
C00584=954.389,921.000,35.000,-180.00,0.00,0.00
C00585=1045.611,921.000,35.200,-180.00,0.00,0.00
C00586=1091.221,1000.000,35.400,-180.00,0.00,0.00
C00587=1045.611,1079.000,35.600,-180.00,0.00,0.00
C00588=954.389,1079.000,35.800,-180.00,0.00,0.00
C00589=908.779,1000.000,36.000,-180.00,0.00,0.00
C00590=954.389,921.000,36.200,-180.00,0.00,0.00
C00591=1045.611,921.000,36.400,-180.00,0.00,0.00
C00592=1091.221,1000.000,36.600,-180.00,0.00,0.00
C00593=1045.611,1079.000,36.800,-180.00,0.00,0.00
C00594=954.389,1079.000,37.000,-180.00,0.00,0.00
C00595=908.779,1000.000,37.200,-180.00,0.00,0.00
C00596=954.389,921.000,37.400,-180.00,0.00,0.00
C00597=1045.611,921.000,37.600,-180.00,0.00,0.00
C00598=1091.221,1000.000,37.800,-180.00,0.00,0.00
C00599=1045.611,1079.000,38.000,-180.00,0.00,0.00
C00600=954.389,1079.000,38.200,-180.00,0.00,0.00
C00601=908.779,1000.000,38.400,-180.00,0.00,0.00
C00602=954.389,921.000,38.600,-180.00,0.00,0.00
C00603=1045.611,921.000,38.800,-180.00,0.00,0.00
C00604=1091.221,1000.000,39.000,-180.00,0.00,0.00
C00605=1045.611,1079.000,39.200,-180.00,0.00,0.00
C00606=954.389,1079.000,39.400,-180.00,0.00,0.00
C00607=908.779,1000.000,39.600,-180.00,0.00,0.00
C00608=954.389,921.000,39.709,-180.00,0.00,0.00
C00609=1045.611,921.000,39.818,-180.00,0.00,0.00
C00610=1091.221,1000.000,39.927,-180.00,0.00,0.00
C00611=1045.611,1079.000,40.036,-180.00,0.00,0.00
C00612=954.389,1079.000,40.145,-180.00,0.00,0.00
C00613=908.779,1000.000,40.255,-180.00,0.00,0.00
C00614=954.389,921.000,40.255,-180.00,0.00,0.00
C00615=1045.611,921.000,40.255,-180.00,0.00,0.00
C00616=1091.221,1000.000,40.255,-180.00,0.00,0.00
C00617=1045.611,1079.000,40.255,-180.00,0.00,0.00
C00618=954.389,1079.000,40.255,-180.00,0.00,0.00
NOP
MOVJ C00000 VJ=50.00 PL=0
MOVL C00001 V=100.0 PL=0
MOVL C00002 V=100.0 PL=0
MOVL C00003 V=100.0 PL=0
MOVL C00004 V=100.0 PL=0
MOVL C00005 V=100.0 PL=0
MOVL C00006 V=100.0 PL=0
MOVL C00007 V=100.0 PL=0
MOVL C00008 V=100.0 PL=0
MOVL C00009 V=100.0 PL=0
MOVL C00010 V=100.0 PL=0
MOVL C00011 V=100.0 PL=0
MOVL C00012 V=100.0 PL=0
MOVL C00013 V=100.0 PL=0
MOVL C00014 V=100.0 PL=0
MOVL C00015 V=100.0 PL=0
MOVL C00016 V=100.0 PL=0
MOVL C00017 V=100.0 PL=0
MOVL C00018 V=100.0 PL=0
MOVL C00019 V=100.0 PL=0
MOVL C00020 V=100.0 PL=0
MOVL C00021 V=100.0 PL=0
MOVL C00022 V=100.0 PL=0
MOVL C00023 V=100.0 PL=0
MOVL C00024 V=100.0 PL=0
MOVL C00025 V=100.0 PL=0
MOVL C00026 V=100.0 PL=0
MOVL C00027 V=100.0 PL=0
MOVL C00028 V=100.0 PL=0
MOVL C00029 V=100.0 PL=0
MOVL C00030 V=100.0 PL=0
MOVL C00031 V=100.0 PL=0
MOVL C00032 V=100.0 PL=0
MOVL C00033 V=100.0 PL=0
MOVL C00034 V=100.0 PL=0
MOVL C00035 V=100.0 PL=0
MOVL C00036 V=100.0 PL=0
MOVL C00037 V=100.0 PL=0
MOVL C00038 V=100.0 PL=0
MOVL C00039 V=100.0 PL=0
MOVL C00040 V=100.0 PL=0
MOVL C00041 V=100.0 PL=0
MOVL C00042 V=100.0 PL=0
MOVL C00043 V=100.0 PL=0
MOVL C00044 V=100.0 PL=0
MOVL C00045 V=100.0 PL=0
MOVL C00046 V=100.0 PL=0
MOVL C00047 V=100.0 PL=0
MOVL C00048 V=100.0 PL=0
MOVL C00049 V=100.0 PL=0
MOVL C00050 V=100.0 PL=0
MOVL C00051 V=100.0 PL=0
MOVL C00052 V=100.0 PL=0
MOVL C00053 V=100.0 PL=0
MOVL C00054 V=100.0 PL=0
MOVL C00055 V=100.0 PL=0
MOVL C00056 V=100.0 PL=0
MOVL C00057 V=100.0 PL=0
MOVL C00058 V=100.0 PL=0
MOVL C00059 V=100.0 PL=0
MOVL C00060 V=100.0 PL=0
MOVL C00061 V=100.0 PL=0
MOVL C00062 V=100.0 PL=0
MOVL C00063 V=100.0 PL=0
MOVL C00064 V=100.0 PL=0
MOVL C00065 V=100.0 PL=0
MOVL C00066 V=100.0 PL=0
MOVL C00067 V=100.0 PL=0
MOVL C00068 V=100.0 PL=0
MOVL C00069 V=100.0 PL=0
MOVL C00070 V=100.0 PL=0
MOVL C00071 V=100.0 PL=0
MOVL C00072 V=100.0 PL=0
MOVL C00073 V=100.0 PL=0
MOVL C00074 V=100.0 PL=0
MOVL C00075 V=100.0 PL=0
MOVL C00076 V=100.0 PL=0
MOVL C00077 V=100.0 PL=0
MOVL C00078 V=100.0 PL=0
MOVL C00079 V=100.0 PL=0
MOVL C00080 V=100.0 PL=0
MOVL C00081 V=100.0 PL=0
MOVL C00082 V=100.0 PL=0
MOVL C00083 V=100.0 PL=0
MOVL C00084 V=100.0 PL=0
MOVL C00085 V=100.0 PL=0
MOVL C00086 V=100.0 PL=0
MOVL C00087 V=100.0 PL=0
MOVL C00088 V=100.0 PL=0
MOVL C00089 V=100.0 PL=0
MOVL C00090 V=100.0 PL=0
MOVL C00091 V=100.0 PL=0
MOVL C00092 V=100.0 PL=0
MOVL C00093 V=100.0 PL=0
MOVL C00094 V=100.0 PL=0
MOVL C00095 V=100.0 PL=0
MOVL C00096 V=100.0 PL=0
MOVL C00097 V=100.0 PL=0
MOVL C00098 V=100.0 PL=0
MOVL C00099 V=100.0 PL=0
MOVL C00100 V=100.0 PL=0
MOVL C00101 V=100.0 PL=0
MOVL C00102 V=100.0 PL=0
MOVL C00103 V=100.0 PL=0
MOVL C00104 V=100.0 PL=0
MOVL C00105 V=100.0 PL=0
MOVL C00106 V=100.0 PL=0
MOVL C00107 V=100.0 PL=0
MOVL C00108 V=100.0 PL=0
MOVL C00109 V=100.0 PL=0
MOVL C00110 V=100.0 PL=0
MOVL C00111 V=100.0 PL=0
MOVL C00112 V=100.0 PL=0
MOVL C00113 V=100.0 PL=0
MOVL C00114 V=100.0 PL=0
MOVL C00115 V=100.0 PL=0
MOVL C00116 V=100.0 PL=0
MOVL C00117 V=100.0 PL=0
MOVL C00118 V=100.0 PL=0
MOVL C00119 V=100.0 PL=0
MOVL C00120 V=100.0 PL=0
MOVL C00121 V=100.0 PL=0
MOVL C00122 V=100.0 PL=0
MOVL C00123 V=100.0 PL=0
MOVL C00124 V=100.0 PL=0
MOVL C00125 V=100.0 PL=0
MOVL C00126 V=100.0 PL=0
MOVL C00127 V=100.0 PL=0
MOVL C00128 V=100.0 PL=0
MOVL C00129 V=100.0 PL=0
MOVL C00130 V=100.0 PL=0
MOVL C00131 V=100.0 PL=0
MOVL C00132 V=100.0 PL=0
MOVL C00133 V=100.0 PL=0
MOVL C00134 V=100.0 PL=0
MOVL C00135 V=100.0 PL=0
MOVL C00136 V=100.0 PL=0
MOVL C00137 V=100.0 PL=0
MOVL C00138 V=100.0 PL=0
MOVL C00139 V=100.0 PL=0
MOVL C00140 V=100.0 PL=0
MOVL C00141 V=100.0 PL=0
MOVL C00142 V=100.0 PL=0
MOVL C00143 V=100.0 PL=0
MOVL C00144 V=100.0 PL=0
MOVL C00145 V=100.0 PL=0
MOVL C00146 V=100.0 PL=0
MOVL C00147 V=100.0 PL=0
MOVL C00148 V=100.0 PL=0
MOVL C00149 V=100.0 PL=0
MOVL C00150 V=100.0 PL=0
MOVL C00151 V=100.0 PL=0
MOVL C00152 V=100.0 PL=0
MOVL C00153 V=100.0 PL=0
MOVL C00154 V=100.0 PL=0
MOVL C00155 V=100.0 PL=0
MOVL C00156 V=100.0 PL=0
MOVL C00157 V=100.0 PL=0
MOVL C00158 V=100.0 PL=0
MOVL C00159 V=100.0 PL=0
MOVL C00160 V=100.0 PL=0
MOVL C00161 V=100.0 PL=0
MOVL C00162 V=100.0 PL=0
MOVL C00163 V=100.0 PL=0
MOVL C00164 V=100.0 PL=0
MOVL C00165 V=100.0 PL=0
MOVL C00166 V=100.0 PL=0
MOVL C00167 V=100.0 PL=0
MOVL C00168 V=100.0 PL=0
MOVL C00169 V=100.0 PL=0
MOVL C00170 V=100.0 PL=0
MOVL C00171 V=100.0 PL=0
MOVL C00172 V=100.0 PL=0
MOVL C00173 V=100.0 PL=0
MOVL C00174 V=100.0 PL=0
MOVL C00175 V=100.0 PL=0
MOVL C00176 V=100.0 PL=0
MOVL C00177 V=100.0 PL=0
MOVL C00178 V=100.0 PL=0
MOVL C00179 V=100.0 PL=0
MOVL C00180 V=100.0 PL=0
MOVL C00181 V=100.0 PL=0
MOVL C00182 V=100.0 PL=0
MOVL C00183 V=100.0 PL=0
MOVL C00184 V=100.0 PL=0
MOVL C00185 V=100.0 PL=0
MOVL C00186 V=100.0 PL=0
MOVL C00187 V=100.0 PL=0
MOVL C00188 V=100.0 PL=0
MOVL C00189 V=100.0 PL=0
MOVL C00190 V=100.0 PL=0
MOVL C00191 V=100.0 PL=0
MOVL C00192 V=100.0 PL=0
MOVL C00193 V=100.0 PL=0
MOVL C00194 V=100.0 PL=0
MOVL C00195 V=100.0 PL=0
MOVL C00196 V=100.0 PL=0
MOVL C00197 V=100.0 PL=0
MOVL C00198 V=100.0 PL=0
MOVL C00199 V=100.0 PL=0
MOVL C00200 V=100.0 PL=0
MOVL C00201 V=100.0 PL=0
MOVL C00202 V=100.0 PL=0
MOVL C00203 V=100.0 PL=0
MOVL C00204 V=100.0 PL=0
MOVL C00205 V=100.0 PL=0
MOVL C00206 V=100.0 PL=0
MOVL C00207 V=100.0 PL=0
MOVL C00208 V=100.0 PL=0
MOVL C00209 V=100.0 PL=0
MOVL C00210 V=100.0 PL=0
MOVL C00211 V=100.0 PL=0
MOVL C00212 V=100.0 PL=0
MOVL C00213 V=100.0 PL=0
MOVL C00214 V=100.0 PL=0
MOVL C00215 V=100.0 PL=0
MOVL C00216 V=100.0 PL=0
MOVL C00217 V=100.0 PL=0
MOVL C00218 V=100.0 PL=0
MOVL C00219 V=100.0 PL=0
MOVL C00220 V=100.0 PL=0
MOVL C00221 V=100.0 PL=0
MOVL C00222 V=100.0 PL=0
MOVL C00223 V=100.0 PL=0
MOVL C00224 V=100.0 PL=0
MOVL C00225 V=100.0 PL=0
MOVL C00226 V=100.0 PL=0
MOVL C00227 V=100.0 PL=0
MOVL C00228 V=100.0 PL=0
MOVL C00229 V=100.0 PL=0
MOVL C00230 V=100.0 PL=0
MOVL C00231 V=100.0 PL=0
MOVL C00232 V=100.0 PL=0
MOVL C00233 V=100.0 PL=0
MOVL C00234 V=100.0 PL=0
MOVL C00235 V=100.0 PL=0
MOVL C00236 V=100.0 PL=0
MOVL C00237 V=100.0 PL=0
MOVL C00238 V=100.0 PL=0
MOVL C00239 V=100.0 PL=0
MOVL C00240 V=100.0 PL=0
MOVL C00241 V=100.0 PL=0
MOVL C00242 V=100.0 PL=0
MOVL C00243 V=100.0 PL=0
MOVL C00244 V=100.0 PL=0
MOVL C00245 V=100.0 PL=0
MOVL C00246 V=100.0 PL=0
MOVL C00247 V=100.0 PL=0
MOVL C00248 V=100.0 PL=0
MOVL C00249 V=100.0 PL=0
MOVL C00250 V=100.0 PL=0
MOVL C00251 V=100.0 PL=0
MOVL C00252 V=100.0 PL=0
MOVL C00253 V=100.0 PL=0
MOVL C00254 V=100.0 PL=0
MOVL C00255 V=100.0 PL=0
MOVL C00256 V=100.0 PL=0
MOVL C00257 V=100.0 PL=0
MOVL C00258 V=100.0 PL=0
MOVL C00259 V=100.0 PL=0
MOVL C00260 V=100.0 PL=0
MOVL C00261 V=100.0 PL=0
MOVL C00262 V=100.0 PL=0
MOVL C00263 V=100.0 PL=0
MOVL C00264 V=100.0 PL=0
MOVL C00265 V=100.0 PL=0
MOVL C00266 V=100.0 PL=0
MOVL C00267 V=100.0 PL=0
MOVL C00268 V=100.0 PL=0
MOVL C00269 V=100.0 PL=0
MOVL C00270 V=100.0 PL=0
MOVL C00271 V=100.0 PL=0
MOVL C00272 V=100.0 PL=0
MOVL C00273 V=100.0 PL=0
MOVL C00274 V=100.0 PL=0
MOVL C00275 V=100.0 PL=0
MOVL C00276 V=100.0 PL=0
MOVL C00277 V=100.0 PL=0
MOVL C00278 V=100.0 PL=0
MOVL C00279 V=100.0 PL=0
MOVL C00280 V=100.0 PL=0
MOVL C00281 V=100.0 PL=0
MOVL C00282 V=100.0 PL=0
MOVL C00283 V=100.0 PL=0
MOVL C00284 V=100.0 PL=0
MOVL C00285 V=100.0 PL=0
MOVL C00286 V=100.0 PL=0
MOVL C00287 V=100.0 PL=0
MOVL C00288 V=100.0 PL=0
MOVL C00289 V=100.0 PL=0
MOVL C00290 V=100.0 PL=0
MOVL C00291 V=100.0 PL=0
MOVL C00292 V=100.0 PL=0
MOVL C00293 V=100.0 PL=0
MOVL C00294 V=100.0 PL=0
MOVL C00295 V=100.0 PL=0
MOVL C00296 V=100.0 PL=0
MOVL C00297 V=100.0 PL=0
MOVL C00298 V=100.0 PL=0
MOVL C00299 V=100.0 PL=0
MOVL C00300 V=100.0 PL=0
MOVL C00301 V=100.0 PL=0
MOVL C00302 V=100.0 PL=0
MOVL C00303 V=100.0 PL=0
MOVL C00304 V=100.0 PL=0
MOVL C00305 V=100.0 PL=0
MOVL C00306 V=100.0 PL=0
MOVL C00307 V=100.0 PL=0
MOVL C00308 V=100.0 PL=0
MOVL C00309 V=100.0 PL=0
MOVL C00310 V=100.0 PL=0
MOVL C00311 V=100.0 PL=0
MOVL C00312 V=100.0 PL=0
MOVL C00313 V=100.0 PL=0
MOVL C00314 V=100.0 PL=0
MOVL C00315 V=100.0 PL=0
MOVL C00316 V=100.0 PL=0
MOVL C00317 V=100.0 PL=0
MOVL C00318 V=100.0 PL=0
MOVL C00319 V=100.0 PL=0
MOVL C00320 V=100.0 PL=0
MOVL C00321 V=100.0 PL=0
MOVL C00322 V=100.0 PL=0
MOVL C00323 V=100.0 PL=0
MOVL C00324 V=100.0 PL=0
MOVL C00325 V=100.0 PL=0
MOVL C00326 V=100.0 PL=0
MOVL C00327 V=100.0 PL=0
MOVL C00328 V=100.0 PL=0
MOVL C00329 V=100.0 PL=0
MOVL C00330 V=100.0 PL=0
MOVL C00331 V=100.0 PL=0
MOVL C00332 V=100.0 PL=0
MOVL C00333 V=100.0 PL=0
MOVL C00334 V=100.0 PL=0
MOVL C00335 V=100.0 PL=0
MOVL C00336 V=100.0 PL=0
MOVL C00337 V=100.0 PL=0
MOVL C00338 V=100.0 PL=0
MOVL C00339 V=100.0 PL=0
MOVL C00340 V=100.0 PL=0
MOVL C00341 V=100.0 PL=0
MOVL C00342 V=100.0 PL=0
MOVL C00343 V=100.0 PL=0
MOVL C00344 V=100.0 PL=0
MOVL C00345 V=100.0 PL=0
MOVL C00346 V=100.0 PL=0
MOVL C00347 V=100.0 PL=0
MOVL C00348 V=100.0 PL=0
MOVL C00349 V=100.0 PL=0
MOVL C00350 V=100.0 PL=0
MOVL C00351 V=100.0 PL=0
MOVL C00352 V=100.0 PL=0
MOVL C00353 V=100.0 PL=0
MOVL C00354 V=100.0 PL=0
MOVL C00355 V=100.0 PL=0
MOVL C00356 V=100.0 PL=0
MOVL C00357 V=100.0 PL=0
MOVL C00358 V=100.0 PL=0
MOVL C00359 V=100.0 PL=0
MOVL C00360 V=100.0 PL=0
MOVL C00361 V=100.0 PL=0
MOVL C00362 V=100.0 PL=0
MOVL C00363 V=100.0 PL=0
MOVL C00364 V=100.0 PL=0
MOVL C00365 V=100.0 PL=0
MOVL C00366 V=100.0 PL=0
MOVL C00367 V=100.0 PL=0
MOVL C00368 V=100.0 PL=0
MOVL C00369 V=100.0 PL=0
MOVL C00370 V=100.0 PL=0
MOVL C00371 V=100.0 PL=0
MOVL C00372 V=100.0 PL=0
MOVL C00373 V=100.0 PL=0
MOVL C00374 V=100.0 PL=0
MOVL C00375 V=100.0 PL=0
MOVL C00376 V=100.0 PL=0
MOVL C00377 V=100.0 PL=0
MOVL C00378 V=100.0 PL=0
MOVL C00379 V=100.0 PL=0
MOVL C00380 V=100.0 PL=0
MOVL C00381 V=100.0 PL=0
MOVL C00382 V=100.0 PL=0
MOVL C00383 V=100.0 PL=0
MOVL C00384 V=100.0 PL=0
MOVL C00385 V=100.0 PL=0
MOVL C00386 V=100.0 PL=0
MOVL C00387 V=100.0 PL=0
MOVL C00388 V=100.0 PL=0
MOVL C00389 V=100.0 PL=0
MOVL C00390 V=100.0 PL=0
MOVL C00391 V=100.0 PL=0
MOVL C00392 V=100.0 PL=0
MOVL C00393 V=100.0 PL=0
MOVL C00394 V=100.0 PL=0
MOVL C00395 V=100.0 PL=0
MOVL C00396 V=100.0 PL=0
MOVL C00397 V=100.0 PL=0
MOVL C00398 V=100.0 PL=0
MOVL C00399 V=100.0 PL=0
MOVL C00400 V=100.0 PL=0
MOVL C00401 V=100.0 PL=0
MOVL C00402 V=100.0 PL=0
MOVL C00403 V=100.0 PL=0
MOVL C00404 V=100.0 PL=0
MOVL C00405 V=100.0 PL=0
MOVL C00406 V=100.0 PL=0
MOVL C00407 V=100.0 PL=0
MOVL C00408 V=100.0 PL=0
MOVL C00409 V=100.0 PL=0
MOVL C00410 V=100.0 PL=0
MOVL C00411 V=100.0 PL=0
MOVL C00412 V=100.0 PL=0
MOVL C00413 V=100.0 PL=0
MOVL C00414 V=100.0 PL=0
MOVL C00415 V=100.0 PL=0
MOVL C00416 V=100.0 PL=0
MOVL C00417 V=100.0 PL=0
MOVL C00418 V=100.0 PL=0
MOVL C00419 V=100.0 PL=0
MOVL C00420 V=100.0 PL=0
MOVL C00421 V=100.0 PL=0
MOVL C00422 V=100.0 PL=0
MOVL C00423 V=100.0 PL=0
MOVL C00424 V=100.0 PL=0
MOVL C00425 V=100.0 PL=0
MOVL C00426 V=100.0 PL=0
MOVL C00427 V=100.0 PL=0
MOVL C00428 V=100.0 PL=0
MOVL C00429 V=100.0 PL=0
MOVL C00430 V=100.0 PL=0
MOVL C00431 V=100.0 PL=0
MOVL C00432 V=100.0 PL=0
MOVL C00433 V=100.0 PL=0
MOVL C00434 V=100.0 PL=0
MOVL C00435 V=100.0 PL=0
MOVL C00436 V=100.0 PL=0
MOVL C00437 V=100.0 PL=0
MOVL C00438 V=100.0 PL=0
MOVL C00439 V=100.0 PL=0
MOVL C00440 V=100.0 PL=0
MOVL C00441 V=100.0 PL=0
MOVL C00442 V=100.0 PL=0
MOVL C00443 V=100.0 PL=0
MOVL C00444 V=100.0 PL=0
MOVL C00445 V=100.0 PL=0
MOVL C00446 V=100.0 PL=0
MOVL C00447 V=100.0 PL=0
MOVL C00448 V=100.0 PL=0
MOVL C00449 V=100.0 PL=0
MOVL C00450 V=100.0 PL=0
MOVL C00451 V=100.0 PL=0
MOVL C00452 V=100.0 PL=0
MOVL C00453 V=100.0 PL=0
MOVL C00454 V=100.0 PL=0
MOVL C00455 V=100.0 PL=0
MOVL C00456 V=100.0 PL=0
MOVL C00457 V=100.0 PL=0
MOVL C00458 V=100.0 PL=0
MOVL C00459 V=100.0 PL=0
MOVL C00460 V=100.0 PL=0
MOVL C00461 V=100.0 PL=0
MOVL C00462 V=100.0 PL=0
MOVL C00463 V=100.0 PL=0
MOVL C00464 V=100.0 PL=0
MOVL C00465 V=100.0 PL=0
MOVL C00466 V=100.0 PL=0
MOVL C00467 V=100.0 PL=0
MOVL C00468 V=100.0 PL=0
MOVL C00469 V=100.0 PL=0
MOVL C00470 V=100.0 PL=0
MOVL C00471 V=100.0 PL=0
MOVL C00472 V=100.0 PL=0
MOVL C00473 V=100.0 PL=0
MOVL C00474 V=100.0 PL=0
MOVL C00475 V=100.0 PL=0
MOVL C00476 V=100.0 PL=0
MOVL C00477 V=100.0 PL=0
MOVL C00478 V=100.0 PL=0
MOVL C00479 V=100.0 PL=0
MOVL C00480 V=100.0 PL=0
MOVL C00481 V=100.0 PL=0
MOVL C00482 V=100.0 PL=0
MOVL C00483 V=100.0 PL=0
MOVL C00484 V=100.0 PL=0
MOVL C00485 V=100.0 PL=0
MOVL C00486 V=100.0 PL=0
MOVL C00487 V=100.0 PL=0
MOVL C00488 V=100.0 PL=0
MOVL C00489 V=100.0 PL=0
MOVL C00490 V=100.0 PL=0
MOVL C00491 V=100.0 PL=0
MOVL C00492 V=100.0 PL=0
MOVL C00493 V=100.0 PL=0
MOVL C00494 V=100.0 PL=0
MOVL C00495 V=100.0 PL=0
MOVL C00496 V=100.0 PL=0
MOVL C00497 V=100.0 PL=0
MOVL C00498 V=100.0 PL=0
MOVL C00499 V=100.0 PL=0
MOVL C00500 V=100.0 PL=0
MOVL C00501 V=100.0 PL=0
MOVL C00502 V=100.0 PL=0
MOVL C00503 V=100.0 PL=0
MOVL C00504 V=100.0 PL=0
MOVL C00505 V=100.0 PL=0
MOVL C00506 V=100.0 PL=0
MOVL C00507 V=100.0 PL=0
MOVL C00508 V=100.0 PL=0
MOVL C00509 V=100.0 PL=0
MOVL C00510 V=100.0 PL=0
MOVL C00511 V=100.0 PL=0
MOVL C00512 V=100.0 PL=0
MOVL C00513 V=100.0 PL=0
MOVL C00514 V=100.0 PL=0
MOVL C00515 V=100.0 PL=0
MOVL C00516 V=100.0 PL=0
MOVL C00517 V=100.0 PL=0
MOVL C00518 V=100.0 PL=0
MOVL C00519 V=100.0 PL=0
MOVL C00520 V=100.0 PL=0
MOVL C00521 V=100.0 PL=0
MOVL C00522 V=100.0 PL=0
MOVL C00523 V=100.0 PL=0
MOVL C00524 V=100.0 PL=0
MOVL C00525 V=100.0 PL=0
MOVL C00526 V=100.0 PL=0
MOVL C00527 V=100.0 PL=0
MOVL C00528 V=100.0 PL=0
MOVL C00529 V=100.0 PL=0
MOVL C00530 V=100.0 PL=0
MOVL C00531 V=100.0 PL=0
MOVL C00532 V=100.0 PL=0
MOVL C00533 V=100.0 PL=0
MOVL C00534 V=100.0 PL=0
MOVL C00535 V=100.0 PL=0
MOVL C00536 V=100.0 PL=0
MOVL C00537 V=100.0 PL=0
MOVL C00538 V=100.0 PL=0
MOVL C00539 V=100.0 PL=0
MOVL C00540 V=100.0 PL=0
MOVL C00541 V=100.0 PL=0
MOVL C00542 V=100.0 PL=0
MOVL C00543 V=100.0 PL=0
MOVL C00544 V=100.0 PL=0
MOVL C00545 V=100.0 PL=0
MOVL C00546 V=100.0 PL=0
MOVL C00547 V=100.0 PL=0
MOVL C00548 V=100.0 PL=0
MOVL C00549 V=100.0 PL=0
MOVL C00550 V=100.0 PL=0
MOVL C00551 V=100.0 PL=0
MOVL C00552 V=100.0 PL=0
MOVL C00553 V=100.0 PL=0
MOVL C00554 V=100.0 PL=0
MOVL C00555 V=100.0 PL=0
MOVL C00556 V=100.0 PL=0
MOVL C00557 V=100.0 PL=0
MOVL C00558 V=100.0 PL=0
MOVL C00559 V=100.0 PL=0
MOVL C00560 V=100.0 PL=0
MOVL C00561 V=100.0 PL=0
MOVL C00562 V=100.0 PL=0
MOVL C00563 V=100.0 PL=0
MOVL C00564 V=100.0 PL=0
MOVL C00565 V=100.0 PL=0
MOVL C00566 V=100.0 PL=0
MOVL C00567 V=100.0 PL=0
MOVL C00568 V=100.0 PL=0
MOVL C00569 V=100.0 PL=0
MOVL C00570 V=100.0 PL=0
MOVL C00571 V=100.0 PL=0
MOVL C00572 V=100.0 PL=0
MOVL C00573 V=100.0 PL=0
MOVL C00574 V=100.0 PL=0
MOVL C00575 V=100.0 PL=0
MOVL C00576 V=100.0 PL=0
MOVL C00577 V=100.0 PL=0
MOVL C00578 V=100.0 PL=0
MOVL C00579 V=100.0 PL=0
MOVL C00580 V=100.0 PL=0
MOVL C00581 V=100.0 PL=0
MOVL C00582 V=100.0 PL=0
MOVL C00583 V=100.0 PL=0
MOVL C00584 V=100.0 PL=0
MOVL C00585 V=100.0 PL=0
MOVL C00586 V=100.0 PL=0
MOVL C00587 V=100.0 PL=0
MOVL C00588 V=100.0 PL=0
MOVL C00589 V=100.0 PL=0
MOVL C00590 V=100.0 PL=0
MOVL C00591 V=100.0 PL=0
MOVL C00592 V=100.0 PL=0
MOVL C00593 V=100.0 PL=0
MOVL C00594 V=100.0 PL=0
MOVL C00595 V=100.0 PL=0
MOVL C00596 V=100.0 PL=0
MOVL C00597 V=100.0 PL=0
MOVL C00598 V=100.0 PL=0
MOVL C00599 V=100.0 PL=0
MOVL C00600 V=100.0 PL=0
MOVL C00601 V=100.0 PL=0
MOVL C00602 V=100.0 PL=0
MOVL C00603 V=100.0 PL=0
MOVL C00604 V=100.0 PL=0
MOVL C00605 V=100.0 PL=0
MOVL C00606 V=100.0 PL=0
MOVL C00607 V=100.0 PL=0
MOVL C00608 V=100.0 PL=0
MOVL C00609 V=100.0 PL=0
MOVL C00610 V=100.0 PL=0
MOVL C00611 V=100.0 PL=0
MOVL C00612 V=100.0 PL=0
MOVL C00613 V=100.0 PL=0
MOVL C00614 V=100.0 PL=0
MOVL C00615 V=100.0 PL=0
MOVL C00616 V=100.0 PL=0
MOVL C00617 V=100.0 PL=0
MOVL C00618 V=100.0 PL=0
END